backend/app/data/luts/cinematic.cube
TITLE "cinematic"
LUT_3D_SIZE 33
0.000000 0.014911 0.072661
0.000000 0.014635 0.071305
0.000000 0.014364 0.069952
0.026276 0.013708 0.068212
0.062930 0.012919 0.066337
0.099591 0.012135 0.064466
0.136259 0.011356 0.062598
0.172935 0.010582 0.060733
0.209617 0.009814 0.058872
0.246306 0.009051 0.057014
0.283002 0.008293 0.055159
0.319706 0.007540 0.053308
0.356416 0.006793 0.051461
0.393134 0.006051 0.049616
0.429858 0.005314 0.047775
0.466590 0.004582 0.045938
0.503328 0.003855 0.044104
0.540074 0.003134 0.042273
0.576827 0.002418 0.040445
0.613587 0.001707 0.038621
0.650354 0.001002 0.036801
0.687127 0.000301 0.034984
0.723908 0.000000 0.033170
0.760696 0.000000 0.031359
0.797492 0.000000 0.029552
0.834294 0.000000 0.027749
0.871103 0.000000 0.025948
0.907919 0.000000 0.024151
0.944742 0.000000 0.022358
0.981573 0.000000 0.020568
1.000000 0.000000 0.018781
1.000000 0.000000 0.017372
1.000000 0.000000 0.016115
0.000000 0.014374 0.070002
0.000000 0.014108 0.068652
0.000000 0.013848 0.067307
0.027122 0.013191 0.065562
0.063790 0.012412 0.063694
0.100464 0.011638 0.061829
0.137146 0.010869 0.059967
0.173835 0.010106 0.058109
0.210531 0.009348 0.056255
0.247235 0.008595 0.054404
0.283945 0.007848 0.052556
0.320662 0.007105 0.050711
0.357386 0.006368 0.048870
0.394118 0.005636 0.047032
0.430856 0.004909 0.045198
0.467601 0.004188 0.043367
0.504354 0.003472 0.041540
0.541113 0.002761 0.039716
0.577880 0.002055 0.037895
0.614654 0.001354 0.036078
0.651434 0.000659 0.034264
0.688222 0.000000 0.032453
0.725017 0.000000 0.030646
0.761819 0.000000 0.028842
0.798628 0.000000 0.027042
0.835444 0.000000 0.025245
0.872267 0.000000 0.023451
0.909097 0.000000 0.021661
0.945934 0.000000 0.019874
0.982778 0.000000 0.018091
1.000000 0.000000 0.016311
1.000000 0.000000 0.014908
1.000000 0.000000 0.013658
0.000000 0.032995 0.066806
0.000000 0.032740 0.065463
0.000000 0.032490 0.064125
0.027444 0.031831 0.062374
0.064126 0.031062 0.060513
0.100814 0.030299 0.058655
0.137510 0.029540 0.056800
0.174213 0.028787 0.054949
0.210923 0.028039 0.053101
0.247640 0.027297 0.051256
0.284364 0.026560 0.049415
0.321095 0.025827 0.047577
0.357833 0.025100 0.045743
0.394578 0.024379 0.043912
0.431331 0.023662 0.042084
0.468090 0.022951 0.040260
0.504856 0.022245 0.038439
0.541630 0.021544 0.036621
0.578410 0.020849 0.034807
0.615198 0.020158 0.032997
0.651992 0.019473 0.031189
0.688794 0.018793 0.029385
0.725603 0.018118 0.027585
0.762418 0.017449 0.025788
0.799241 0.016785 0.023994
0.836071 0.016126 0.022204
0.872908 0.015472 0.020417
0.909752 0.014823 0.018633
0.946603 0.014180 0.016853
0.983461 0.013542 0.015076
1.000000 0.012909 0.013303
1.000000 0.012655 0.011906
1.000000 0.012556 0.010663
0.000000 0.067584 0.063165
0.000000 0.067339 0.061829
0.000000 0.067100 0.060497
0.027335 0.066439 0.058741
0.064030 0.065680 0.056886
0.100733 0.064927 0.055035
0.137443 0.064179 0.053187
0.174159 0.063436 0.051342
0.210883 0.062699 0.049501
0.247614 0.061966 0.047663
0.284352 0.061239 0.045828
0.321097 0.060517 0.043997
0.357849 0.059801 0.042169
0.394608 0.059089 0.040345
0.431374 0.058383 0.038524
0.468147 0.057682 0.036707
0.504927 0.056986 0.034892
0.541714 0.056296 0.033081
0.578509 0.055610 0.031274
0.615310 0.054930 0.029470
0.652119 0.054255 0.027669
0.688934 0.053586 0.025872
0.725757 0.052921 0.024078
0.762586 0.052262 0.022288
0.799423 0.051608 0.020501
0.836267 0.050959 0.018717
0.873117 0.050316 0.016937
0.909975 0.049677 0.015160
0.946840 0.049044 0.013386
0.983712 0.048416 0.011616
1.000000 0.047794 0.009849
1.000000 0.047550 0.008460
1.000000 0.047461 0.007223
0.000000 0.102194 0.059537
0.000000 0.101960 0.058209
0.000000 0.101731 0.056884
0.027253 0.101067 0.055121
0.063962 0.100318 0.053273
0.100679 0.099576 0.051428
0.137402 0.098838 0.049587
0.174133 0.098105 0.047749
0.210871 0.097378 0.045914
0.247615 0.096656 0.044083
0.284367 0.095939 0.042255
0.321126 0.095227 0.040430
0.357891 0.094521 0.038609
0.394664 0.093820 0.036792
0.431444 0.093124 0.034977
0.468231 0.092433 0.033166
0.505025 0.091747 0.031359
0.541826 0.091067 0.029555
0.578635 0.090392 0.027754
0.615450 0.089722 0.025957
0.652272 0.089058 0.024163
0.689101 0.088398 0.022372
0.725938 0.087744 0.020585
0.762781 0.087095 0.018801
0.799632 0.086451 0.017020
0.836489 0.085813 0.015243
0.873354 0.085179 0.013470
0.910226 0.084551 0.011699
0.947104 0.083928 0.009933
0.983990 0.083311 0.008169
1.000000 0.082698 0.006409
1.000000 0.082465 0.005026
1.000000 0.082393 0.003803
0.000000 0.136824 0.055923
0.000000 0.136600 0.054601
0.000000 0.136382 0.053283
0.027198 0.135715 0.051514
0.063922 0.134977 0.049673
0.100652 0.134244 0.047835
0.137389 0.133517 0.046000
0.174134 0.132794 0.044169
0.210885 0.132077 0.042340
0.247644 0.131366 0.040516
0.284409 0.130659 0.038695
0.321182 0.129958 0.036877
0.357961 0.129261 0.035062
0.394748 0.128570 0.033251
0.431542 0.127885 0.031444
0.468343 0.127204 0.029639
0.505151 0.126529 0.027838
0.541966 0.125859 0.026041
0.578788 0.125194 0.024247
0.615617 0.124534 0.022456
0.652453 0.123880 0.020669
0.689296 0.123231 0.018885
0.726146 0.122587 0.017104
0.763004 0.121948 0.015327
0.799868 0.121315 0.013553
0.836739 0.120686 0.011783
0.873618 0.120063 0.010016
0.910503 0.119446 0.008252
0.947396 0.118833 0.006492
0.984296 0.118226 0.004735
1.000000 0.117623 0.002982
1.000000 0.117416 0.001621
1.000000 0.117358 0.000408
0.000000 0.171475 0.052323
0.000000 0.171261 0.051008
0.000000 0.171053 0.049696
0.027171 0.170383 0.047921
0.063908 0.169655 0.046086
0.100652 0.168933 0.044254
0.137403 0.168216 0.042426
0.174161 0.167504 0.040601
0.210927 0.166797 0.038780
0.247699 0.166095 0.036962
0.284479 0.165399 0.035147
0.321265 0.164708 0.033336
0.358059 0.164022 0.031528
0.394859 0.163341 0.029724
0.431667 0.162666 0.027923
0.468482 0.161996 0.026125
0.505303 0.161330 0.024331
0.542132 0.160671 0.022540
0.578968 0.160016 0.020753
0.615811 0.159367 0.018969
0.652661 0.158723 0.017188
0.689518 0.158084 0.015411
0.726382 0.157450 0.013637
0.763253 0.156822 0.011866
0.800131 0.156198 0.010099
0.837017 0.155580 0.008335
0.873909 0.154967 0.006575
0.910808 0.154360 0.004818
0.947715 0.153758 0.003065
0.984628 0.153160 0.001314
1.000000 0.152568 0.000000
1.000000 0.152391 0.000000
1.000000 0.152343 0.000000
0.000000 0.206146 0.048736
0.000000 0.205943 0.047427
0.000000 0.205746 0.046123
0.027170 0.205072 0.044340
0.063921 0.204354 0.042512
0.100679 0.203642 0.040687
0.137444 0.202935 0.038865
0.174217 0.202233 0.037047
0.210996 0.201537 0.035232
0.247782 0.200845 0.033421
0.284575 0.200159 0.031613
0.321376 0.199478 0.029809
0.358183 0.198803 0.028008
0.394997 0.198132 0.026210
0.431819 0.197467 0.024415
0.468647 0.196807 0.022624
0.505483 0.196152 0.020837
0.542326 0.195503 0.019053
0.579175 0.194858 0.017272
0.616032 0.194219 0.015494
0.652896 0.193585 0.013720
0.689767 0.192957 0.011950
0.726645 0.192333 0.010182
0.763530 0.191715 0.008419
0.800422 0.191102 0.006658
0.837321 0.190494 0.004901
0.874227 0.189892 0.003147
0.911140 0.189294 0.001397
0.948061 0.188702 0.000000
0.984988 0.188115 0.000000
1.000000 0.187534 0.000000
1.000000 0.187387 0.000000
1.000000 0.187349 0.000000
0.000000 0.240838 0.045162
0.000000 0.240645 0.043861
0.000000 0.240458 0.042563
0.027197 0.239780 0.040772
0.063962 0.239073 0.038951
0.100734 0.238371 0.037132
0.137513 0.237674 0.035317
0.174299 0.236983 0.033506
0.211092 0.236296 0.031698
0.247892 0.235615 0.029893
0.284699 0.234939 0.028092
0.321513 0.234269 0.026294
0.358334 0.233603 0.024500
0.395163 0.232943 0.022709
0.431998 0.232288 0.020921
0.468840 0.231639 0.019137
0.505690 0.230994 0.017356
0.542546 0.230355 0.015578
0.579410 0.229721 0.013804
0.616281 0.229092 0.012033
0.653158 0.228468 0.010266
0.690043 0.227850 0.008502
0.726935 0.227237 0.006741
0.763834 0.226629 0.004984
0.800740 0.226026 0.003230
0.837653 0.225428 0.001480
0.874573 0.224836 0.000000
0.911500 0.224249 0.000000
0.948434 0.223667 0.000000
0.985375 0.223090 0.000000
1.000000 0.222519 0.000000
1.000000 0.222402 0.000000
1.000000 0.222375 0.000000
0.000000 0.275550 0.041602
0.000000 0.275368 0.040307
0.000000 0.275192 0.039016
0.027251 0.274509 0.037217
0.064030 0.273812 0.035403
0.100816 0.273120 0.033591
0.137608 0.272434 0.031783
0.174408 0.271752 0.029978
0.211215 0.271076 0.028177
0.248029 0.270406 0.026379
0.284850 0.269740 0.024584
0.321678 0.269080 0.022793
0.358513 0.268424 0.021005
0.395355 0.267774 0.019220
0.432204 0.267130 0.017439
0.469061 0.266490 0.015662
0.505924 0.265856 0.013887
0.542794 0.265227 0.012117
0.579672 0.264603 0.010349
0.616556 0.263985 0.008585
0.653448 0.263371 0.006824
0.690346 0.262763 0.005067
0.727252 0.262160 0.003313
0.764165 0.261562 0.001562
0.801085 0.260970 0.000000
0.838011 0.260383 0.000000
0.874945 0.259801 0.000000
0.911886 0.259224 0.000000
0.948834 0.258652 0.000000
0.985789 0.258086 0.000000
1.000000 0.257525 0.000000
1.000000 0.257439 0.000000
1.000000 0.257422 0.000000
0.000000 0.310283 0.038055
0.000000 0.310111 0.036767
0.000000 0.309945 0.035483
0.027333 0.309258 0.033676
0.064125 0.308571 0.031868
0.100925 0.307889 0.030063
0.137731 0.307213 0.028261
0.174545 0.306542 0.026463
0.211366 0.305876 0.024668
0.248193 0.305216 0.022877
0.285028 0.304560 0.021089
0.321870 0.303910 0.019304
0.358719 0.303265 0.017523
0.395575 0.302626 0.015745
0.432438 0.301991 0.013971
0.469308 0.301362 0.012200
0.506185 0.300738 0.010432
0.543070 0.300119 0.008668
0.579961 0.299506 0.006907
0.616859 0.298897 0.005150
0.653765 0.298294 0.003396
0.690677 0.297696 0.001645
0.727597 0.297104 0.000000
0.764523 0.296516 0.000000
0.801457 0.295934 0.000000
0.838397 0.295357 0.000000
0.875345 0.294785 0.000000
0.912300 0.294219 0.000000
0.949262 0.293657 0.000000
0.986231 0.293101 0.000000
1.000000 0.292550 0.000000
1.000000 0.292496 0.000000
1.000000 0.292490 0.000000
0.000000 0.345036 0.034522
0.000000 0.344875 0.033241
0.000000 0.344708 0.031952
0.027441 0.344027 0.030147
0.064247 0.343350 0.028346
0.101061 0.342679 0.026547
0.137881 0.342013 0.024753
0.174709 0.341352 0.022961
0.211543 0.340697 0.021173
0.248385 0.340046 0.019388
0.285234 0.339401 0.017607
0.322089 0.338761 0.015829
0.358952 0.338127 0.014055
0.395822 0.337497 0.012283
0.432699 0.336873 0.010516
0.469583 0.336254 0.008751
0.506474 0.335640 0.006990
0.543372 0.335032 0.005233
0.580277 0.334428 0.003479
0.617189 0.333830 0.001728
0.654108 0.333237 0.000000
0.691035 0.332650 0.000000
0.727968 0.332067 0.000000
0.764909 0.331490 0.000000
0.801856 0.330918 0.000000
0.838811 0.330351 0.000000
0.875772 0.329790 0.000000
0.912741 0.329234 0.000000
0.949716 0.328682 0.000000
0.986699 0.328137 0.000000
1.000000 0.327596 0.000000
1.000000 0.327574 0.000000
1.000000 0.327578 0.000000
0.000000 0.379810 0.031002
0.000000 0.379660 0.029728
0.000000 0.379487 0.028430
0.027577 0.378816 0.026632
0.064397 0.378149 0.024837
0.101224 0.377488 0.023045
0.138058 0.376833 0.021257
0.174900 0.376182 0.019472
0.211748 0.375537 0.017691
0.248604 0.374897 0.015913
0.285466 0.374262 0.014138
0.322336 0.373632 0.012367
0.359212 0.373008 0.010599
0.396096 0.372389 0.008835
0.432987 0.371775 0.007073
0.469885 0.371166 0.005316
0.506790 0.370563 0.003561
0.543702 0.369964 0.001810
0.580620 0.369371 0.000063
0.617547 0.368783 0.000000
0.654480 0.368201 0.000000
0.691420 0.367623 0.000000
0.728367 0.367051 0.000000
0.765321 0.366484 0.000000
0.802283 0.365923 0.000000
0.839251 0.365366 0.000000
0.876226 0.364815 0.000000
0.913209 0.364269 0.000000
0.950198 0.363728 0.000000
0.987195 0.363192 0.000000
1.000000 0.362662 0.000000
1.000000 0.362672 0.000000
1.000000 0.362686 0.000000
0.000000 0.414604 0.027495
0.000000 0.414464 0.026229
0.000000 0.414286 0.024921
0.027740 0.413625 0.023130
0.064574 0.412969 0.021341
0.101415 0.412318 0.019556
0.138263 0.411673 0.017775
0.175118 0.411032 0.015997
0.211980 0.410397 0.014222
0.248850 0.409768 0.012450
0.285726 0.409143 0.010682
0.322609 0.408524 0.008918
0.359500 0.407909 0.007156
0.396398 0.407301 0.005399
0.433302 0.406697 0.003644
0.470214 0.406098 0.001893
0.507132 0.405505 0.000145
0.544058 0.404917 0.000000
0.580991 0.404334 0.000000
0.617931 0.403757 0.000000
0.654878 0.403184 0.000000
0.691832 0.402617 0.000000
0.728793 0.402055 0.000000
0.765761 0.401498 0.000000
0.802736 0.400947 0.000000
0.839718 0.400401 0.000000
0.876708 0.399860 0.000000
0.913704 0.399324 0.000000
0.950707 0.398793 0.000000
0.987718 0.398268 0.000000
1.000000 0.397770 0.000000
1.000000 0.397790 0.000000
1.000000 0.397815 0.000000
0.000000 0.449419 0.024003
0.000000 0.449290 0.022743
0.000000 0.449105 0.021425
0.027930 0.448454 0.019640
0.064777 0.447808 0.017859
0.101632 0.447168 0.016080
0.138494 0.446533 0.014305
0.175363 0.445903 0.012534
0.212240 0.445278 0.010766
0.249123 0.444658 0.009001
0.286013 0.444044 0.007240
0.322910 0.443435 0.005482
0.359815 0.442831 0.003727
0.396726 0.442232 0.001976
0.433644 0.441639 0.000228
0.470570 0.441051 0.000000
0.507503 0.440468 0.000000
0.544442 0.439890 0.000000
0.581389 0.439317 0.000000
0.618343 0.438750 0.000000
0.655303 0.438188 0.000000
0.692271 0.437631 0.000000
0.729246 0.437079 0.000000
0.766228 0.436533 0.000000
0.803217 0.435992 0.000000
0.840213 0.435456 0.000000
0.877216 0.434925 0.000000
0.914226 0.434399 0.000000
0.951244 0.433879 0.000000
0.988268 0.433364 0.000000
1.000000 0.432899 0.000000
1.000000 0.432926 0.000000
1.000000 0.432956 0.000000
0.000000 0.484255 0.020523
0.000000 0.484136 0.019270
0.000000 0.483944 0.017942
0.028147 0.483304 0.016164
0.065008 0.482668 0.014389
0.101877 0.482038 0.012617
0.138753 0.481413 0.010849
0.175636 0.480793 0.009084
0.212526 0.480179 0.007323
0.249423 0.479569 0.005565
0.286327 0.478965 0.003810
0.323238 0.478366 0.002059
0.360157 0.477773 0.000311
0.397082 0.477184 0.000000
0.434014 0.476601 0.000000
0.470953 0.476023 0.000000
0.507900 0.475450 0.000000
0.544853 0.474883 0.000000
0.581814 0.474321 0.000000
0.618781 0.473763 0.000000
0.655756 0.473212 0.000000
0.692738 0.472665 0.000000
0.729727 0.472124 0.000000
0.766722 0.471587 0.000000
0.803725 0.471056 0.000000
0.840735 0.470531 0.000000
0.877752 0.470010 0.000000
0.914776 0.469495 0.000000
0.951807 0.468985 0.000000
0.988843 0.468477 0.000000
1.000000 0.468039 0.000000
1.000000 0.468074 0.000000
1.000000 0.468113 0.000000
0.000000 0.519111 0.017057
0.000000 0.519002 0.015811
0.000000 0.518803 0.014472
0.028391 0.518173 0.012701
0.065267 0.517548 0.010932
0.102149 0.516928 0.009167
0.139039 0.516313 0.007406
0.175936 0.515704 0.005648
0.212840 0.515099 0.003893
0.249751 0.514500 0.002141
0.286669 0.513907 0.000393
0.323594 0.513318 0.000000
0.360526 0.512735 0.000000
0.397465 0.512156 0.000000
0.434411 0.511583 0.000000
0.471364 0.511016 0.000000
0.508324 0.510453 0.000000
0.545292 0.509896 0.000000
0.582266 0.509344 0.000000
0.619247 0.508797 0.000000
0.656236 0.508255 0.000000
0.693232 0.507719 0.000000
0.730234 0.507188 0.000000
0.767244 0.506662 0.000000
0.804261 0.506141 0.000000
0.841284 0.505626 0.000000
0.878315 0.505115 0.000000
0.915350 0.504608 0.000000
0.952389 0.504102 0.000000
0.989435 0.503601 0.000000
1.000000 0.503197 0.000000
1.000000 0.503242 0.000000
1.000000 0.503292 0.000000
0.000000 0.553987 0.013605
0.000000 0.553889 0.012365
0.000000 0.553683 0.011016
0.028663 0.553063 0.009251
0.065552 0.552448 0.007489
0.102449 0.551838 0.005730
0.139352 0.551234 0.003976
0.176263 0.550634 0.002224
0.213181 0.550040 0.000476
0.250105 0.549452 0.000000
0.287037 0.548868 0.000000
0.323976 0.548290 0.000000
0.360922 0.547717 0.000000
0.397875 0.547149 0.000000
0.434835 0.546586 0.000000
0.471802 0.546028 0.000000
0.508776 0.545476 0.000000
0.545757 0.544929 0.000000
0.582745 0.544387 0.000000
0.619741 0.543851 0.000000
0.656743 0.543319 0.000000
0.693752 0.542793 0.000000
0.730769 0.542272 0.000000
0.767792 0.541757 0.000000
0.804823 0.541246 0.000000
0.841858 0.540739 0.000000
0.878897 0.540232 0.000000
0.915942 0.539731 0.000000
0.952995 0.539235 0.000000
0.990054 0.538745 0.000000
1.000000 0.538375 0.000000
1.000000 0.538430 0.000000
1.000000 0.538491 0.000000
0.000000 0.588885 0.010166
0.000000 0.588797 0.008933
0.000000 0.588582 0.007572
0.028962 0.587973 0.005813
0.065865 0.587368 0.004058
0.102775 0.586768 0.002307
0.139693 0.586174 0.000558
0.176617 0.585585 0.000000
0.213549 0.585002 0.000000
0.250487 0.584423 0.000000
0.287433 0.583850 0.000000
0.324386 0.583282 0.000000
0.361345 0.582719 0.000000
0.398312 0.582161 0.000000
0.435286 0.581609 0.000000
0.472267 0.581061 0.000000
0.509255 0.580519 0.000000
0.546250 0.579983 0.000000
0.583252 0.579451 0.000000
0.620261 0.578925 0.000000
0.657277 0.578404 0.000000
0.694301 0.577888 0.000000
0.731331 0.577377 0.000000
0.768366 0.576869 0.000000
0.805404 0.576363 0.000000
0.842449 0.575862 0.000000
0.879502 0.575366 0.000000
0.916561 0.574875 0.000000
0.953628 0.574389 0.000000
0.990701 0.573909 0.000000
1.000000 0.573573 0.000000
1.000000 0.573639 0.000000
1.000000 0.573711 0.000000
0.000000 0.623802 0.006740
0.000000 0.623725 0.005514
0.000000 0.623502 0.004141
0.029288 0.622903 0.002389
0.066205 0.622308 0.000641
0.103129 0.621719 0.000000
0.140060 0.621135 0.000000
0.176999 0.620556 0.000000
0.213944 0.619983 0.000000
0.250896 0.619414 0.000000
0.287856 0.618851 0.000000
0.324822 0.618293 0.000000
0.361796 0.617741 0.000000
0.398777 0.617193 0.000000
0.435764 0.616651 0.000000
0.472759 0.616114 0.000000
0.509761 0.615583 0.000000
0.546770 0.615056 0.000000
0.583786 0.614535 0.000000
0.620809 0.614019 0.000000
0.657839 0.613508 0.000000
0.694874 0.613000 0.000000
0.731912 0.612494 0.000000
0.768957 0.611992 0.000000
0.806009 0.611496 0.000000
0.843068 0.611005 0.000000
0.880134 0.610519 0.000000
0.917207 0.610039 0.000000
0.954288 0.609563 0.000000
0.991375 0.609093 0.000000
1.000000 0.608793 0.000000
1.000000 0.608869 0.000000
1.000000 0.608951 0.000000
0.000000 0.658739 0.003327
0.000000 0.658663 0.002098
0.000000 0.658442 0.000724
0.029641 0.657853 0.000000
0.066572 0.657268 0.000000
0.103510 0.656690 0.000000
0.140455 0.656116 0.000000
0.177407 0.655547 0.000000
0.214366 0.654984 0.000000
0.251333 0.654426 0.000000
0.288306 0.653873 0.000000
0.325286 0.653326 0.000000
0.362274 0.652783 0.000000
0.399268 0.652246 0.000000
0.436270 0.651714 0.000000
0.473279 0.651187 0.000000
0.510294 0.650666 0.000000
0.547317 0.650150 0.000000
0.584347 0.649639 0.000000
0.621382 0.649131 0.000000
0.658420 0.648624 0.000000
0.695464 0.648123 0.000000
0.732516 0.647626 0.000000
0.769575 0.647135 0.000000
0.806641 0.646649 0.000000
0.843714 0.646168 0.000000
0.880794 0.645693 0.000000
0.917881 0.645223 0.000000
0.954975 0.644758 0.000000
0.992076 0.644298 0.000000
1.000000 0.644033 0.000000
1.000000 0.644119 0.000000
1.000000 0.644212 0.000000
0.000000 0.693679 0.000000
0.000000 0.693613 0.000000
0.000000 0.693402 0.000000
0.030021 0.692823 0.000000
0.066966 0.692249 0.000000
0.103918 0.691680 0.000000
0.140877 0.691117 0.000000
0.177843 0.690559 0.000000
0.214816 0.690006 0.000000
0.251796 0.689458 0.000000
0.288783 0.688915 0.000000
0.325778 0.688378 0.000000
0.362779 0.687846 0.000000
0.399787 0.687319 0.000000
0.436803 0.686797 0.000000
0.473825 0.686281 0.000000
0.510855 0.685769 0.000000
0.547890 0.685262 0.000000
0.584927 0.684755 0.000000
0.621972 0.684253 0.000000
0.659023 0.683756 0.000000
0.696082 0.683265 0.000000
0.733147 0.682779 0.000000
0.770220 0.682298 0.000000
0.807300 0.681822 0.000000
0.844387 0.681352 0.000000
0.881481 0.680887 0.000000
0.918582 0.680427 0.000000
0.955690 0.679972 0.000000
0.992805 0.679523 0.000000
1.000000 0.679293 0.000000
1.000000 0.679390 0.000000
1.000000 0.679493 0.000000
0.000000 0.728638 0.000000
0.000000 0.728582 0.000000
0.000000 0.728382 0.000000
0.030429 0.727813 0.000000
0.067387 0.727250 0.000000
0.104353 0.726691 0.000000
0.141326 0.726138 0.000000
0.178306 0.725590 0.000000
0.215293 0.725047 0.000000
0.252287 0.724510 0.000000
0.289288 0.723977 0.000000
0.326296 0.723450 0.000000
0.363311 0.722928 0.000000
0.400333 0.722412 0.000000
0.437363 0.721900 0.000000
0.474398 0.721393 0.000000
0.511435 0.720886 0.000000
0.548479 0.720383 0.000000
0.585530 0.719887 0.000000
0.622589 0.719395 0.000000
0.659654 0.718909 0.000000
0.696726 0.718428 0.000000
0.733806 0.717952 0.000000
0.770893 0.717481 0.000000
0.807986 0.717016 0.000000
0.845087 0.716556 0.000000
0.882195 0.716101 0.000000
0.919310 0.715651 0.000000
0.956432 0.715207 0.000000
0.993561 0.714768 0.000000
1.000000 0.714574 0.000000
1.000000 0.714682 0.000000
1.000000 0.714795 0.000000
0.000000 0.763618 0.000000
0.000000 0.763572 0.000000
0.000000 0.763382 0.000000
0.030863 0.762824 0.000000
0.067836 0.762270 0.000000
0.104816 0.761722 0.000000
0.141802 0.761179 0.000000
0.178796 0.760641 0.000000
0.215797 0.760109 0.000000
0.252805 0.759582 0.000000
0.289820 0.759059 0.000000
0.326842 0.758543 0.000000
0.363871 0.758031 0.000000
0.400906 0.757524 0.000000
0.437942 0.757016 0.000000
0.474986 0.756514 0.000000
0.512037 0.756017 0.000000
0.549095 0.755525 0.000000
0.586161 0.755039 0.000000
0.623233 0.754557 0.000000
0.660312 0.754081 0.000000
0.697398 0.753611 0.000000
0.734492 0.753145 0.000000
0.771592 0.752685 0.000000
0.808700 0.752230 0.000000
0.845815 0.751780 0.000000
0.882936 0.751335 0.000000
0.920065 0.750896 0.000000
0.957201 0.750462 0.000000
0.994344 0.750033 0.000000
1.000000 0.749876 0.000000
1.000000 0.749994 0.000000
1.000000 0.750118 0.000000
0.000000 0.798618 0.000000
0.000000 0.798582 0.000000
0.000000 0.798403 0.000000
0.031325 0.797854 0.000000
0.068312 0.797311 0.000000
0.105305 0.796773 0.000000
0.142306 0.796240 0.000000
0.179313 0.795713 0.000000
0.216328 0.795191 0.000000
0.253350 0.794674 0.000000
0.290378 0.794162 0.000000
0.327414 0.793655 0.000000
0.364450 0.793147 0.000000
0.401494 0.792644 0.000000
0.438545 0.792147 0.000000
0.475602 0.791655 0.000000
0.512667 0.791169 0.000000
0.549739 0.790687 0.000000
0.586818 0.790211 0.000000
0.623904 0.789740 0.000000
0.660997 0.789274 0.000000
0.698098 0.788814 0.000000
0.735205 0.788359 0.000000
0.772319 0.787909 0.000000
0.809441 0.787464 0.000000
0.846569 0.787024 0.000000
0.883705 0.786590 0.000000
0.920848 0.786161 0.000000
0.957998 0.785737 0.000000
0.995154 0.785319 0.000000
1.000000 0.785198 0.000000
1.000000 0.785327 0.000000
1.000000 0.785461 0.000000
0.000000 0.833638 0.000000
0.000000 0.833613 0.000000
0.000000 0.833443 0.000000
0.031815 0.832905 0.000000
0.068815 0.832372 0.000000
0.105822 0.831844 0.000000
0.142837 0.831322 0.000000
0.179858 0.830805 0.000000
0.216886 0.830293 0.000000
0.253922 0.829785 0.000000
0.290958 0.829278 0.000000
0.328001 0.828775 0.000000
0.365052 0.828278 0.000000
0.402109 0.827785 0.000000
0.439174 0.827299 0.000000
0.476246 0.826817 0.000000
0.513324 0.826340 0.000000
0.550410 0.825869 0.000000
0.587503 0.825403 0.000000
0.624603 0.824943 0.000000
0.661710 0.824487 0.000000
0.698824 0.824037 0.000000
0.735945 0.823592 0.000000
0.773074 0.823152 0.000000
0.810209 0.822718 0.000000
0.847352 0.822289 0.000000
0.884501 0.821865 0.000000
0.921658 0.821446 0.000000
0.958821 0.821033 0.000000
0.995992 0.820624 0.000000
1.000000 0.820541 0.000000
1.000000 0.820680 0.000000
1.000000 0.820825 0.000000
0.000000 0.868678 0.000000
0.000000 0.868663 0.000000
0.000000 0.868504 0.000000
0.032331 0.867976 0.000000
0.069345 0.867453 0.000000
0.106366 0.866936 0.000000
0.143394 0.866423 0.000000
0.180429 0.865916 0.000000
0.217466 0.865408 0.000000
0.254509 0.864905 0.000000
0.291559 0.864408 0.000000
0.328616 0.863916 0.000000
0.365680 0.863428 0.000000
0.402752 0.862947 0.000000
0.439830 0.862470 0.000000
0.476916 0.861999 0.000000
0.514009 0.861533 0.000000
0.551108 0.861072 0.000000
0.588215 0.860616 0.000000
0.625329 0.860166 0.000000
0.662450 0.859721 0.000000
0.699578 0.859281 0.000000
0.736713 0.858846 0.000000
0.773855 0.858417 0.000000
0.811005 0.857992 0.000000
0.848161 0.857573 0.000000
0.885324 0.857160 0.000000
0.922495 0.856751 0.000000
0.959672 0.856348 0.000000
