backend/app/data/luts/cinematic.cube
TITLE "cinematic"
LUT_3D_SIZE 5
0.000000 0.014911 0.072661
0.209617 0.009814 0.058872
0.503328 0.003855 0.044104
0.797492 0.000000 0.029552
1.000000 0.000000 0.016115
0.000000 0.240838 0.045162
0.211092 0.236296 0.031698
0.505690 0.230994 0.017356
0.800740 0.226026 0.003230
1.000000 0.222375 0.000000
0.000000 0.519111 0.017057
0.212840 0.515099 0.003893
0.508324 0.510453 0.000000
0.804261 0.506141 0.000000
1.000000 0.503292 0.000000
0.000000 0.798618 0.000000
0.216328 0.795191 0.000000
0.512667 0.791169 0.000000
0.809441 0.787464 0.000000
1.000000 0.785461 0.000000
0.000000 1.000000 0.000000
0.223188 1.000000 0.000000
0.520424 1.000000 0.000000
0.818123 1.000000 0.000000
1.000000 1.000000 0.000000
0.000000 0.012832 0.298281
0.209796 0.007845 0.284557
0.503679 0.002014 0.269872
0.798015 0.000000 0.255403
1.000000 0.000000 0.242049
0.000000 0.239014 0.270950
0.211609 0.234577 0.257546
0.506379 0.229402 0.243286
0.801601 0.224562 0.229244
1.000000 0.221071 0.216434
0.000000 0.517542 0.243012
0.213695 0.513631 0.229903
0.509351 0.509112 0.216069
0.805460 0.504927 0.202452
1.000000 0.502277 0.190252
0.000000 0.797272 0.215824
0.217521 0.793972 0.203096
0.514064 0.790109 0.189688
0.811059 0.786581 0.176497
1.000000 0.784796 0.164932
0.000000 1.000000 0.191127
0.224807 1.000000 0.178844
0.522267 1.000000 0.165892
0.820188 1.000000 0.153166
1.000000 1.000000 0.142312
0.000000 0.010460 0.586592
0.209698 0.005582 0.572933
0.503754 0.000000 0.558330
0.798261 0.000000 0.543944
1.000000 0.000000 0.530672
0.000000 0.236897 0.559428
0.211849 0.232565 0.546084
0.506791 0.227517 0.531907
0.802185 0.222804 0.517947
1.000000 0.219475 0.505253
0.000000 0.515681 0.531658
0.214273 0.511868 0.518603
0.510102 0.507477 0.504852
0.806382 0.503420 0.491318
1.000000 0.500935 0.479239
0.000000 0.795632 0.504604
0.218437 0.792460 0.491958
0.515153 0.788725 0.478633
0.812320 0.785324 0.465524
1.000000 0.783710 0.454086
0.000000 1.000000 0.480075
0.226072 1.000000 0.467879
0.523707 1.000000 0.455013
0.821804 1.000000 0.442374
1.000000 1.000000 0.431655
0.000000 0.008138 0.874936
0.209666 0.003368 0.861340
0.503894 0.000000 0.846819
0.798574 0.000000 0.832516
1.000000 0.000000 0.819346
0.000000 0.234830 0.847939
0.212155 0.230601 0.834653
0.507270 0.225681 0.820559
0.802836 0.221095 0.806681
1.000000 0.217928 0.794105
0.000000 0.513856 0.820323
0.214917 0.510155 0.807335
0.510918 0.505891 0.793666
0.807371 0.501961 0.780214
1.000000 0.499644 0.768258
0.000000 0.794041 0.793415
0.219419 0.790996 0.780852
0.516307 0.787388 0.767609
0.813646 0.784115 0.754584
1.000000 0.782673 0.743273
0.000000 1.000000 0.769056
0.227403 1.000000 0.756947
0.525215 1.000000 0.744168
0.823488 1.000000 0.731615
1.000000 1.000000 0.721032
0.000000 0.006517 1.000000
0.210294 0.001797 1.000000
0.504639 0.000000 1.000000
0.799436 0.000000 1.000000
1.000000 0.000000 1.000000
0.000000 0.233354 1.000000
0.213013 0.229172 1.000000
0.508246 0.224326 1.000000
0.803933 0.219815 1.000000
1.000000 0.216772 1.000000
0.000000 0.512498 1.000000
0.216009 0.508872 1.000000
0.512142 0.504695 1.000000
0.808767 0.500893 1.000000
1.000000 0.498743 0.994652
0.000000 0.792841 1.000000
0.220809 0.789923 1.000000
0.517869 0.786443 0.993959
0.815380 0.783297 0.981016
1.000000 0.782028 0.969834
0.000000 1.000000 0.995413
0.229144 1.000000 0.983390
0.527132 1.000000 0.970697
0.825581 1.000000 0.958231
1.000000 1.000000 0.947785
