backend/app/data/luts/cinematic.cube
TITLE "cinematic"
LUT_3D_SIZE 9
0.000000 0.014911 0.072661
0.062930 0.012919 0.066337
0.209617 0.009814 0.058872
0.356416 0.006793 0.051461
0.503328 0.003855 0.044104
0.650354 0.001002 0.036801
0.797492 0.000000 0.029552
0.944742 0.000000 0.022358
1.000000 0.000000 0.016115
0.000000 0.102194 0.059537
0.063962 0.100318 0.053273
0.210871 0.097378 0.045914
0.357891 0.094521 0.038609
0.505025 0.091747 0.031359
0.652272 0.089058 0.024163
0.799632 0.086451 0.017020
0.947104 0.083928 0.009933
1.000000 0.082393 0.003803
0.000000 0.240838 0.045162
0.063962 0.239073 0.038951
0.211092 0.236296 0.031698
0.358334 0.233603 0.024500
0.505690 0.230994 0.017356
0.653158 0.228468 0.010266
0.800740 0.226026 0.003230
0.948434 0.223667 0.000000
1.000000 0.222375 0.000000
0.000000 0.379810 0.031002
0.064397 0.378149 0.024837
0.211748 0.375537 0.017691
0.359212 0.373008 0.010599
0.506790 0.370563 0.003561
0.654480 0.368201 0.000000
0.802283 0.365923 0.000000
0.950198 0.363728 0.000000
1.000000 0.362686 0.000000
0.000000 0.519111 0.017057
0.065267 0.517548 0.010932
0.212840 0.515099 0.003893
0.360526 0.512735 0.000000
0.508324 0.510453 0.000000
0.656236 0.508255 0.000000
0.804261 0.506141 0.000000
0.952389 0.504102 0.000000
1.000000 0.503292 0.000000
0.000000 0.658739 0.003327
0.066572 0.657268 0.000000
0.214366 0.654984 0.000000
0.362274 0.652783 0.000000
0.510294 0.650666 0.000000
0.658420 0.648624 0.000000
0.806641 0.646649 0.000000
0.954975 0.644758 0.000000
1.000000 0.644212 0.000000
0.000000 0.798618 0.000000
0.068312 0.797311 0.000000
0.216328 0.795191 0.000000
0.364450 0.793147 0.000000
0.512667 0.791169 0.000000
0.660997 0.789274 0.000000
0.809441 0.787464 0.000000
0.957998 0.785737 0.000000
1.000000 0.785461 0.000000
0.000000 0.938819 0.000000
0.070481 0.937670 0.000000
0.218694 0.935688 0.000000
0.367020 0.933791 0.000000
0.515459 0.931977 0.000000
0.664012 0.930248 0.000000
0.812677 0.928602 0.000000
0.961456 0.927040 0.000000
1.000000 0.927041 0.000000
0.000000 1.000000 0.000000
0.074744 1.000000 0.000000
0.223188 1.000000 0.000000
0.371748 1.000000 0.000000
0.520424 1.000000 0.000000
0.669216 1.000000 0.000000
0.818123 1.000000 0.000000
0.967146 1.000000 0.000000
1.000000 1.000000 0.000000
0.000000 0.014036 0.154138
0.063139 0.012067 0.147826
0.209869 0.008994 0.140382
0.356711 0.006005 0.132991
0.503667 0.003099 0.125655
0.650735 0.000277 0.118373
0.797916 0.000000 0.111145
0.945210 0.000000 0.103971
1.000000 0.000000 0.097749
0.000000 0.101383 0.141056
0.064256 0.099529 0.134803
0.211207 0.096621 0.127465
0.358271 0.093796 0.120181
0.505448 0.091054 0.112951
0.652738 0.088396 0.105775
0.800141 0.085822 0.098654
0.947656 0.083331 0.091586
1.000000 0.081842 0.085492
0.000000 0.240090 0.126723
0.064340 0.238346 0.120521
0.211513 0.235602 0.113289
0.358799 0.232941 0.106111
0.506197 0.230363 0.098988
0.653709 0.227869 0.091919
0.801333 0.225459 0.084904
0.949070 0.223132 0.077943
1.000000 0.221888 0.072036
0.000000 0.379127 0.112605
0.064860 0.377485 0.106448
0.212254 0.374905 0.099323
0.359761 0.372408 0.092251
0.507381 0.369994 0.085234
0.655114 0.367664 0.078272
0.802960 0.365418 0.071363
0.950919 0.363255 0.064509
1.000000 0.362263 0.058796
0.000000 0.518491 0.098702
0.065814 0.516947 0.092584
0.213430 0.514530 0.085565
0.361159 0.512197 0.078600
0.509001 0.509947 0.071690
0.656955 0.507781 0.064833
0.805023 0.505699 0.058031
0.953203 0.503700 0.051284
1.000000 0.502966 0.045771
0.000000 0.658169 0.084999
0.067203 0.656730 0.078929
0.215041 0.654477 0.072016
0.362992 0.652308 0.065158
0.511055 0.650223 0.058354
0.659231 0.648221 0.051604
0.807520 0.646302 0.044909
0.955923 0.644468 0.038267
1.000000 0.643998 0.032961
0.000000 0.798110 0.071446
0.069028 0.796835 0.065483
0.217087 0.794746 0.058677
0.365259 0.792741 0.051925
0.513544 0.790820 0.045227
0.661942 0.788982 0.038584
0.810453 0.787228 0.031995
0.959077 0.785557 0.025460
1.000000 0.785358 0.020367
0.000000 0.938373 0.058103
0.071288 0.937262 0.052246
0.219569 0.935337 0.045546
0.367962 0.933497 0.038901
0.516469 0.931739 0.032310
0.665089 0.930065 0.025773
0.813821 0.928475 0.019290
0.962666 0.926968 0.012861
1.000000 0.927047 0.007988
0.000000 1.000000 0.046665
0.075687 1.000000 0.040922
0.224200 1.000000 0.034339
0.372828 1.000000 0.027813
0.521572 1.000000 0.021344
0.670431 1.000000 0.014931
0.819405 1.000000 0.008575
0.968494 1.000000 0.002275
1.000000 1.000000 0.000000
0.000000 0.012832 0.298281
0.063023 0.010886 0.291982
0.209796 0.007845 0.284557
0.356681 0.004887 0.277188
0.503679 0.002014 0.269872
0.650791 0.000000 0.262611
0.798015 0.000000 0.255403
0.945352 0.000000 0.248250
1.000000 0.000000 0.242049
0.000000 0.100242 0.285242
0.064224 0.098411 0.278999
0.211218 0.095534 0.271681
0.358325 0.092740 0.264418
0.505545 0.090031 0.257208
0.652878 0.087405 0.250054
0.800324 0.084862 0.242953
0.947883 0.082403 0.235906
1.000000 0.080961 0.229848
0.000000 0.239014 0.270950
0.064393 0.237290 0.264757
0.211609 0.234577 0.257546
0.358937 0.231948 0.250389
0.506379 0.229402 0.243286
0.653933 0.226940 0.236238
0.801601 0.224562 0.229244
0.949381 0.222267 0.222304
1.000000 0.221071 0.216434
0.000000 0.378114 0.256873
0.064997 0.376492 0.250725
0.212434 0.373943 0.243620
0.359984 0.371478 0.236570
0.507648 0.369096 0.229573
0.655424 0.366798 0.222631
0.803313 0.364583 0.215743
0.951314 0.362452 0.208910
1.000000 0.361510 0.203235
0.000000 0.517542 0.243012
0.066035 0.516015 0.236901
0.213695 0.513631 0.229903
0.361466 0.511329 0.222959
0.509351 0.509112 0.216069
0.657349 0.506978 0.209234
0.805460 0.504927 0.202452
0.953683 0.502960 0.195725
1.000000 0.502277 0.190252
0.000000 0.657268 0.229336
0.067509 0.655861 0.223287
0.215390 0.653640 0.216395
0.363384 0.651503 0.209558
0.511490 0.649450 0.202774
0.659709 0.647479 0.196045
0.808042 0.645593 0.189370
0.956487 0.643790 0.182749
1.000000 0.643372 0.177484
0.000000 0.797272 0.215824
0.069419 0.796029 0.209881
0.217521 0.793972 0.203096
0.365736 0.791999 0.196365
0.514064 0.790109 0.189688
0.662505 0.788303 0.183065
0.811059 0.786581 0.176497
0.959726 0.784942 0.169982
1.000000 0.784796 0.164932
0.000000 0.937598 0.202521
0.071763 0.936518 0.196685
0.220087 0.934626 0.190006
0.368523 0.932817 0.183381
0.517073 0.931091 0.176811
0.665736 0.929449 0.170295
0.814511 0.927891 0.163832
0.963400 0.926416 0.157425
1.000000 0.926549 0.152595
0.000000 1.000000 0.191127
0.076250 1.000000 0.185406
0.224807 1.000000 0.178844
0.373479 1.000000 0.172340
0.522267 1.000000 0.165892
0.671170 1.000000 0.159501
0.820188 1.000000 0.153166
0.969322 1.000000 0.146889
1.000000 1.000000 0.142312
0.000000 0.011640 0.442433
0.062923 0.009716 0.436145
0.209739 0.006707 0.428741
0.356667 0.003782 0.421392
0.503708 0.000940 0.414097
0.650863 0.000000 0.406856
0.798130 0.000000 0.399670
0.945510 0.000000 0.392537
1.000000 0.000000 0.386356
0.000000 0.099114 0.429435
0.064209 0.097304 0.423202
0.211246 0.094459 0.415905
0.358396 0.091697 0.408663
0.505659 0.089020 0.401474
0.653035 0.086425 0.394340
0.800524 0.083915 0.387260
0.948125 0.081487 0.380234
1.000000 0.080093 0.374212
0.000000 0.237949 0.415185
0.064462 0.236246 0.409001
0.211721 0.233565 0.401811
0.359092 0.230968 0.394675
0.506577 0.228454 0.387593
0.654174 0.226024 0.380565
0.801885 0.223677 0.373591
0.949708 0.221414 0.366672
1.000000 0.220267 0.360839
0.000000 0.377113 0.401150
0.065150 0.375510 0.395010
0.212631 0.372993 0.387926
0.360224 0.370560 0.380896
0.507930 0.368210 0.373920
0.655749 0.365944 0.366999
0.803681 0.363761 0.360132
0.951726 0.361662 0.353319
1.000000 0.360769 0.347683
0.000000 0.516605 0.387331
0.066273 0.515096 0.381227
0.213976 0.512743 0.374249
0.361790 0.510474 0.367326
0.509718 0.508288 0.360457
0.657759 0.506186 0.353642
0.805913 0.504167 0.346881
0.954179 0.502232 0.340174
1.000000 0.501600 0.334741
0.000000 0.656380 0.373681
0.067832 0.655004 0.367653
0.215756 0.652816 0.360782
0.363792 0.650710 0.353965
0.511942 0.648689 0.347202
0.660204 0.646750 0.340494
0.808579 0.644896 0.333839
0.957068 0.643125 0.327239
1.000000 0.642759 0.322015
0.000000 0.796446 0.360210
0.069825 0.795235 0.354288
0.217971 0.793210 0.347523
0.366229 0.791269 0.340813
0.514600 0.789411 0.334157
0.663084 0.787637 0.327554
0.811681 0.785946 0.321007
0.960391 0.784339 0.314513
1.000000 0.784247 0.309505
0.000000 0.936834 0.346948
0.072254 0.935787 0.341132
0.220621 0.933926 0.334474
0.369101 0.932149 0.327870
0.517694 0.930455 0.321320
0.666399 0.928845 0.314824
0.815218 0.927319 0.308383
0.964149 0.925876 0.301996
1.000000 0.926063 0.297210
0.000000 1.000000 0.335597
0.076830 1.000000 0.329897
0.225431 1.000000 0.323358
0.374147 1.000000 0.316875
0.522979 1.000000 0.310449
0.671926 1.000000 0.304079
0.820988 1.000000 0.297766
0.970165 1.000000 0.291510
1.000000 1.000000 0.286980
0.000000 0.010460 0.586592
0.062839 0.008559 0.580315
0.209698 0.005582 0.572933
0.356670 0.002689 0.565604
0.503754 0.000000 0.558330
0.650951 0.000000 0.551110
0.798261 0.000000 0.543944
0.945685 0.000000 0.536832
1.000000 0.000000 0.530672
0.000000 0.097998 0.573636
0.064209 0.096209 0.567414
0.211290 0.093396 0.560137
0.358483 0.090667 0.552915
0.505789 0.088021 0.545748
0.653208 0.085458 0.538634
0.800740 0.082979 0.531575
0.948384 0.080584 0.524569
1.000000 0.079237 0.518583
0.000000 0.236897 0.559428
0.064547 0.235214 0.553254
0.211849 0.232565 0.546084
0.359264 0.229999 0.538968
0.506791 0.227517 0.531907
0.654432 0.225119 0.524900
0.802185 0.222804 0.517947
0.950052 0.220573 0.511048
1.000000 0.219475 0.505253
0.000000 0.376125 0.545436
0.065320 0.374541 0.539302
0.212843 0.372056 0.532239
0.360480 0.369654 0.525230
0.508229 0.367336 0.518275
0.656091 0.365102 0.511374
0.804066 0.362951 0.504528
0.952154 0.360884 0.497735
1.000000 0.360041 0.492138
0.000000 0.515681 0.531658
0.066528 0.514189 0.525560
0.214273 0.511868 0.518603
0.362131 0.509631 0.511700
0.510102 0.507477 0.504852
0.658186 0.505407 0.498058
0.806382 0.503420 0.491318
0.954692 0.501516 0.484632
1.000000 0.500935 0.479239
0.000000 0.655504 0.518034
0.068171 0.654160 0.512027
0.216138 0.652003 0.505176
0.364217 0.649930 0.498380
0.512410 0.647940 0.491638
0.660715 0.646033 0.484950
0.809133 0.644211 0.478316
0.957665 0.642471 0.471737
1.000000 0.642159 0.466555
0.000000 0.795632 0.504604
0.070249 0.794453 0.498702
0.218437 0.792460 0.491958
0.366739 0.790550 0.485269
0.515153 0.788725 0.478633
0.663680 0.786982 0.472052
0.812320 0.785324 0.465524
0.961073 0.783748 0.459051
1.000000 0.783710 0.454086
0.000000 0.936083 0.491382
0.072762 0.935068 0.485587
0.221172 0.933239 0.478949
0.369695 0.931493 0.472366
0.518331 0.929831 0.465837
0.667079 0.928253 0.459362
0.815941 0.926759 0.452941
0.964915 0.925347 0.446575
1.000000 0.925590 0.441833
0.000000 1.000000 0.480075
0.077427 1.000000 0.474397
0.226072 1.000000 0.467879
0.374832 1.000000 0.461418
0.523707 1.000000 0.455013
0.672698 1.000000 0.448665
0.821804 1.000000 0.442374
0.971026 1.000000 0.436140
1.000000 1.000000 0.431655
0.000000 0.009293 0.730760
0.062772 0.007414 0.724494
0.209674 0.004469 0.717132
0.356688 0.001607 0.709824
0.503816 0.000000 0.702571
0.651056 0.000000 0.695371
0.798409 0.000000 0.688226
0.945876 0.000000 0.681135
1.000000 0.000000 0.675000
0.000000 0.096895 0.717846
0.064227 0.095127 0.711633
0.211350 0.092346 0.704378
0.358586 0.089648 0.697176
0.505935 0.087034 0.690029
0.653397 0.084503 0.682936
0.800972 0.082056 0.675897
0.948660 0.079693 0.668913
1.000000 0.078394 0.662964
0.000000 0.235858 0.703680
0.064649 0.234194 0.697513
0.211994 0.231577 0.690364
0.359452 0.229043 0.683269
0.507022 0.226593 0.676229
0.654706 0.224226 0.669242
0.802502 0.221943 0.662310
0.950412 0.219744 0.655432
1.000000 0.218695 0.649675
0.000000 0.375149 0.689729
0.065506 0.373583 0.683603
0.213073 0.371130 0.676560
0.360752 0.368760 0.669572
0.508545 0.366474 0.662637
0.656450 0.364272 0.655757
0.804468 0.362153 0.648931
0.952599 0.360117 0.642160
1.000000 0.359325 0.636602
0.000000 0.514769 0.675993
0.066799 0.513294 0.669901
0.214587 0.511005 0.662965
0.362488 0.508800 0.656083
0.510502 0.506678 0.649255
0.658629 0.504639 0.642481
0.806868 0.502684 0.635762
0.955221 0.500813 0.629097
1.000000 0.500283 0.623744
0.000000 0.654639 0.662395
0.068526 0.653328 0.656408
0.216536 0.651203 0.649579
0.364659 0.649161 0.642803
0.512894 0.647203 0.636082
0.661243 0.645329 0.629414
0.809704 0.643538 0.622802
0.958278 0.641830 0.616243
1.000000 0.641570 0.611102
0.000000 0.794831 0.649005
0.070689 0.793683 0.643125
0.218920 0.791722 0.636401
0.367264 0.789844 0.629732
0.515722 0.788050 0.623117
0.664292 0.786340 0.616557
0.812975 0.784713 0.610050
0.961771 0.783170 0.603598
1.000000 0.783186 0.598675
0.000000 0.935344 0.635824
0.073286 0.934360 0.630050
0.221739 0.932563 0.623433
0.370305 0.930850 0.616870
0.518984 0.929220 0.610362
0.667776 0.927673 0.603908
0.816680 0.926211 0.597508
0.965698 0.924831 0.591162
1.000000 0.925129 0.586464
0.000000 1.000000 0.624562
0.078040 1.000000 0.618905
0.226729 1.000000 0.612409
0.375533 1.000000 0.605969
0.524453 1.000000 0.599586
0.673488 1.000000 0.593260
0.822638 1.000000 0.586990
0.971903 1.000000 0.580777
1.000000 1.000000 0.576340
0.000000 0.008138 0.874936
0.062721 0.006282 0.868681
0.209666 0.003368 0.861340
0.356724 0.000538 0.854052
0.503894 0.000000 0.846819
0.651178 0.000000 0.839641
0.798574 0.000000 0.832516
0.946083 0.000000 0.825446
1.000000 0.000000 0.819346
0.000000 0.095804 0.862064
0.064260 0.094057 0.855860
0.211427 0.091307 0.848625
0.358706 0.088641 0.841445
0.506098 0.086059 0.834318
0.653603 0.083560 0.827246
0.801221 0.081145 0.820228
0.948952 0.078813 0.813264
1.000000 0.077563 0.807352
0.000000 0.234830 0.847939
0.064767 0.233186 0.841781
0.212155 0.230601 0.834653
0.359656 0.228099 0.827579
0.507270 0.225681 0.820559
0.654996 0.223346 0.813593
0.802836 0.221095 0.806681
0.950788 0.218927 0.799824
1.000000 0.217928 0.794105
0.000000 0.374186 0.834030
0.065709 0.372638 0.827911
0.213318 0.370217 0.820889
0.361041 0.367879 0.813921
0.508876 0.365625 0.807008
0.656825 0.363454 0.800148
0.804886 0.361367 0.793343
0.953060 0.359363 0.786592
1.000000 0.358621 0.781074
0.000000 0.513856 0.820323
0.067086 0.512412 0.814250
0.214917 0.510155 0.807335
0.362861 0.507981 0.800473
0.510918 0.505891 0.793666
0.659088 0.503884 0.786913
0.807371 0.501961 0.780214
0.955766 0.500121 0.773570
1.000000 0.499644 0.768258
0.000000 0.653787 0.806764
0.068898 0.652508 0.800798
0.216951 0.650414 0.793989
0.365116 0.648405 0.787234
0.513395 0.646478 0.780533
0.661786 0.644636 0.773887
0.810291 0.642877 0.767295
0.958908 0.641201 0.760756
1.000000 0.640994 0.755658
0.000000 0.794041 0.793415
0.071145 0.792925 0.787555
0.219419 0.790996 0.780852
0.367807 0.789151 0.774204
0.516307 0.787388 0.767609
0.664920 0.785710 0.761069
0.813646 0.784115 0.754584
0.962485 0.782603 0.748152
1.000000 0.782673 0.743273
0.000000 0.934617 0.780274
0.073827 0.933665 0.774521
0.222323 0.931900 0.767924
0.370932 0.930219 0.761382
0.519654 0.928620 0.754895
0.668489 0.927106 0.748461
0.817436 0.925675 0.742082
0.966497 0.924327 0.735756
1.000000 0.924681 0.731103
0.000000 1.000000 0.769056
0.078671 1.000000 0.763422
0.227403 1.000000 0.756947
0.376252 1.000000 0.750529
0.525215 1.000000 0.744168
0.674294 1.000000 0.737863
0.823488 1.000000 0.731615
0.972798 1.000000 0.725424
1.000000 1.000000 0.721032
0.000000 0.006996 1.000000
0.062687 0.005161 1.000000
0.209675 0.002279 1.000000
0.356775 0.000000 0.998288
0.503989 0.000000 0.991076
0.651315 0.000000 0.983918
0.798755 0.000000 0.976814
0.946307 0.000000 0.969765
1.000000 0.000000 0.963701
0.000000 0.094725 1.000000
0.064311 0.092999 1.000000
0.211520 0.090281 0.992881
0.358842 0.087647 0.985721
0.506277 0.085097 0.978615
0.653825 0.082630 0.971564
0.801486 0.080246 0.964566
0.949260 0.077946 0.957623
1.000000 0.076744 0.951748
0.000000 0.233816 0.992207
0.064902 0.232191 0.986057
0.212333 0.229637 0.978949
0.359877 0.227167 0.971896
0.507533 0.224781 0.964896
0.655303 0.222478 0.957951
0.803186 0.220259 0.951060
0.951181 0.218123 0.944223
1.000000 0.217173 0.938543
0.000000 0.373235 0.978340
0.065928 0.371705 0.972228
0.213581 0.369316 0.965226
0.361346 0.367010 0.958279
0.509225 0.364787 0.951386
0.657216 0.362648 0.944547
0.805320 0.360593 0.937763
0.953537 0.358621 0.931033
1.000000 0.357930 0.925554
0.000000 0.512953 0.964659
0.067389 0.511541 0.958607
0.215264 0.509316 0.951712
0.363251 0.507174 0.944871
0.511351 0.505116 0.938085
0.659564 0.503141 0.931353
0.807890 0.501250 0.924675
0.956328 0.499442 0.918051
1.000000 0.499016 0.912780
0.000000 0.652948 0.951141
0.069286 0.651700 0.945196
0.217382 0.649638 0.938407
0.365591 0.647660 0.931673
0.513912 0.645766 0.924993
0.662347 0.643955 0.918367
0.810894 0.642228 0.911795
0.959555 0.640585 0.905278
1.000000 0.640431 0.900221
0.000000 0.793264 0.937832
0.071617 0.792180 0.931993
0.219935 0.790283 0.925311
0.368365 0.788469 0.918683
0.516909 0.786739 0.912110
0.665565 0.785092 0.905590
0.814334 0.783529 0.899125
0.963216 0.782049 0.892714
1.000000 0.782174 0.887878
0.000000 0.933902 0.924732
0.074384 0.932982 0.918999
0.222923 0.931249 0.912424
0.371575 0.929599 0.905902
0.520340 0.928033 0.899435
0.669218 0.926550 0.893022
0.818209 0.925151 0.886664
0.967312 0.923836 0.880359
1.000000 0.924245 0.875750
0.000000 1.000000 0.913559
0.079318 1.000000 0.907947
0.228094 1.000000 0.901493
0.376987 1.000000 0.895097
0.525994 1.000000 0.888757
0.675117 1.000000 0.882474
0.824355 1.000000 0.876248
0.973708 1.000000 0.870078
1.000000 1.000000 0.865733
0.000000 0.006517 1.000000
0.063292 0.004675 1.000000
0.210294 0.001797 1.000000
0.357410 0.000000 1.000000
0.504639 0.000000 1.000000
0.651981 0.000000 1.000000
0.799436 0.000000 1.000000
0.947004 0.000000 1.000000
1.000000 0.000000 1.000000
0.000000 0.094254 1.000000
0.064944 0.092520 1.000000
0.212169 0.089807 1.000000
0.359507 0.087177 1.000000
0.506958 0.084631 1.000000
0.654522 0.082169 1.000000
0.802200 0.079791 1.000000
0.949991 0.077497 1.000000
1.000000 0.076317 1.000000
0.000000 0.233354 1.000000
0.065566 0.231721 1.000000
0.213013 0.229172 1.000000
0.360573 0.226707 1.000000
0.508246 0.224326 1.000000
0.656033 0.222029 1.000000
0.803933 0.219815 1.000000
0.951946 0.217686 1.000000
1.000000 0.216772 1.000000
0.000000 0.372783 1.000000
0.066624 0.371244 1.000000
0.214293 0.368860 1.000000
0.362075 0.366560 1.000000
0.509971 0.364344 1.000000
0.657980 0.362211 1.000000
0.806113 0.360174 1.000000
0.954373 0.358234 1.000000
1.000000 0.357594 1.000000
0.000000 0.512498 1.000000
0.068118 0.511092 1.000000
0.216009 0.508872 1.000000
0.364014 0.506736 1.000000
0.512142 0.504695 1.000000
0.660398 0.502752 1.000000
0.808767 0.500893 1.000000
0.957249 0.499117 0.999882
1.000000 0.498743 0.994652
0.000000 0.652504 1.000000
0.070048 0.651262 1.000000
0.218171 0.649216 1.000000
0.366423 0.647270 1.000000
0.514788 0.645408 1.000000
0.663265 0.643629 1.000000
0.811856 0.641934 0.993646
0.960559 0.640322 0.987149
1.000000 0.640222 0.982135
0.000000 0.792841 1.000000
0.072448 0.791789 1.000000
0.220809 0.789923 1.000000
0.369282 0.788141 1.000000
0.517869 0.786443 0.993959
0.666568 0.784828 0.987461
0.815380 0.783297 0.981016
0.964305 0.781849 0.974626
1.000000 0.782028 0.969834
0.000000 0.933542 1.000000
0.075300 0.932654 1.000000
0.223882 0.930952 0.994273
0.372577 0.929334 0.987772
0.521385 0.927800 0.981326
0.670306 0.926349 0.974934
0.819339 0.924982 0.968596
0.968486 0.923698 0.962312
1.000000 0.924164 0.957748
0.000000 1.000000 0.995413
0.080324 1.000000 0.989822
0.229144 1.000000 0.983390
0.378080 1.000000 0.977015
0.527132 1.000000 0.970697
0.676299 1.000000 0.964435
0.825581 1.000000 0.958231
0.974978 1.000000 0.952082
1.000000 1.000000 0.947785
