backend/app/data/luts/minimal.cube
TITLE "minimal"
LUT_3D_SIZE 33
0.030000 0.030000 0.045000
0.030000 0.030000 0.045000
0.031026 0.030080 0.045079
0.060252 0.032353 0.047316
0.089479 0.034626 0.049554
0.118706 0.036899 0.051792
0.147933 0.039172 0.054030
0.177160 0.041445 0.056268
0.206387 0.043718 0.058506
0.235614 0.045992 0.060744
0.264841 0.048265 0.062982
0.294068 0.050538 0.065220
0.323295 0.052811 0.067458
0.352522 0.055084 0.069696
0.381749 0.057357 0.071934
0.410976 0.059630 0.074172
0.440203 0.061903 0.076410
0.469430 0.064176 0.078648
0.498657 0.066450 0.080886
0.527884 0.068723 0.083124
0.557111 0.070996 0.085362
0.586338 0.073269 0.087600
0.615565 0.075542 0.089838
0.644792 0.077815 0.092076
0.674019 0.080088 0.094314
0.703246 0.082361 0.096552
0.732473 0.084634 0.098790
0.761700 0.086908 0.101027
0.790927 0.089181 0.103265
0.820154 0.091454 0.105503
0.849381 0.093727 0.107741
0.850407 0.093807 0.107820
0.850407 0.093807 0.107820
0.030000 0.030000 0.045000
0.030000 0.030000 0.045000
0.031026 0.030080 0.045079
0.060252 0.032353 0.047316
0.089479 0.034626 0.049554
0.118706 0.036899 0.051792
0.147933 0.039172 0.054030
0.177160 0.041445 0.056268
0.206387 0.043718 0.058506
0.235614 0.045992 0.060744
0.264841 0.048265 0.062982
0.294068 0.050538 0.065220
0.323295 0.052811 0.067458
0.352522 0.055084 0.069696
0.381749 0.057357 0.071934
0.410976 0.059630 0.074172
0.440203 0.061903 0.076410
0.469430 0.064176 0.078648
0.498657 0.066450 0.080886
0.527884 0.068723 0.083124
0.557111 0.070996 0.085362
0.586338 0.073269 0.087600
0.615565 0.075542 0.089838
0.644792 0.077815 0.092076
0.674019 0.080088 0.094314
0.703246 0.082361 0.096552
0.732473 0.084634 0.098790
0.761700 0.086908 0.101027
0.790927 0.089181 0.103265
0.820154 0.091454 0.105503
0.849381 0.093727 0.107741
0.850407 0.093807 0.107820
0.850407 0.093807 0.107820
0.030157 0.031102 0.045154
0.030157 0.031102 0.045154
0.031182 0.031182 0.045233
0.060409 0.033455 0.047471
0.089636 0.035728 0.049709
0.118863 0.038001 0.051947
0.148090 0.040275 0.054185
0.177317 0.042548 0.056422
0.206544 0.044821 0.058660
0.235771 0.047094 0.060898
0.264998 0.049367 0.063136
0.294225 0.051640 0.065374
0.323452 0.053913 0.067612
0.352679 0.056186 0.069850
0.381906 0.058459 0.072088
0.411133 0.060733 0.074326
0.440360 0.063006 0.076564
0.469587 0.065279 0.078802
0.498814 0.067552 0.081040
0.528041 0.069825 0.083278
0.557268 0.072098 0.085516
0.586495 0.074371 0.087754
0.615722 0.076644 0.089992
0.644949 0.078917 0.092230
0.674176 0.081191 0.094468
0.703403 0.083464 0.096706
0.732630 0.085737 0.098944
0.761857 0.088010 0.101182
0.791084 0.090283 0.103420
0.820311 0.092556 0.105658
0.849538 0.094829 0.107896
0.850563 0.094909 0.107974
0.850563 0.094909 0.107974
0.034619 0.062519 0.049548
0.034619 0.062519 0.049548
0.035645 0.062599 0.049626
0.064872 0.064872 0.051864
0.094099 0.067145 0.054102
0.123326 0.069418 0.056340
0.152553 0.071691 0.058578
0.181780 0.073964 0.060816
0.211007 0.076237 0.063054
0.240234 0.078510 0.065292
0.269461 0.080783 0.067530
0.298688 0.083057 0.069768
0.327915 0.085330 0.072006
0.357142 0.087603 0.074244
0.386369 0.089876 0.076482
0.415595 0.092149 0.078720
0.444822 0.094422 0.080958
0.474049 0.096695 0.083196
0.503276 0.098968 0.085434
0.532503 0.101241 0.087672
0.561730 0.103515 0.089910
0.590957 0.105788 0.092147
0.620184 0.108061 0.094385
0.649411 0.110334 0.096623
0.678638 0.112607 0.098861
0.707865 0.114880 0.101099
0.737092 0.117153 0.103337
0.766319 0.119426 0.105575
0.795546 0.121699 0.107813
0.824773 0.123973 0.110051
0.854000 0.126246 0.112289
0.855026 0.126325 0.112368
0.855026 0.126325 0.112368
0.039082 0.093935 0.053941
0.039082 0.093935 0.053941
0.040107 0.094015 0.054020
0.069334 0.096288 0.056258
0.098561 0.098561 0.058496
0.127788 0.100834 0.060734
0.157015 0.103107 0.062972
0.186242 0.105381 0.065210
0.215469 0.107654 0.067448
0.244696 0.109927 0.069686
0.273923 0.112200 0.071924
0.303150 0.114473 0.074161
0.332377 0.116746 0.076399
0.361604 0.119019 0.078637
0.390831 0.121292 0.080875
0.420058 0.123565 0.083113
0.449285 0.125839 0.085351
0.478512 0.128112 0.087589
0.507739 0.130385 0.089827
0.536966 0.132658 0.092065
0.566193 0.134931 0.094303
0.595420 0.137204 0.096541
0.624647 0.139477 0.098779
0.653874 0.141750 0.101017
0.683101 0.144023 0.103255
0.712328 0.146297 0.105493
0.741555 0.148570 0.107731
0.770782 0.150843 0.109969
0.800009 0.153116 0.112207
0.829236 0.155389 0.114445
0.858463 0.157662 0.116683
0.859488 0.157742 0.116761
0.859488 0.157742 0.116761
0.043544 0.125352 0.058335
0.043544 0.125352 0.058335
0.044570 0.125431 0.058413
0.073797 0.127705 0.060651
0.103024 0.129978 0.062889
0.132251 0.132251 0.065127
0.161478 0.134524 0.067365
0.190705 0.136797 0.069603
0.219932 0.139070 0.071841
0.249159 0.141343 0.074079
0.278386 0.143616 0.076317
0.307613 0.145889 0.078555
0.336840 0.148163 0.080793
0.366067 0.150436 0.083031
0.395294 0.152709 0.085269
0.424521 0.154982 0.087507
0.453748 0.157255 0.089745
0.482975 0.159528 0.091983
0.512202 0.161801 0.094221
0.541429 0.164074 0.096459
0.570656 0.166347 0.098697
0.599883 0.168621 0.100935
0.629110 0.170894 0.103173
0.658337 0.173167 0.105411
0.687564 0.175440 0.107649
0.716791 0.177713 0.109886
0.746018 0.179986 0.112124
0.775245 0.182259 0.114362
0.804471 0.184532 0.116600
0.833698 0.186805 0.118838
0.862925 0.189079 0.121076
0.863951 0.189158 0.121155
0.863951 0.189158 0.121155
0.048007 0.156768 0.062729
0.048007 0.156768 0.062729
0.049032 0.156848 0.062807
0.078259 0.159121 0.065045
0.107486 0.161394 0.067283
0.136713 0.163667 0.069521
0.165940 0.165940 0.071759
0.195167 0.168214 0.073997
0.224394 0.170487 0.076235
0.253621 0.172760 0.078473
0.282848 0.175033 0.080711
0.312075 0.177306 0.082949
0.341302 0.179579 0.085187
0.370529 0.181852 0.087425
0.399756 0.184125 0.089663
0.428983 0.186398 0.091900
0.458210 0.188672 0.094138
0.487437 0.190945 0.096376
0.516664 0.193218 0.098614
0.545891 0.195491 0.100852
0.575118 0.197764 0.103090
0.604345 0.200037 0.105328
0.633572 0.202310 0.107566
0.662799 0.204583 0.109804
0.692026 0.206856 0.112042
0.721253 0.209129 0.114280
0.750480 0.211403 0.116518
0.779707 0.213676 0.118756
0.808934 0.215949 0.120994
0.838161 0.218222 0.123232
0.867388 0.220495 0.125470
0.868414 0.220575 0.125548
0.868414 0.220575 0.125548
0.052470 0.188185 0.067122
0.052470 0.188185 0.067122
0.053495 0.188264 0.067201
0.082722 0.190538 0.069439
0.111949 0.192811 0.071677
0.141176 0.195084 0.073914
0.170403 0.197357 0.076152
0.199630 0.199630 0.078390
0.228857 0.201903 0.080628
0.258084 0.204176 0.082866
0.287311 0.206449 0.085104
0.316538 0.208722 0.087342
0.345765 0.210996 0.089580
0.374992 0.213269 0.091818
0.404219 0.215542 0.094056
0.433446 0.217815 0.096294
0.462673 0.220088 0.098532
0.491900 0.222361 0.100770
0.521127 0.224634 0.103008
0.550354 0.226907 0.105246
0.579581 0.229180 0.107484
0.608808 0.231454 0.109722
0.638035 0.233727 0.111960
0.667262 0.236000 0.114198
0.696489 0.238273 0.116436
0.725716 0.240546 0.118674
0.754943 0.242819 0.120912
0.784170 0.245092 0.123150
0.813397 0.247365 0.125388
0.842624 0.249638 0.127626
0.871851 0.251912 0.129863
0.872876 0.251991 0.129942
0.872876 0.251991 0.129942
0.056932 0.219601 0.071516
0.056932 0.219601 0.071516
0.057958 0.219681 0.071594
0.087185 0.221954 0.073832
0.116412 0.224227 0.076070
0.145639 0.226500 0.078308
0.174866 0.228773 0.080546
0.204093 0.231046 0.082784
0.233320 0.233320 0.085022
0.262547 0.235593 0.087260
0.291774 0.237866 0.089498
0.321001 0.240139 0.091736
0.350228 0.242412 0.093974
0.379454 0.244685 0.096212
0.408681 0.246958 0.098450
0.437908 0.249231 0.100688
0.467135 0.251504 0.102926
0.496362 0.253778 0.105164
0.525589 0.256051 0.107402
0.554816 0.258324 0.109639
0.584043 0.260597 0.111877
0.613270 0.262870 0.114115
0.642497 0.265143 0.116353
0.671724 0.267416 0.118591
0.700951 0.269689 0.120829
0.730178 0.271962 0.123067
0.759405 0.274236 0.125305
0.788632 0.276509 0.127543
0.817859 0.278782 0.129781
0.847086 0.281055 0.132019
0.876313 0.283328 0.134257
0.877339 0.283408 0.134336
0.877339 0.283408 0.134336
0.061395 0.251018 0.075909
0.061395 0.251018 0.075909
0.062420 0.251097 0.075988
0.091647 0.253370 0.078226
0.120874 0.255644 0.080464
0.150101 0.257917 0.082702
0.179328 0.260190 0.084940
0.208555 0.262463 0.087178
0.237782 0.264736 0.089416
0.267009 0.267009 0.091653
0.296236 0.269282 0.093891
0.325463 0.271555 0.096129
0.354690 0.273828 0.098367
0.383917 0.276102 0.100605
0.413144 0.278375 0.102843
0.442371 0.280648 0.105081
0.471598 0.282921 0.107319
0.500825 0.285194 0.109557
0.530052 0.287467 0.111795
0.559279 0.289740 0.114033
0.588506 0.292013 0.116271
0.617733 0.294286 0.118509
0.646960 0.296560 0.120747
0.676187 0.298833 0.122985
0.705414 0.301106 0.125223
0.734641 0.303379 0.127461
0.763868 0.305652 0.129699
0.793095 0.307925 0.131937
0.822322 0.310198 0.134175
0.851549 0.312471 0.136413
0.880776 0.314744 0.138651
0.881801 0.314824 0.138729
0.881801 0.314824 0.138729
0.065857 0.282434 0.080303
0.065857 0.282434 0.080303
0.066883 0.282514 0.080381
0.096110 0.284787 0.082619
0.125337 0.287060 0.084857
0.154564 0.289333 0.087095
0.183791 0.291606 0.089333
0.213018 0.293879 0.091571
0.242245 0.296153 0.093809
0.271472 0.298426 0.096047
0.300699 0.300699 0.098285
0.329926 0.302972 0.100523
0.359153 0.305245 0.102761
0.388380 0.307518 0.104999
0.417607 0.309791 0.107237
0.446834 0.312064 0.109475
0.476061 0.314337 0.111713
0.505288 0.316610 0.113951
0.534515 0.318884 0.116189
0.563742 0.321157 0.118427
0.592969 0.323430 0.120665
0.622196 0.325703 0.122903
0.651423 0.327976 0.125141
0.680650 0.330249 0.127379
0.709877 0.332522 0.129616
0.739104 0.334795 0.131854
0.768330 0.337068 0.134092
0.797557 0.339342 0.136330
0.826784 0.341615 0.138568
0.856011 0.343888 0.140806
0.885238 0.346161 0.143044
0.886264 0.346241 0.143123
0.886264 0.346241 0.143123
0.070320 0.313851 0.084696
0.070320 0.313851 0.084696
0.071345 0.313930 0.084775
0.100572 0.316203 0.087013
0.129799 0.318477 0.089251
0.159026 0.320750 0.091489
0.188253 0.323023 0.093727
0.217480 0.325296 0.095965
0.246707 0.327569 0.098203
0.275934 0.329842 0.100441
0.305161 0.332115 0.102679
0.334388 0.334388 0.104917
0.363615 0.336661 0.107155
0.392842 0.338935 0.109392
0.422069 0.341208 0.111630
0.451296 0.343481 0.113868
0.480523 0.345754 0.116106
0.509750 0.348027 0.118344
0.538977 0.350300 0.120582
0.568204 0.352573 0.122820
0.597431 0.354846 0.125058
0.626658 0.357119 0.127296
0.655885 0.359393 0.129534
0.685112 0.361666 0.131772
0.714339 0.363939 0.134010
0.743566 0.366212 0.136248
0.772793 0.368485 0.138486
0.802020 0.370758 0.140724
0.831247 0.373031 0.142962
0.860474 0.375304 0.145200
0.889701 0.377577 0.147438
0.890727 0.377657 0.147516
0.890727 0.377657 0.147516
0.074783 0.345267 0.089090
0.074783 0.345267 0.089090
0.075808 0.345347 0.089169
0.105035 0.347620 0.091406
0.134262 0.349893 0.093644
0.163489 0.352166 0.095882
0.192716 0.354439 0.098120
0.221943 0.356712 0.100358
0.251170 0.358985 0.102596
0.280397 0.361259 0.104834
0.309624 0.363532 0.107072
0.338851 0.365805 0.109310
0.368078 0.368078 0.111548
0.397305 0.370351 0.113786
0.426532 0.372624 0.116024
0.455759 0.374897 0.118262
0.484986 0.377170 0.120500
0.514213 0.379443 0.122738
0.543440 0.381717 0.124976
0.572667 0.383990 0.127214
0.601894 0.386263 0.129452
0.631121 0.388536 0.131690
0.660348 0.390809 0.133928
0.689575 0.393082 0.136166
0.718802 0.395355 0.138404
0.748029 0.397628 0.140642
0.777256 0.399901 0.142880
0.806483 0.402175 0.145118
0.835710 0.404448 0.147355
0.864937 0.406721 0.149593
0.894164 0.408994 0.151831
0.895189 0.409074 0.151910
0.895189 0.409074 0.151910
0.079245 0.376683 0.093484
0.079245 0.376683 0.093484
0.080271 0.376763 0.093562
0.109498 0.379036 0.095800
0.138725 0.381309 0.098038
0.167952 0.383583 0.100276
0.197179 0.385856 0.102514
0.226406 0.388129 0.104752
0.255633 0.390402 0.106990
0.284860 0.392675 0.109228
0.314087 0.394948 0.111466
0.343313 0.397221 0.113704
0.372540 0.399494 0.115942
0.401767 0.401767 0.118180
0.430994 0.404041 0.120418
0.460221 0.406314 0.122656
0.489448 0.408587 0.124894
0.518675 0.410860 0.127132
0.547902 0.413133 0.129369
0.577129 0.415406 0.131607
0.606356 0.417679 0.133845
0.635583 0.419952 0.136083
0.664810 0.422225 0.138321
0.694037 0.424499 0.140559
0.723264 0.426772 0.142797
0.752491 0.429045 0.145035
0.781718 0.431318 0.147273
0.810945 0.433591 0.149511
0.840172 0.435864 0.151749
0.869399 0.438137 0.153987
0.898626 0.440410 0.156225
0.899652 0.440490 0.156303
0.899652 0.440490 0.156303
0.083708 0.408100 0.097877
0.083708 0.408100 0.097877
0.084733 0.408180 0.097956
0.113960 0.410453 0.100194
0.143187 0.412726 0.102432
0.172414 0.414999 0.104670
0.201641 0.417272 0.106908
0.230868 0.419545 0.109145
0.260095 0.421818 0.111383
0.289322 0.424091 0.113621
0.318549 0.426365 0.115859
0.347776 0.428638 0.118097
0.377003 0.430911 0.120335
0.406230 0.433184 0.122573
0.435457 0.435457 0.124811
0.464684 0.437730 0.127049
0.493911 0.440003 0.129287
0.523138 0.442276 0.131525
0.552365 0.444549 0.133763
0.581592 0.446823 0.136001
0.610819 0.449096 0.138239
0.640046 0.451369 0.140477
0.669273 0.453642 0.142715
0.698500 0.455915 0.144953
0.727727 0.458188 0.147191
0.756954 0.460461 0.149429
0.786181 0.462734 0.151667
0.815408 0.465007 0.153905
0.844635 0.467281 0.156143
0.873862 0.469554 0.158381
0.903089 0.471827 0.160619
0.904114 0.471907 0.160697
0.904114 0.471907 0.160697
0.088170 0.439516 0.102271
0.088170 0.439516 0.102271
0.089196 0.439596 0.102349
0.118423 0.441869 0.104587
0.147650 0.444142 0.106825
0.176877 0.446416 0.109063
0.206104 0.448689 0.111301
0.235331 0.450962 0.113539
0.264558 0.453235 0.115777
0.293785 0.455508 0.118015
0.323012 0.457781 0.120253
0.352239 0.460054 0.122491
0.381466 0.462327 0.124729
0.410693 0.464600 0.126967
0.439920 0.466874 0.129205
0.469147 0.469147 0.131443
0.498374 0.471420 0.133681
0.527601 0.473693 0.135919
0.556828 0.475966 0.138157
0.586055 0.478239 0.140395
0.615282 0.480512 0.142633
0.644509 0.482785 0.144871
0.673736 0.485058 0.147108
0.702963 0.487332 0.149346
0.732189 0.489605 0.151584
0.761416 0.491878 0.153822
0.790643 0.494151 0.156060
0.819870 0.496424 0.158298
0.849097 0.498697 0.160536
0.878324 0.500970 0.162774
0.907551 0.503243 0.165012
0.908577 0.503323 0.165091
0.908577 0.503323 0.165091
0.092633 0.470933 0.106664
0.092633 0.470933 0.106664
0.093658 0.471013 0.106743
0.122885 0.473286 0.108981
0.152112 0.475559 0.111219
0.181339 0.477832 0.113457
0.210566 0.480105 0.115695
0.239793 0.482378 0.117933
0.269020 0.484651 0.120171
0.298247 0.486924 0.122409
0.327474 0.489198 0.124647
0.356701 0.491471 0.126885
0.385928 0.493744 0.129122
0.415155 0.496017 0.131360
0.444382 0.498290 0.133598
0.473609 0.500563 0.135836
0.502836 0.502836 0.138074
0.532063 0.505109 0.140312
0.561290 0.507382 0.142550
0.590517 0.509656 0.144788
0.619744 0.511929 0.147026
0.648971 0.514202 0.149264
0.678198 0.516475 0.151502
0.707425 0.518748 0.153740
0.736652 0.521021 0.155978
0.765879 0.523294 0.158216
0.795106 0.525567 0.160454
0.824333 0.527840 0.162692
0.853560 0.530114 0.164930
0.882787 0.532387 0.167168
0.912014 0.534660 0.169406
0.913040 0.534740 0.169484
0.913040 0.534740 0.169484
0.097095 0.502349 0.111058
0.097095 0.502349 0.111058
0.098121 0.502429 0.111136
0.127348 0.504702 0.113374
0.156575 0.506975 0.115612
0.185802 0.509248 0.117850
0.215029 0.511522 0.120088
0.244256 0.513795 0.122326
0.273483 0.516068 0.124564
0.302710 0.518341 0.126802
0.331937 0.520614 0.129040
0.361164 0.522887 0.131278
0.390391 0.525160 0.133516
0.419618 0.527433 0.135754
0.448845 0.529706 0.137992
0.478072 0.531980 0.140230
0.507299 0.534253 0.142468
0.536526 0.536526 0.144706
0.565753 0.538799 0.146944
0.594980 0.541072 0.149182
0.624207 0.543345 0.151420
0.653434 0.545618 0.153658
0.682661 0.547891 0.155896
0.711888 0.550164 0.158134
0.741115 0.552438 0.160372
0.770342 0.554711 0.162610
0.799569 0.556984 0.164847
0.828796 0.559257 0.167085
0.858023 0.561530 0.169323
0.887250 0.563803 0.171561
0.916477 0.566076 0.173799
0.917502 0.566156 0.173878
0.917502 0.566156 0.173878
0.101558 0.533766 0.115452
0.101558 0.533766 0.115452
0.102584 0.533846 0.115530
0.131811 0.536119 0.117768
0.161038 0.538392 0.120006
0.190265 0.540665 0.122244
0.219492 0.542938 0.124482
0.248719 0.545211 0.126720
0.277946 0.547484 0.128958
0.307172 0.549757 0.131196
0.336399 0.552030 0.133434
0.365626 0.554304 0.135672
0.394853 0.556577 0.137910
0.424080 0.558850 0.140148
0.453307 0.561123 0.142386
0.482534 0.563396 0.144624
0.511761 0.565669 0.146861
0.540988 0.567942 0.149099
0.570215 0.570215 0.151337
0.599442 0.572488 0.153575
0.628669 0.574762 0.155813
0.657896 0.577035 0.158051
0.687123 0.579308 0.160289
0.716350 0.581581 0.162527
0.745577 0.583854 0.164765
0.774804 0.586127 0.167003
0.804031 0.588400 0.169241
0.833258 0.590673 0.171479
0.862485 0.592946 0.173717
0.891712 0.595220 0.175955
0.920939 0.597493 0.178193
0.921965 0.597572 0.178271
0.921965 0.597572 0.178271
0.106021 0.565182 0.119845
0.106021 0.565182 0.119845
0.107046 0.565262 0.119924
0.136273 0.567535 0.122162
0.165500 0.569808 0.124400
0.194727 0.572081 0.126638
0.223954 0.574355 0.128875
0.253181 0.576628 0.131113
0.282408 0.578901 0.133351
0.311635 0.581174 0.135589
0.340862 0.583447 0.137827
0.370089 0.585720 0.140065
0.399316 0.587993 0.142303
0.428543 0.590266 0.144541
0.457770 0.592539 0.146779
0.486997 0.594812 0.149017
0.516224 0.597086 0.151255
0.545451 0.599359 0.153493
0.574678 0.601632 0.155731
0.603905 0.603905 0.157969
0.633132 0.606178 0.160207
0.662359 0.608451 0.162445
0.691586 0.610724 0.164683
0.720813 0.612997 0.166921
0.750040 0.615270 0.169159
0.779267 0.617544 0.171397
0.808494 0.619817 0.173635
0.837721 0.622090 0.175873
0.866948 0.624363 0.178111
0.896175 0.626636 0.180349
0.925402 0.628909 0.182586
0.926427 0.628989 0.182665
0.926427 0.628989 0.182665
0.110483 0.596599 0.124239
0.110483 0.596599 0.124239
0.111509 0.596679 0.124317
0.140736 0.598952 0.126555
0.169963 0.601225 0.128793
0.199190 0.603498 0.131031
0.228417 0.605771 0.133269
0.257644 0.608044 0.135507
0.286871 0.610317 0.137745
0.316098 0.612590 0.139983
0.345325 0.614863 0.142221
0.374552 0.617137 0.144459
0.403779 0.619410 0.146697
0.433006 0.621683 0.148935
0.462233 0.623956 0.151173
0.491460 0.626229 0.153411
0.520687 0.628502 0.155649
0.549914 0.630775 0.157887
0.579141 0.633048 0.160125
0.608368 0.635321 0.162363
0.637595 0.637595 0.164600
0.666822 0.639868 0.166838
0.696048 0.642141 0.169076
0.725275 0.644414 0.171314
0.754502 0.646687 0.173552
0.783729 0.648960 0.175790
0.812956 0.651233 0.178028
0.842183 0.653506 0.180266
0.871410 0.655779 0.182504
0.900637 0.658053 0.184742
0.929864 0.660326 0.186980
0.930890 0.660405 0.187059
0.930890 0.660405 0.187059
0.114946 0.628015 0.128632
0.114946 0.628015 0.128632
0.115971 0.628095 0.128711
0.145198 0.630368 0.130949
0.174425 0.632641 0.133187
0.203652 0.634914 0.135425
0.232879 0.637187 0.137663
0.262106 0.639461 0.139901
0.291333 0.641734 0.142139
0.320560 0.644007 0.144377
0.349787 0.646280 0.146614
0.379014 0.648553 0.148852
0.408241 0.650826 0.151090
0.437468 0.653099 0.153328
0.466695 0.655372 0.155566
0.495922 0.657645 0.157804
0.525149 0.659919 0.160042
0.554376 0.662192 0.162280
0.583603 0.664465 0.164518
0.612830 0.666738 0.166756
0.642057 0.669011 0.168994
0.671284 0.671284 0.171232
0.700511 0.673557 0.173470
0.729738 0.675830 0.175708
0.758965 0.678103 0.177946
0.788192 0.680377 0.180184
0.817419 0.682650 0.182422
0.846646 0.684923 0.184660
0.875873 0.687196 0.186898
0.905100 0.689469 0.189136
0.934327 0.691742 0.191374
0.935352 0.691822 0.191452
0.935352 0.691822 0.191452
0.119408 0.659432 0.133026
0.119408 0.659432 0.133026
0.120434 0.659511 0.133104
0.149661 0.661785 0.135342
0.178888 0.664058 0.137580
0.208115 0.666331 0.139818
0.237342 0.668604 0.142056
0.266569 0.670877 0.144294
0.295796 0.673150 0.146532
0.325023 0.675423 0.148770
0.354250 0.677696 0.151008
0.383477 0.679969 0.153246
0.412704 0.682243 0.155484
0.441931 0.684516 0.157722
0.471158 0.686789 0.159960
0.500385 0.689062 0.162198
0.529612 0.691335 0.164436
0.558839 0.693608 0.166674
0.588066 0.695881 0.168912
0.617293 0.698154 0.171150
0.646520 0.700427 0.173388
0.675747 0.702701 0.175626
0.704974 0.704974 0.177864
0.734201 0.707247 0.180102
0.763428 0.709520 0.182339
0.792655 0.711793 0.184577
0.821882 0.714066 0.186815
0.851109 0.716339 0.189053
0.880336 0.718612 0.191291
0.909563 0.720885 0.193529
0.938790 0.723159 0.195767
0.939815 0.723238 0.195846
0.939815 0.723238 0.195846
0.123871 0.690848 0.137419
0.123871 0.690848 0.137419
0.124897 0.690928 0.137498
0.154124 0.693201 0.139736
0.183351 0.695474 0.141974
0.212578 0.697747 0.144212
0.241805 0.700020 0.146450
0.271031 0.702293 0.148688
0.300258 0.704567 0.150926
0.329485 0.706840 0.153164
0.358712 0.709113 0.155402
0.387939 0.711386 0.157640
0.417166 0.713659 0.159878
0.446393 0.715932 0.162116
0.475620 0.718205 0.164353
0.504847 0.720478 0.166591
0.534074 0.722751 0.168829
0.563301 0.725025 0.171067
0.592528 0.727298 0.173305
0.621755 0.729571 0.175543
0.650982 0.731844 0.177781
0.680209 0.734117 0.180019
0.709436 0.736390 0.182257
0.738663 0.738663 0.184495
0.767890 0.740936 0.186733
0.797117 0.743209 0.188971
0.826344 0.745483 0.191209
0.855571 0.747756 0.193447
0.884798 0.750029 0.195685
0.914025 0.752302 0.197923
0.943252 0.754575 0.200161
0.944278 0.754655 0.200239
0.944278 0.754655 0.200239
0.128334 0.722265 0.141813
0.128334 0.722265 0.141813
0.129359 0.722344 0.141892
0.158586 0.724618 0.144130
0.187813 0.726891 0.146367
0.217040 0.729164 0.148605
0.246267 0.731437 0.150843
0.275494 0.733710 0.153081
0.304721 0.735983 0.155319
0.333948 0.738256 0.157557
0.363175 0.740529 0.159795
0.392402 0.742802 0.162033
0.421629 0.745076 0.164271
0.450856 0.747349 0.166509
0.480083 0.749622 0.168747
0.509310 0.751895 0.170985
0.538537 0.754168 0.173223
0.567764 0.756441 0.175461
0.596991 0.758714 0.177699
0.626218 0.760987 0.179937
0.655445 0.763260 0.182175
0.684672 0.765534 0.184413
0.713899 0.767807 0.186651
0.743126 0.770080 0.188889
0.772353 0.772353 0.191127
0.801580 0.774626 0.193365
0.830807 0.776899 0.195603
0.860034 0.779172 0.197841
0.889261 0.781445 0.200078
0.918488 0.783718 0.202316
0.947715 0.785991 0.204554
0.948740 0.786071 0.204633
0.948740 0.786071 0.204633
0.132796 0.753681 0.146207
0.132796 0.753681 0.146207
0.133822 0.753761 0.146285
0.163049 0.756034 0.148523
0.192276 0.758307 0.150761
0.221503 0.760580 0.152999
0.250730 0.762853 0.155237
0.279957 0.765126 0.157475
0.309184 0.767400 0.159713
0.338411 0.769673 0.161951
0.367638 0.771946 0.164189
0.396865 0.774219 0.166427
0.426092 0.776492 0.168665
0.455319 0.778765 0.170903
0.484546 0.781038 0.173141
0.513773 0.783311 0.175379
0.543000 0.785584 0.177617
0.572227 0.787858 0.179855
0.601454 0.790131 0.182092
0.630681 0.792404 0.184330
0.659907 0.794677 0.186568
0.689134 0.796950 0.188806
0.718361 0.799223 0.191044
0.747588 0.801496 0.193282
0.776815 0.803769 0.195520
0.806042 0.806042 0.197758
0.835269 0.808316 0.199996
0.864496 0.810589 0.202234
0.893723 0.812862 0.204472
0.922950 0.815135 0.206710
0.952177 0.817408 0.208948
0.953203 0.817488 0.209027
0.953203 0.817488 0.209027
0.137259 0.785098 0.150600
0.137259 0.785098 0.150600
0.138284 0.785177 0.150679
0.167511 0.787450 0.152917
0.196738 0.789724 0.155155
0.225965 0.791997 0.157393
0.255192 0.794270 0.159631
0.284419 0.796543 0.161869
0.313646 0.798816 0.164106
0.342873 0.801089 0.166344
0.372100 0.803362 0.168582
0.401327 0.805635 0.170820
0.430554 0.807908 0.173058
0.459781 0.810182 0.175296
0.489008 0.812455 0.177534
0.518235 0.814728 0.179772
0.547462 0.817001 0.182010
0.576689 0.819274 0.184248
0.605916 0.821547 0.186486
0.635143 0.823820 0.188724
0.664370 0.826093 0.190962
0.693597 0.828366 0.193200
0.722824 0.830640 0.195438
0.752051 0.832913 0.197676
0.781278 0.835186 0.199914
0.810505 0.837459 0.202152
0.839732 0.839732 0.204390
0.868959 0.842005 0.206628
0.898186 0.844278 0.208866
