backend/app/data/luts/minimal.cube
TITLE "minimal"
LUT_3D_SIZE 5
0.030000 0.030000 0.045000
0.206387 0.043718 0.058506
0.440203 0.061903 0.076410
0.674019 0.080088 0.094314
0.850407 0.093807 0.107820
0.056932 0.219601 0.071516
0.233320 0.233320 0.085022
0.467135 0.251504 0.102926
0.700951 0.269689 0.120829
0.877339 0.283408 0.134336
0.092633 0.470933 0.106664
0.269020 0.484651 0.120171
0.502836 0.502836 0.138074
0.736652 0.521021 0.155978
0.913040 0.534740 0.169484
0.128334 0.722265 0.141813
0.304721 0.735983 0.155319
0.538537 0.754168 0.173223
0.772353 0.772353 0.191127
0.948740 0.786071 0.204633
0.155266 0.911866 0.168329
0.331653 0.925584 0.181835
0.565469 0.943769 0.199739
0.799285 0.961954 0.217642
0.975672 0.975672 0.231149
0.035230 0.035230 0.210303
0.211618 0.048949 0.223809
0.445434 0.067134 0.241713
0.679250 0.085319 0.259617
0.855637 0.099037 0.273123
0.062163 0.224832 0.236819
0.238550 0.238550 0.250325
0.472366 0.256735 0.268229
0.706182 0.274920 0.286132
0.882569 0.288638 0.299639
0.097863 0.476163 0.271967
0.274251 0.489882 0.285474
0.508067 0.508067 0.303377
0.741883 0.526252 0.321281
0.918270 0.539970 0.334787
0.133564 0.727495 0.307116
0.309952 0.741214 0.320622
0.543767 0.759398 0.338526
0.777583 0.777583 0.356430
0.953971 0.791302 0.369936
0.160496 0.917096 0.333632
0.336884 0.930815 0.347138
0.570700 0.949000 0.365042
0.804515 0.967184 0.382945
0.980903 0.980903 0.396452
0.042164 0.042164 0.429426
0.218551 0.055882 0.442932
0.452367 0.074067 0.460836
0.686183 0.092252 0.478739
0.862570 0.105970 0.492246
0.069096 0.231765 0.455941
0.245483 0.245483 0.469448
0.479299 0.263668 0.487351
0.713115 0.281853 0.505255
0.889503 0.295572 0.518761
0.104797 0.483097 0.491090
0.281184 0.496815 0.504596
0.515000 0.515000 0.522500
0.748816 0.533185 0.540404
0.925203 0.546903 0.553910
0.140497 0.734428 0.526239
0.316885 0.748147 0.539745
0.550701 0.766332 0.557649
0.784517 0.784517 0.575552
0.960904 0.798235 0.589059
0.167430 0.924030 0.552754
0.343817 0.937748 0.566261
0.577633 0.955933 0.584164
0.811449 0.974118 0.602068
0.987836 0.987836 0.615574
0.049097 0.049097 0.648548
0.225485 0.062816 0.662055
0.459300 0.081000 0.679958
0.693116 0.099185 0.697862
0.869504 0.112904 0.711368
0.076029 0.238698 0.675064
0.252417 0.252417 0.688570
0.486233 0.270602 0.706474
0.720048 0.288786 0.724378
0.896436 0.302505 0.737884
0.111730 0.490030 0.710213
0.288117 0.503748 0.723719
0.521933 0.521933 0.741623
0.755749 0.540118 0.759526
0.932137 0.553837 0.773033
0.147431 0.741362 0.745361
0.323818 0.755080 0.758868
0.557634 0.773265 0.776771
0.791450 0.791450 0.794675
0.967837 0.805168 0.808181
0.174363 0.930963 0.771877
0.350750 0.944681 0.785383
0.584566 0.962866 0.803287
0.818382 0.981051 0.821191
0.994770 0.994770 0.834697
0.054328 0.054328 0.813851
0.230715 0.068046 0.827358
0.464531 0.086231 0.845261
0.698347 0.104416 0.863165
0.874734 0.118134 0.876671
0.081260 0.243929 0.840367
0.257647 0.257647 0.853873
0.491463 0.275832 0.871777
0.725279 0.294017 0.889681
0.901666 0.307735 0.903187
0.116961 0.495260 0.875516
0.293348 0.508979 0.889022
0.527164 0.527164 0.906926
0.760980 0.545349 0.924829
0.937367 0.559067 0.938336
0.152661 0.746592 0.910664
0.329049 0.760311 0.924171
0.562865 0.778496 0.942074
0.796680 0.796680 0.959978
0.973068 0.810399 0.973484
0.179593 0.936193 0.937180
0.355981 0.949912 0.950686
0.589797 0.968097 0.968590
0.823613 0.986282 0.986494
1.000000 1.000000 1.000000
