backend/app/data/luts/minimal.cube
TITLE "minimal"
LUT_3D_SIZE 9
0.030000 0.030000 0.045000
0.089479 0.034626 0.049554
0.206387 0.043718 0.058506
0.323295 0.052811 0.067458
0.440203 0.061903 0.076410
0.557111 0.070996 0.085362
0.674019 0.080088 0.094314
0.790927 0.089181 0.103265
0.850407 0.093807 0.107820
0.039082 0.093935 0.053941
0.098561 0.098561 0.058496
0.215469 0.107654 0.067448
0.332377 0.116746 0.076399
0.449285 0.125839 0.085351
0.566193 0.134931 0.094303
0.683101 0.144023 0.103255
0.800009 0.153116 0.112207
0.859488 0.157742 0.116761
0.056932 0.219601 0.071516
0.116412 0.224227 0.076070
0.233320 0.233320 0.085022
0.350228 0.242412 0.093974
0.467135 0.251504 0.102926
0.584043 0.260597 0.111877
0.700951 0.269689 0.120829
0.817859 0.278782 0.129781
0.877339 0.283408 0.134336
0.074783 0.345267 0.089090
0.134262 0.349893 0.093644
0.251170 0.358985 0.102596
0.368078 0.368078 0.111548
0.484986 0.377170 0.120500
0.601894 0.386263 0.129452
0.718802 0.395355 0.138404
0.835710 0.404448 0.147355
0.895189 0.409074 0.151910
0.092633 0.470933 0.106664
0.152112 0.475559 0.111219
0.269020 0.484651 0.120171
0.385928 0.493744 0.129122
0.502836 0.502836 0.138074
0.619744 0.511929 0.147026
0.736652 0.521021 0.155978
0.853560 0.530114 0.164930
0.913040 0.534740 0.169484
0.110483 0.596599 0.124239
0.169963 0.601225 0.128793
0.286871 0.610317 0.137745
0.403779 0.619410 0.146697
0.520687 0.628502 0.155649
0.637595 0.637595 0.164600
0.754502 0.646687 0.173552
0.871410 0.655779 0.182504
0.930890 0.660405 0.187059
0.128334 0.722265 0.141813
0.187813 0.726891 0.146367
0.304721 0.735983 0.155319
0.421629 0.745076 0.164271
0.538537 0.754168 0.173223
0.655445 0.763260 0.182175
0.772353 0.772353 0.191127
0.889261 0.781445 0.200078
0.948740 0.786071 0.204633
0.146184 0.847931 0.159387
0.205664 0.852557 0.163942
0.322571 0.861649 0.172894
0.439479 0.870741 0.181845
0.556387 0.879834 0.190797
0.673295 0.888926 0.199749
0.790203 0.898019 0.208701
0.907111 0.907111 0.217653
0.966591 0.911737 0.222207
0.155266 0.911866 0.168329
0.214745 0.916492 0.172883
0.331653 0.925584 0.181835
0.448561 0.934677 0.190787
0.565469 0.943769 0.199739
0.682377 0.952862 0.208690
0.799285 0.961954 0.217642
0.916193 0.971046 0.226594
0.975672 0.975672 0.231149
0.031764 0.031764 0.100742
0.091243 0.036390 0.105296
0.208151 0.045482 0.114248
0.325059 0.054575 0.123200
0.441967 0.063667 0.132152
0.558875 0.072759 0.141104
0.675783 0.081852 0.150055
0.792691 0.090944 0.159007
0.852170 0.095570 0.163562
0.040846 0.095699 0.109683
0.100325 0.100325 0.114238
0.217233 0.109417 0.123189
0.334141 0.118510 0.132141
0.451049 0.127602 0.141093
0.567957 0.136695 0.150045
0.684865 0.145787 0.158997
0.801773 0.154880 0.167949
0.861252 0.159506 0.172503
0.058696 0.221365 0.127257
0.118175 0.225991 0.131812
0.235083 0.235083 0.140764
0.351991 0.244176 0.149716
0.468899 0.253268 0.158667
0.585807 0.262361 0.167619
0.702715 0.271453 0.176571
0.819623 0.280546 0.185523
0.879102 0.285171 0.190077
0.076546 0.347031 0.144832
0.136026 0.351657 0.149386
0.252934 0.360749 0.158338
0.369842 0.369842 0.167290
0.486750 0.378934 0.176242
0.603658 0.388027 0.185194
0.720565 0.397119 0.194145
0.837473 0.406211 0.203097
0.896953 0.410837 0.207652
0.094397 0.472697 0.162406
0.153876 0.477323 0.166961
0.270784 0.486415 0.175912
0.387692 0.495508 0.184864
0.504600 0.504600 0.193816
0.621508 0.513692 0.202768
0.738416 0.522785 0.211720
0.855324 0.531877 0.220672
0.914803 0.536503 0.225226
0.112247 0.598363 0.179980
0.171727 0.602989 0.184535
0.288634 0.612081 0.193487
0.405542 0.621173 0.202439
0.522450 0.630266 0.211390
0.639358 0.639358 0.220342
0.756266 0.648451 0.229294
0.873174 0.657543 0.238246
0.932654 0.662169 0.242800
0.130097 0.724028 0.197555
0.189577 0.728654 0.202109
0.306485 0.737747 0.211061
0.423393 0.746839 0.220013
0.540301 0.755932 0.228965
0.657209 0.765024 0.237917
0.774117 0.774117 0.246868
0.891025 0.783209 0.255820
0.950504 0.787835 0.260375
0.147948 0.849694 0.215129
0.207427 0.854320 0.219684
0.324335 0.863413 0.228635
0.441243 0.872505 0.237587
0.558151 0.881598 0.246539
0.675059 0.890690 0.255491
0.791967 0.899782 0.264443
0.908875 0.908875 0.273395
0.968354 0.913501 0.277949
0.157030 0.913630 0.224070
0.216509 0.918256 0.228625
0.333417 0.927348 0.237577
0.450325 0.936440 0.246529
0.567233 0.945533 0.255480
0.684141 0.954625 0.264432
0.801049 0.963718 0.273384
0.917957 0.972810 0.282336
0.977436 0.977436 0.286890
0.035230 0.035230 0.210303
0.094710 0.039856 0.214857
0.211618 0.048949 0.223809
0.328526 0.058041 0.232761
0.445434 0.067134 0.241713
0.562342 0.076226 0.250665
0.679250 0.085319 0.259617
0.796158 0.094411 0.268569
0.855637 0.099037 0.273123
0.044312 0.099166 0.219244
0.103792 0.103792 0.223799
0.220700 0.112884 0.232751
0.337608 0.121977 0.241702
0.454516 0.131069 0.250654
0.571423 0.140161 0.259606
0.688331 0.149254 0.268558
0.805239 0.158346 0.277510
0.864719 0.162972 0.282064
0.062163 0.224832 0.236819
0.121642 0.229458 0.241373
0.238550 0.238550 0.250325
0.355458 0.247642 0.259277
0.472366 0.256735 0.268229
0.589274 0.265827 0.277181
0.706182 0.274920 0.286132
0.823090 0.284012 0.295084
0.882569 0.288638 0.299639
0.080013 0.350497 0.254393
0.139492 0.355123 0.258948
0.256400 0.364216 0.267899
0.373308 0.373308 0.276851
0.490216 0.382401 0.285803
0.607124 0.391493 0.294755
0.724032 0.400586 0.303707
0.840940 0.409678 0.312659
0.900420 0.414304 0.317213
0.097863 0.476163 0.271967
0.157343 0.480789 0.276522
0.274251 0.489882 0.285474
0.391159 0.498974 0.294426
0.508067 0.508067 0.303377
0.624975 0.517159 0.312329
0.741883 0.526252 0.321281
0.858790 0.535344 0.330233
0.918270 0.539970 0.334787
0.115714 0.601829 0.289542
0.175193 0.606455 0.294096
0.292101 0.615548 0.303048
0.409009 0.624640 0.312000
0.525917 0.633733 0.320952
0.642825 0.642825 0.329904
0.759733 0.651917 0.338855
0.876641 0.661010 0.347807
0.936120 0.665636 0.352362
0.133564 0.727495 0.307116
0.193044 0.732121 0.311671
0.309952 0.741214 0.320622
0.426859 0.750306 0.329574
0.543767 0.759398 0.338526
0.660675 0.768491 0.347478
0.777583 0.777583 0.356430
0.894491 0.786676 0.365382
0.953971 0.791302 0.369936
0.151414 0.853161 0.324690
0.210894 0.857787 0.329245
0.327802 0.866879 0.338197
0.444710 0.875972 0.347149
0.561618 0.885064 0.356100
0.678526 0.894157 0.365052
0.795434 0.903249 0.374004
0.912342 0.912342 0.382956
0.971821 0.916968 0.387510
0.160496 0.917096 0.333632
0.219976 0.921722 0.338186
0.336884 0.930815 0.347138
0.453792 0.939907 0.356090
0.570700 0.949000 0.365042
0.687607 0.958092 0.373994
0.804515 0.967184 0.382945
0.921423 0.976277 0.391897
0.980903 0.980903 0.396452
0.038697 0.038697 0.319864
0.098177 0.043323 0.324419
0.215085 0.052416 0.333371
0.331992 0.061508 0.342322
0.448900 0.070600 0.351274
0.565808 0.079693 0.360226
0.682716 0.088785 0.369178
0.799624 0.097878 0.378130
0.859104 0.102504 0.382684
0.047779 0.102632 0.328806
0.107258 0.107258 0.333360
0.224166 0.116351 0.342312
0.341074 0.125443 0.351264
0.457982 0.134536 0.360216
0.574890 0.143628 0.369167
0.691798 0.152721 0.378119
0.808706 0.161813 0.387071
0.868185 0.166439 0.391626
0.065629 0.228298 0.346380
0.125109 0.232924 0.350934
0.242017 0.242017 0.359886
0.358925 0.251109 0.368838
0.475833 0.260202 0.377790
0.592741 0.269294 0.386742
0.709648 0.278386 0.395694
0.826556 0.287479 0.404646
0.886036 0.292105 0.409200
0.083480 0.353964 0.363954
0.142959 0.358590 0.368509
0.259867 0.367683 0.377461
0.376775 0.376775 0.386412
0.493683 0.385867 0.395364
0.610591 0.394960 0.404316
0.727499 0.404052 0.413268
0.844407 0.413145 0.422220
0.903886 0.417771 0.426774
0.101330 0.479630 0.381529
0.160809 0.484256 0.386083
0.277717 0.493348 0.395035
0.394625 0.502441 0.403987
0.511533 0.511533 0.412939
0.628441 0.520626 0.421891
0.745349 0.529718 0.430842
0.862257 0.538811 0.439794
0.921737 0.543437 0.444349
0.119180 0.605296 0.399103
0.178660 0.609922 0.403658
0.295568 0.619014 0.412609
0.412476 0.628107 0.421561
0.529384 0.637199 0.430513
0.646292 0.646292 0.439465
0.763200 0.655384 0.448417
0.880108 0.664477 0.457369
0.939587 0.669102 0.461923
0.137031 0.730962 0.416677
0.196510 0.735588 0.421232
0.313418 0.744680 0.430184
0.430326 0.753773 0.439136
0.547234 0.762865 0.448087
0.664142 0.771958 0.457039
0.781050 0.781050 0.465991
0.897958 0.790142 0.474943
0.957437 0.794768 0.479497
0.154881 0.856628 0.434252
0.214361 0.861254 0.438806
0.331269 0.870346 0.447758
0.448177 0.879439 0.456710
0.565084 0.888531 0.465662
0.681992 0.897623 0.474614
0.798900 0.906716 0.483565
0.915808 0.915808 0.492517
0.975288 0.920434 0.497072
0.163963 0.920563 0.443193
0.223442 0.925189 0.447748
0.340350 0.934281 0.456699
0.457258 0.943374 0.465651
0.574166 0.952466 0.474603
0.691074 0.961559 0.483555
0.807982 0.970651 0.492507
0.924890 0.979744 0.501459
0.984370 0.984370 0.506013
0.042164 0.042164 0.429426
0.101643 0.046790 0.433980
0.218551 0.055882 0.442932
0.335459 0.064975 0.451884
0.452367 0.074067 0.460836
0.569275 0.083160 0.469787
0.686183 0.092252 0.478739
0.803091 0.101344 0.487691
0.862570 0.105970 0.492246
0.051246 0.106099 0.438367
0.110725 0.110725 0.442921
0.227633 0.119817 0.451873
0.344541 0.128910 0.460825
0.461449 0.138002 0.469777
0.578357 0.147095 0.478729
0.695265 0.156187 0.487681
0.812173 0.165280 0.496632
0.871652 0.169906 0.501187
0.069096 0.231765 0.455941
0.128575 0.236391 0.460496
0.245483 0.245483 0.469448
0.362391 0.254576 0.478399
0.479299 0.263668 0.487351
0.596207 0.272761 0.496303
0.713115 0.281853 0.505255
0.830023 0.290946 0.514207
0.889503 0.295572 0.518761
0.086946 0.357431 0.473516
0.146426 0.362057 0.478070
0.263334 0.371149 0.487022
0.380242 0.380242 0.495974
0.497150 0.389334 0.504926
0.614058 0.398427 0.513877
0.730966 0.407519 0.522829
0.847873 0.416611 0.531781
0.907353 0.421237 0.536336
0.104797 0.483097 0.491090
0.164276 0.487723 0.495644
0.281184 0.496815 0.504596
0.398092 0.505908 0.513548
0.515000 0.515000 0.522500
0.631908 0.524092 0.531452
0.748816 0.533185 0.540404
0.865724 0.542277 0.549356
0.925203 0.546903 0.553910
0.122647 0.608763 0.508664
0.182127 0.613389 0.513219
0.299034 0.622481 0.522171
0.415942 0.631573 0.531123
0.532850 0.640666 0.540074
0.649758 0.649758 0.549026
0.766666 0.658851 0.557978
0.883574 0.667943 0.566930
0.943054 0.672569 0.571484
0.140497 0.734428 0.526239
0.199977 0.739054 0.530793
0.316885 0.748147 0.539745
0.433793 0.757239 0.548697
0.550701 0.766332 0.557649
0.667609 0.775424 0.566601
0.784517 0.784517 0.575552
0.901425 0.793609 0.584504
0.960904 0.798235 0.589059
0.158348 0.860094 0.543813
0.217827 0.864720 0.548368
0.334735 0.873813 0.557319
0.451643 0.882905 0.566271
0.568551 0.891998 0.575223
0.685459 0.901090 0.584175
0.802367 0.910183 0.593127
0.919275 0.919275 0.602079
0.978754 0.923901 0.606633
0.167430 0.924030 0.552754
0.226909 0.928656 0.557309
0.343817 0.937748 0.566261
0.460725 0.946840 0.575213
0.577633 0.955933 0.584164
0.694541 0.965025 0.593116
0.811449 0.974118 0.602068
0.928357 0.983210 0.611020
0.987836 0.987836 0.615574
0.045630 0.045630 0.538987
0.105110 0.050256 0.543541
0.222018 0.059349 0.552493
0.338926 0.068441 0.561445
0.455834 0.077534 0.570397
0.572742 0.086626 0.579349
0.689650 0.095719 0.588301
0.806558 0.104811 0.597252
0.866037 0.109437 0.601807
0.054712 0.109566 0.547928
0.114192 0.114192 0.552483
0.231100 0.123284 0.561435
0.348008 0.132377 0.570386
0.464916 0.141469 0.579338
0.581823 0.150561 0.588290
0.698731 0.159654 0.597242
0.815639 0.168746 0.606194
0.875119 0.173372 0.610748
0.072563 0.235232 0.565503
0.132042 0.239858 0.570057
0.248950 0.248950 0.579009
0.365858 0.258042 0.587961
0.482766 0.267135 0.596913
0.599674 0.276227 0.605864
0.716582 0.285320 0.614816
0.833490 0.294412 0.623768
0.892969 0.299038 0.628323
0.090413 0.360898 0.583077
0.149892 0.365523 0.587631
0.266800 0.374616 0.596583
0.383708 0.383708 0.605535
0.500616 0.392801 0.614487
0.617524 0.401893 0.623439
0.734432 0.410986 0.632391
0.851340 0.420078 0.641342
0.910820 0.424704 0.645897
0.108263 0.486563 0.600651
0.167743 0.491189 0.605206
0.284651 0.500282 0.614158
0.401559 0.509374 0.623109
0.518467 0.518467 0.632061
0.635375 0.527559 0.641013
0.752283 0.536652 0.649965
0.869191 0.545744 0.658917
0.928670 0.550370 0.663471
0.126114 0.612229 0.618226
0.185593 0.616855 0.622780
0.302501 0.625948 0.631732
0.419409 0.635040 0.640684
0.536317 0.644133 0.649636
0.653225 0.653225 0.658587
0.770133 0.662317 0.667539
0.887041 0.671410 0.676491
0.946520 0.676036 0.681046
0.143964 0.737895 0.635800
0.203444 0.742521 0.640354
0.320352 0.751614 0.649306
0.437259 0.760706 0.658258
0.554167 0.769798 0.667210
0.671075 0.778891 0.676162
0.787983 0.787983 0.685114
0.904891 0.797076 0.694066
0.964371 0.801702 0.698620
0.161815 0.863561 0.653374
0.221294 0.868187 0.657929
0.338202 0.877279 0.666881
0.455110 0.886372 0.675833
0.572018 0.895464 0.684784
0.688926 0.904557 0.693736
0.805834 0.913649 0.702688
0.922742 0.922742 0.711640
0.982221 0.927368 0.716194
0.170896 0.927496 0.662316
0.230376 0.932122 0.666870
0.347284 0.941215 0.675822
0.464192 0.950307 0.684774
0.581100 0.959400 0.693726
0.698008 0.968492 0.702678
0.814915 0.977584 0.711629
0.931823 0.986677 0.720581
0.991303 0.991303 0.725136
0.049097 0.049097 0.648548
0.108577 0.053723 0.653103
0.225485 0.062816 0.662055
0.342393 0.071908 0.671006
0.459300 0.081000 0.679958
0.576208 0.090093 0.688910
0.693116 0.099185 0.697862
0.810024 0.108278 0.706814
0.869504 0.112904 0.711368
0.058179 0.113032 0.657490
0.117658 0.117658 0.662044
0.234566 0.126751 0.670996
0.351474 0.135843 0.679948
0.468382 0.144936 0.688900
0.585290 0.154028 0.697851
0.702198 0.163121 0.706803
0.819106 0.172213 0.715755
0.878586 0.176839 0.720310
0.076029 0.238698 0.675064
0.135509 0.243324 0.679618
0.252417 0.252417 0.688570
0.369325 0.261509 0.697522
0.486233 0.270602 0.706474
0.603141 0.279694 0.715426
0.720048 0.288786 0.724378
0.836956 0.297879 0.733329
0.896436 0.302505 0.737884
0.093880 0.364364 0.692638
0.153359 0.368990 0.697193
0.270267 0.378083 0.706145
0.387175 0.387175 0.715096
0.504083 0.396267 0.724048
0.620991 0.405360 0.733000
0.737899 0.414452 0.741952
0.854807 0.423545 0.750904
0.914286 0.428171 0.755458
0.111730 0.490030 0.710213
0.171210 0.494656 0.714767
0.288117 0.503748 0.723719
0.405025 0.512841 0.732671
0.521933 0.521933 0.741623
0.638841 0.531026 0.750574
0.755749 0.540118 0.759526
0.872657 0.549211 0.768478
0.932137 0.553837 0.773033
0.129580 0.615696 0.727787
0.189060 0.620322 0.732341
0.305968 0.629414 0.741293
0.422876 0.638507 0.750245
0.539784 0.647599 0.759197
0.656692 0.656692 0.768149
0.773600 0.665784 0.777101
0.890508 0.674877 0.786052
0.949987 0.679503 0.790607
0.147431 0.741362 0.745361
0.206910 0.745988 0.749916
0.323818 0.755080 0.758868
0.440726 0.764173 0.767819
0.557634 0.773265 0.776771
0.674542 0.782358 0.785723
0.791450 0.791450 0.794675
0.908358 0.800542 0.803627
0.967837 0.805168 0.808181
0.165281 0.867028 0.762936
0.224761 0.871654 0.767490
0.341669 0.880746 0.776442
0.458577 0.889839 0.785394
0.575484 0.898931 0.794346
0.692392 0.908023 0.803298
0.809300 0.917116 0.812249
0.926208 0.926208 0.821201
0.985688 0.930834 0.825756
0.174363 0.930963 0.771877
0.233842 0.935589 0.776431
0.350750 0.944681 0.785383
0.467658 0.953774 0.794335
0.584566 0.962866 0.803287
0.701474 0.971959 0.812239
0.818382 0.981051 0.821191
0.935290 0.990144 0.830143
0.994770 0.994770 0.834697
0.052564 0.052564 0.758110
0.112043 0.057190 0.762664
0.228951 0.066282 0.771616
0.345859 0.075375 0.780568
0.462767 0.084467 0.789520
0.579675 0.093560 0.798471
0.696583 0.102652 0.807423
0.813491 0.111744 0.816375
0.872970 0.116370 0.820930
0.061646 0.116499 0.767051
0.121125 0.121125 0.771605
0.238033 0.130218 0.780557
0.354941 0.139310 0.789509
0.471849 0.148402 0.798461
0.588757 0.157495 0.807413
0.705665 0.166587 0.816365
0.822573 0.175680 0.825316
0.882052 0.180306 0.829871
0.079496 0.242165 0.784625
0.138975 0.246791 0.789180
0.255883 0.255883 0.798132
0.372791 0.264976 0.807083
0.489699 0.274068 0.816035
0.606607 0.283161 0.824987
0.723515 0.292253 0.833939
0.840423 0.301346 0.842891
0.899903 0.305972 0.847445
0.097346 0.367831 0.802200
0.156826 0.372457 0.806754
0.273734 0.381549 0.815706
0.390642 0.390642 0.824658
0.507550 0.399734 0.833610
0.624458 0.408827 0.842561
0.741366 0.417919 0.851513
0.858273 0.427011 0.860465
0.917753 0.431637 0.865020
0.115197 0.493497 0.819774
0.174676 0.498123 0.824328
0.291584 0.507215 0.833280
0.408492 0.516308 0.842232
0.525400 0.525400 0.851184
0.642308 0.534492 0.860136
0.759216 0.543585 0.869088
0.876124 0.552677 0.878039
0.935603 0.557303 0.882594
0.133047 0.619163 0.837348
0.192527 0.623789 0.841903
0.309435 0.632881 0.850855
0.426342 0.641973 0.859806
0.543250 0.651066 0.868758
0.660158 0.660158 0.877710
0.777066 0.669251 0.886662
0.893974 0.678343 0.895614
0.953454 0.682969 0.900168
0.150898 0.744829 0.854923
0.210377 0.749454 0.859477
0.327285 0.758547 0.868429
0.444193 0.767639 0.877381
0.561101 0.776732 0.886333
0.678009 0.785824 0.895284
0.794917 0.794917 0.904236
0.911825 0.804009 0.913188
0.971304 0.808635 0.917743
0.168748 0.870494 0.872497
0.228227 0.875120 0.877051
0.345135 0.884213 0.886003
0.462043 0.893305 0.894955
0.578951 0.902398 0.903907
0.695859 0.911490 0.912859
0.812767 0.920583 0.921811
0.929675 0.929675 0.930763
0.989154 0.934301 0.935317
0.177830 0.934430 0.881438
0.237309 0.939056 0.885993
0.354217 0.948148 0.894945
0.471125 0.957241 0.903896
0.588033 0.966333 0.912848
0.704941 0.975425 0.921800
0.821849 0.984518 0.930752
0.938757 0.993610 0.939704
0.998236 0.998236 0.944258
0.054328 0.054328 0.813851
0.113807 0.058954 0.818406
0.230715 0.068046 0.827358
0.347623 0.077138 0.836310
0.464531 0.086231 0.845261
0.581439 0.095323 0.854213
0.698347 0.104416 0.863165
0.815255 0.113508 0.872117
0.874734 0.118134 0.876671
0.063409 0.118263 0.822793
0.122889 0.122889 0.827347
0.239797 0.131981 0.836299
0.356705 0.141074 0.845251
0.473613 0.150166 0.854203
0.590521 0.159259 0.863155
0.707429 0.168351 0.872106
0.824336 0.177443 0.881058
0.883816 0.182069 0.885613
0.081260 0.243929 0.840367
0.140739 0.248555 0.844922
0.257647 0.257647 0.853873
0.374555 0.266740 0.862825
0.491463 0.275832 0.871777
0.608371 0.284924 0.880729
0.725279 0.294017 0.889681
0.842187 0.303109 0.898633
0.901666 0.307735 0.903187
0.099110 0.369595 0.857941
0.158590 0.374221 0.862496
0.275498 0.383313 0.871448
0.392405 0.392405 0.880400
0.509313 0.401498 0.889351
0.626221 0.410590 0.898303
0.743129 0.419683 0.907255
0.860037 0.428775 0.916207
0.919517 0.433401 0.920761
0.116961 0.495260 0.875516
0.176440 0.499886 0.880070
0.293348 0.508979 0.889022
0.410256 0.518071 0.897974
0.527164 0.527164 0.906926
0.644072 0.536256 0.915878
0.760980 0.545349 0.924829
0.877888 0.554441 0.933781
0.937367 0.559067 0.938336
0.134811 0.620926 0.893090
0.194290 0.625552 0.897645
0.311198 0.634645 0.906596
0.428106 0.643737 0.915548
0.545014 0.652830 0.924500
0.661922 0.661922 0.933452
0.778830 0.671015 0.942404
0.895738 0.680107 0.951356
0.955217 0.684733 0.955910
0.152661 0.746592 0.910664
0.212141 0.751218 0.915219
0.329049 0.760311 0.924171
0.445957 0.769403 0.933123
0.562865 0.778496 0.942074
0.679772 0.787588 0.951026
0.796680 0.796680 0.959978
0.913588 0.805773 0.968930
0.973068 0.810399 0.973484
0.170512 0.872258 0.928239
0.229991 0.876884 0.932793
0.346899 0.885977 0.941745
0.463807 0.895069 0.950697
0.580715 0.904161 0.959649
0.697623 0.913254 0.968601
0.814531 0.922346 0.977552
0.931439 0.931439 0.986504
0.990918 0.936065 0.991059
0.179593 0.936193 0.937180
0.239073 0.940819 0.941735
0.355981 0.949912 0.950686
0.472889 0.959004 0.959638
0.589797 0.968097 0.968590
0.706705 0.977189 0.977542
0.823613 0.986282 0.986494
0.940521 0.995374 0.995446
1.000000 1.000000 1.000000
