backend/app/data/luts/monochrome.cube
TITLE "monochrome"
LUT_3D_SIZE 9
0.021200 0.020000 0.018400
0.021200 0.020000 0.018400
0.021200 0.020000 0.018400
0.065149 0.061461 0.056544
0.110963 0.104682 0.096307
0.156776 0.147902 0.136070
0.202590 0.191123 0.175833
0.248404 0.234343 0.215596
0.294217 0.277564 0.255359
0.021200 0.020000 0.018400
0.063464 0.059871 0.055082
0.109277 0.103092 0.094844
0.155091 0.146312 0.134607
0.200905 0.189533 0.174370
0.246718 0.232753 0.214133
0.292532 0.275974 0.253896
0.338346 0.319194 0.293658
0.384159 0.362414 0.333421
0.107592 0.101502 0.093382
0.153405 0.144722 0.133144
0.199219 0.187943 0.172907
0.245033 0.231163 0.212670
0.290847 0.274384 0.252433
0.336660 0.317604 0.292196
0.382474 0.360824 0.331958
0.428288 0.404045 0.371721
0.474101 0.447265 0.411484
0.197534 0.186353 0.171444
0.243347 0.229573 0.211207
0.289161 0.272793 0.250970
0.334975 0.316014 0.290733
0.380788 0.359234 0.330496
0.426602 0.402455 0.370258
0.472416 0.445675 0.410021
0.518229 0.488896 0.449784
0.564043 0.532116 0.489547
0.287476 0.271203 0.249507
0.333289 0.314424 0.289270
0.379103 0.357644 0.329033
0.424917 0.400865 0.368796
0.470730 0.444085 0.408558
0.516544 0.487306 0.448321
0.562358 0.530526 0.488084
0.608171 0.573747 0.527847
0.653985 0.616967 0.567610
0.377418 0.356054 0.327570
0.423231 0.399275 0.367333
0.469045 0.442495 0.407096
0.514859 0.485716 0.446858
0.560672 0.528936 0.486621
0.606486 0.572156 0.526384
0.652300 0.615377 0.566147
0.698113 0.658597 0.605910
0.743927 0.701818 0.645672
0.467359 0.440905 0.405633
0.513173 0.484126 0.445396
0.558987 0.527346 0.485158
0.604800 0.570566 0.524921
0.650614 0.613787 0.564684
0.696428 0.657007 0.604447
0.742241 0.700228 0.644210
0.788055 0.743448 0.683972
0.833869 0.786669 0.723735
0.557301 0.525756 0.483695
0.603115 0.568976 0.523458
0.648929 0.612197 0.563221
0.694742 0.655417 0.602984
0.740556 0.698638 0.642747
0.786370 0.741858 0.682510
0.832183 0.785079 0.722272
0.877997 0.828299 0.762035
0.923811 0.871520 0.801798
0.647243 0.610607 0.561758
0.693057 0.653827 0.601521
0.738871 0.697048 0.641284
0.784684 0.740268 0.681047
0.830498 0.783489 0.720810
0.876312 0.826709 0.760572
0.922125 0.869930 0.800335
0.967939 0.913150 0.840098
1.000000 0.956370 0.879861
0.021200 0.020000 0.018400
0.021200 0.020000 0.018400
0.036803 0.034720 0.031942
0.082616 0.077940 0.071705
0.128430 0.121161 0.111468
0.174244 0.164381 0.151230
0.220057 0.207601 0.190993
0.265871 0.250822 0.230756
0.311685 0.294042 0.270519
0.035117 0.033130 0.030479
0.080931 0.076350 0.070242
0.126745 0.119570 0.110005
0.172558 0.162791 0.149768
0.218372 0.206011 0.189530
0.264186 0.249232 0.229293
0.309999 0.292452 0.269056
0.355813 0.335673 0.308819
0.401627 0.378893 0.348582
0.125059 0.117980 0.108542
0.170873 0.161201 0.148305
0.216687 0.204421 0.188068
0.262500 0.247642 0.227830
0.308314 0.290862 0.267593
0.354128 0.334083 0.307356
0.399941 0.377303 0.347119
0.445755 0.420524 0.386882
0.491569 0.463744 0.426644
0.215001 0.202831 0.186605
0.260815 0.246052 0.226368
0.306628 0.289272 0.266130
0.352442 0.332493 0.305893
0.398256 0.375713 0.345656
0.444070 0.418933 0.385419
0.489883 0.462154 0.425182
0.535697 0.505374 0.464944
0.581511 0.548595 0.504707
0.304943 0.287682 0.264668
0.350757 0.330903 0.304430
0.396570 0.374123 0.344193
0.442384 0.417343 0.383956
0.488198 0.460564 0.423719
0.534011 0.503784 0.463482
0.579825 0.547005 0.503244
0.625639 0.590225 0.543007
0.671452 0.633446 0.582770
0.394885 0.372533 0.342730
0.440699 0.415753 0.382493
0.486512 0.458974 0.422256
0.532326 0.502194 0.462019
0.578140 0.545415 0.501782
0.623953 0.588635 0.541544
0.669767 0.631856 0.581307
0.715581 0.675076 0.621070
0.761394 0.718297 0.660833
0.484827 0.457384 0.420793
0.530641 0.500604 0.460556
0.576454 0.543825 0.500319
0.622268 0.587045 0.540082
0.668082 0.630266 0.579844
0.713895 0.673486 0.619607
0.759709 0.716706 0.659370
0.805523 0.759927 0.699133
0.851336 0.803147 0.738896
0.574769 0.542235 0.498856
0.620582 0.585455 0.538619
0.666396 0.628676 0.578382
0.712210 0.671896 0.618144
0.758023 0.715116 0.657907
0.803837 0.758337 0.697670
0.849651 0.801557 0.737433
0.895464 0.844778 0.777196
0.941278 0.887998 0.816958
0.664711 0.627085 0.576919
0.710524 0.670306 0.616681
0.756338 0.713526 0.656444
0.802152 0.756747 0.696207
0.847965 0.799967 0.735970
0.893779 0.843188 0.775733
0.939593 0.886408 0.815496
0.985406 0.929629 0.855258
1.000000 0.972849 0.895021
0.021200 0.020000 0.018400
0.021200 0.020000 0.018400
0.054270 0.051198 0.047102
0.100084 0.094419 0.086865
0.145898 0.137639 0.126628
0.191711 0.180860 0.166391
0.237525 0.224080 0.206154
0.283339 0.267301 0.245917
0.329152 0.310521 0.285679
0.052585 0.049608 0.045640
0.098398 0.092829 0.085402
0.144212 0.136049 0.125165
0.190026 0.179270 0.164928
0.235839 0.222490 0.204691
0.281653 0.265711 0.244454
0.327467 0.308931 0.284216
0.373280 0.352151 0.323979
0.419094 0.395372 0.363742
0.142527 0.134459 0.123702
0.188340 0.177680 0.163465
0.234154 0.220900 0.203228
0.279968 0.264120 0.242991
0.325781 0.307341 0.282754
0.371595 0.350561 0.322516
0.417409 0.393782 0.362279
0.463222 0.437002 0.402042
0.509036 0.480223 0.441805
0.232469 0.219310 0.201765
0.278282 0.262530 0.241528
0.324096 0.305751 0.281291
0.369910 0.348971 0.321054
0.415723 0.392192 0.360816
0.461537 0.435412 0.400579
0.507351 0.478633 0.440342
0.553164 0.521853 0.480105
0.598978 0.565074 0.519868
0.322410 0.304161 0.279828
0.368224 0.347381 0.319591
0.414038 0.390602 0.359354
0.459851 0.433822 0.399116
0.505665 0.477043 0.438879
0.551479 0.520263 0.478642
0.597293 0.563483 0.518405
0.643106 0.606704 0.558168
0.688920 0.649924 0.597930
0.412352 0.389012 0.357891
0.458166 0.432232 0.397654
0.503980 0.475453 0.437416
0.549793 0.518673 0.477179
0.595607 0.561893 0.516942
0.641421 0.605114 0.556705
0.687234 0.648334 0.596468
0.733048 0.691555 0.636230
0.778862 0.734775 0.675993
0.502294 0.473863 0.435954
0.548108 0.517083 0.475716
0.593922 0.560303 0.515479
0.639735 0.603524 0.555242
0.685549 0.646744 0.595005
0.731363 0.689965 0.634768
0.777176 0.733185 0.674530
0.822990 0.776406 0.714293
0.868804 0.819626 0.754056
0.592236 0.558713 0.514016
0.638050 0.601934 0.553779
0.683864 0.645154 0.593542
0.729677 0.688375 0.633305
0.775491 0.731595 0.673068
0.821305 0.774816 0.712830
0.867118 0.818036 0.752593
0.912932 0.861256 0.792356
0.958746 0.904477 0.832119
0.682178 0.643564 0.592079
0.727992 0.686785 0.631842
0.773805 0.730005 0.671605
0.819619 0.773226 0.711368
0.865433 0.816446 0.751130
0.911246 0.859666 0.790893
0.957060 0.902887 0.830656
1.000000 0.946107 0.870419
1.000000 0.989328 0.910182
0.021200 0.020000 0.018400
0.025924 0.024457 0.022500
0.071738 0.067677 0.062263
0.117551 0.110897 0.102026
0.163365 0.154118 0.141788
0.209179 0.197338 0.181551
0.254992 0.240559 0.221314
0.300806 0.283779 0.261077
0.346620 0.327000 0.300840
0.070052 0.066087 0.060800
0.115866 0.109307 0.100563
0.161680 0.152528 0.140326
0.207493 0.195748 0.180088
0.253307 0.238969 0.219851
0.299121 0.282189 0.259614
0.344934 0.325410 0.299377
0.390748 0.368630 0.339140
0.436562 0.411851 0.378903
0.159994 0.150938 0.138863
0.205808 0.194158 0.178626
0.251621 0.237379 0.218388
0.297435 0.280599 0.258151
0.343249 0.323820 0.297914
0.389062 0.367040 0.337677
0.434876 0.410261 0.377440
0.480690 0.453481 0.417202
0.526503 0.496701 0.456965
0.249936 0.235789 0.216926
0.295750 0.279009 0.256688
0.341563 0.322230 0.296451
0.387377 0.365450 0.336214
0.433191 0.408670 0.375977
0.479004 0.451891 0.415740
0.524818 0.495111 0.455502
0.570632 0.538332 0.495265
0.616445 0.581552 0.535028
0.339878 0.320640 0.294988
0.385692 0.363860 0.334751
0.431505 0.407080 0.374514
0.477319 0.450301 0.414277
0.523133 0.493521 0.454040
0.568946 0.536742 0.493802
0.614760 0.579962 0.533565
0.660574 0.623183 0.573328
0.706387 0.666403 0.613091
0.429820 0.405490 0.373051
0.475633 0.448711 0.412814
0.521447 0.491931 0.452577
0.567261 0.535152 0.492340
0.613074 0.578372 0.532102
0.658888 0.621593 0.571865
0.704702 0.664813 0.611628
0.750516 0.708033 0.651391
0.796329 0.751254 0.691154
0.519762 0.490341 0.451114
0.565575 0.533562 0.490877
0.611389 0.576782 0.530640
0.657203 0.620003 0.570402
0.703016 0.663223 0.610165
0.748830 0.706443 0.649928
0.794644 0.749664 0.689691
0.840457 0.792884 0.729454
0.886271 0.836105 0.769216
0.609704 0.575192 0.529177
0.655517 0.618413 0.568940
0.701331 0.661633 0.608702
0.747145 0.704853 0.648465
0.792958 0.748074 0.688228
0.838772 0.791294 0.727991
0.884586 0.834515 0.767754
0.930399 0.877735 0.807516
0.976213 0.920956 0.847279
0.699645 0.660043 0.607239
0.745459 0.703263 0.647002
0.791273 0.746484 0.686765
0.837087 0.789704 0.726528
0.882900 0.832925 0.766291
0.928714 0.876145 0.806054
0.974528 0.919366 0.845816
1.000000 0.962586 0.885579
1.000000 1.000000 0.920000
0.021200 0.020000 0.018400
0.043391 0.040935 0.037660
0.089205 0.084156 0.077423
0.135019 0.127376 0.117186
0.180832 0.170597 0.156949
0.226646 0.213817 0.196712
0.272460 0.257038 0.236475
0.318273 0.300258 0.276237
0.364087 0.343478 0.316000
0.087520 0.082566 0.075960
0.133333 0.125786 0.115723
0.179147 0.169007 0.155486
0.224961 0.212227 0.195249
0.270774 0.255447 0.235012
0.316588 0.298668 0.274774
0.362402 0.341888 0.314537
0.408215 0.385109 0.354300
0.454029 0.428329 0.394063
0.177461 0.167416 0.154023
0.223275 0.210637 0.193786
0.269089 0.253857 0.233549
0.314903 0.297078 0.273312
0.360716 0.340298 0.313074
0.406530 0.383519 0.352837
0.452344 0.426739 0.392600
0.498157 0.469960 0.432363
0.543971 0.513180 0.472126
0.267403 0.252267 0.232086
0.313217 0.295488 0.271849
0.359031 0.338708 0.311612
0.404844 0.381929 0.351374
0.450658 0.425149 0.391137
0.496472 0.468370 0.430900
0.542285 0.511590 0.470663
0.588099 0.554810 0.510426
0.633913 0.598031 0.550188
0.357345 0.337118 0.310149
0.403159 0.380339 0.349912
0.448973 0.423559 0.389674
0.494786 0.466780 0.429437
0.540600 0.510000 0.469200
0.586414 0.553220 0.508963
0.632227 0.596441 0.548726
0.678041 0.639661 0.588488
0.723855 0.682882 0.628251
0.447287 0.421969 0.388212
0.493101 0.465189 0.427974
0.538915 0.508410 0.467737
0.584728 0.551630 0.507500
0.630542 0.594851 0.547263
0.676356 0.638071 0.587026
0.722169 0.681292 0.626788
0.767983 0.724512 0.666551
0.813797 0.767733 0.706314
0.537229 0.506820 0.466274
0.583043 0.550040 0.506037
0.628856 0.593261 0.545800
0.674670 0.636481 0.585563
0.720484 0.679702 0.625326
0.766297 0.722922 0.665088
0.812111 0.766143 0.704851
0.857925 0.809363 0.744614
0.903739 0.852583 0.784377
0.627171 0.591671 0.544337
0.672985 0.634891 0.584100
0.718798 0.678112 0.623863
0.764612 0.721332 0.663626
0.810426 0.764553 0.703388
0.856239 0.807773 0.743151
0.902053 0.850993 0.782914
0.947867 0.894214 0.822677
0.993680 0.937434 0.862440
0.717113 0.676522 0.622400
0.762927 0.719742 0.662163
0.808740 0.762962 0.701925
0.854554 0.806183 0.741688
0.900368 0.849403 0.781451
0.946181 0.892624 0.821214
0.991995 0.935844 0.860977
1.000000 0.979065 0.900740
1.000000 1.000000 0.920000
0.021200 0.020000 0.018400
0.060859 0.057414 0.052821
0.106672 0.100634 0.092584
0.152486 0.143855 0.132346
0.198300 0.187075 0.172109
0.244113 0.230296 0.211872
0.289927 0.273516 0.251635
0.335741 0.316737 0.291398
0.381555 0.359957 0.331161
0.104987 0.099044 0.091121
0.150801 0.142265 0.130884
0.196614 0.185485 0.170646
0.242428 0.228706 0.210409
0.288242 0.271926 0.250172
0.334055 0.315147 0.289935
0.379869 0.358367 0.329698
0.425683 0.401588 0.369461
0.471496 0.444808 0.409223
0.194929 0.183895 0.169184
0.240743 0.227116 0.208946
0.286556 0.270336 0.248709
0.332370 0.313557 0.288472
0.378184 0.356777 0.328235
0.423997 0.399997 0.367998
0.469811 0.443218 0.407760
0.515625 0.486438 0.447523
0.561438 0.529659 0.487286
0.284871 0.268746 0.247246
0.330684 0.311967 0.287009
0.376498 0.355187 0.326772
0.422312 0.398407 0.366535
0.468126 0.441628 0.406298
0.513939 0.484848 0.446060
0.559753 0.528069 0.485823
0.605567 0.571289 0.525586
0.651380 0.614510 0.565349
0.374813 0.353597 0.325309
0.420626 0.396817 0.365072
0.466440 0.440038 0.404835
0.512254 0.483258 0.444598
0.558067 0.526479 0.484360
0.603881 0.569699 0.524123
0.649695 0.612920 0.563886
0.695508 0.656140 0.603649
0.741322 0.699361 0.643412
0.464755 0.438448 0.403372
0.510568 0.481668 0.443135
0.556382 0.524889 0.482898
0.602196 0.568109 0.522660
0.648009 0.611330 0.562423
0.693823 0.654550 0.602186
0.739637 0.697770 0.641949
0.785450 0.740991 0.681712
0.831264 0.784211 0.721474
0.554697 0.523299 0.481435
0.600510 0.566519 0.521198
0.646324 0.609740 0.560960
0.692138 0.652960 0.600723
0.737951 0.696180 0.640486
0.783765 0.739401 0.680249
0.829579 0.782621 0.720012
0.875392 0.825842 0.759774
0.921206 0.869062 0.799537
0.644638 0.608149 0.559497
0.690452 0.651370 0.599260
0.736266 0.694590 0.639023
0.782079 0.737811 0.678786
0.827893 0.781031 0.718549
0.873707 0.824252 0.758312
0.919520 0.867472 0.798074
0.965334 0.910693 0.837837
1.000000 0.953913 0.877600
0.734580 0.693000 0.637560
0.780394 0.736221 0.677323
0.826208 0.779441 0.717086
0.872021 0.822662 0.756849
0.917835 0.865882 0.796612
0.963649 0.909103 0.836374
1.000000 0.952323 0.876137
1.000000 0.995543 0.915900
1.000000 1.000000 0.920000
0.032513 0.030672 0.028218
0.078326 0.073893 0.067981
0.124140 0.117113 0.107744
0.169954 0.160334 0.147507
0.215767 0.203554 0.187270
0.261581 0.246774 0.227032
0.307395 0.289995 0.266795
0.353208 0.333215 0.306558
0.399022 0.376436 0.346321
0.122454 0.115523 0.106281
0.168268 0.158743 0.146044
0.214082 0.201964 0.185807
0.259895 0.245184 0.225570
0.305709 0.288405 0.265332
0.351523 0.331625 0.305095
0.397336 0.374846 0.344858
0.443150 0.418066 0.384621
0.488964 0.461287 0.424384
0.212396 0.200374 0.184344
0.258210 0.243594 0.224107
0.304024 0.286815 0.263870
0.349837 0.330035 0.303632
0.395651 0.373256 0.343395
0.441465 0.416476 0.383158
0.487278 0.459697 0.422921
0.533092 0.502917 0.462684
0.578906 0.546138 0.502447
0.302338 0.285225 0.262407
0.348152 0.328445 0.302170
0.393966 0.371666 0.341932
0.439779 0.414886 0.381695
0.485593 0.458107 0.421458
0.531407 0.501327 0.461221
0.577220 0.544547 0.500984
0.623034 0.587768 0.540746
0.668848 0.630988 0.580509
0.392280 0.370076 0.340470
0.438094 0.413296 0.380232
0.483907 0.456516 0.419995
0.529721 0.499737 0.459758
0.575535 0.542957 0.499521
0.621349 0.586178 0.539284
0.667162 0.629398 0.579046
0.712976 0.672619 0.618809
0.758790 0.715839 0.658572
0.482222 0.454926 0.418532
0.528036 0.498147 0.458295
0.573849 0.541367 0.498058
0.619663 0.584588 0.537821
0.665477 0.627808 0.577584
0.711290 0.671029 0.617346
0.757104 0.714249 0.657109
0.802918 0.757470 0.696872
0.848731 0.800690 0.736635
0.572164 0.539777 0.496595
0.617978 0.582998 0.536358
0.663791 0.626218 0.576121
0.709605 0.669439 0.615884
0.755419 0.712659 0.655646
0.801232 0.755880 0.695409
0.847046 0.799100 0.735172
0.892860 0.842320 0.774935
0.938673 0.885541 0.814698
0.662106 0.624628 0.574658
0.707920 0.667849 0.614421
0.753733 0.711069 0.654184
0.799547 0.754290 0.693946
0.845361 0.797510 0.733709
0.891174 0.840730 0.773472
0.936988 0.883951 0.813235
0.982802 0.927171 0.852998
1.000000 0.970392 0.892760
0.752048 0.709479 0.652721
0.797861 0.752699 0.692483
0.843675 0.795920 0.732246
0.889489 0.839140 0.772009
0.935302 0.882361 0.811772
0.981116 0.925581 0.851535
1.000000 0.968802 0.891298
1.000000 1.000000 0.920000
1.000000 1.000000 0.920000
0.049980 0.047151 0.043379
0.095794 0.090371 0.083142
0.141607 0.133592 0.122904
0.187421 0.176812 0.162667
0.233235 0.220033 0.202430
0.279048 0.263253 0.242193
0.324862 0.306474 0.281956
0.370676 0.349694 0.321719
0.416489 0.392914 0.361481
0.139922 0.132002 0.121442
0.185736 0.175222 0.161204
0.231549 0.218443 0.200967
0.277363 0.261663 0.240730
0.323177 0.304884 0.280493
0.368990 0.348104 0.320256
0.414804 0.391324 0.360018
0.460618 0.434545 0.399781
0.506431 0.477765 0.439544
0.229864 0.216853 0.199504
0.275677 0.260073 0.239267
0.321491 0.303293 0.279030
0.367305 0.346514 0.318793
0.413118 0.389734 0.358556
0.458932 0.432955 0.398318
0.504746 0.476175 0.438081
0.550559 0.519396 0.477844
0.596373 0.562616 0.517607
0.319806 0.301703 0.277567
0.365619 0.344924 0.317330
0.411433 0.388144 0.357093
0.457247 0.431365 0.396856
0.503060 0.474585 0.436618
0.548874 0.517806 0.476381
0.594688 0.561026 0.516144
0.640501 0.604247 0.555907
0.686315 0.647467 0.595670
0.409748 0.386554 0.355630
0.455561 0.429775 0.395393
0.501375 0.472995 0.435156
0.547189 0.516216 0.474918
0.593002 0.559436 0.514681
0.638816 0.602657 0.554444
0.684630 0.645877 0.594207
0.730443 0.689097 0.633970
0.776257 0.732318 0.673732
0.499689 0.471405 0.433693
0.545503 0.514626 0.473456
0.591317 0.557846 0.513218
0.637130 0.601066 0.552981
0.682944 0.644287 0.592744
0.728758 0.687507 0.632507
0.774572 0.730728 0.672270
0.820385 0.773948 0.712032
0.866199 0.817169 0.751795
0.589631 0.556256 0.511756
0.635445 0.599476 0.551518
0.681259 0.642697 0.591281
0.727072 0.685917 0.631044
0.772886 0.729138 0.670807
0.818700 0.772358 0.710570
0.864513 0.815579 0.750332
0.910327 0.858799 0.790095
0.956141 0.902020 0.829858
0.679573 0.641107 0.589818
0.725387 0.684327 0.629581
0.771201 0.727548 0.669344
0.817014 0.770768 0.709107
0.862828 0.813989 0.748870
0.908642 0.857209 0.788632
0.954455 0.900430 0.828395
1.000000 0.943650 0.868158
1.000000 0.986870 0.907921
0.769515 0.725958 0.667881
0.815329 0.769178 0.707644
0.861143 0.812399 0.747407
0.906956 0.855619 0.787170
0.952770 0.898839 0.826932
0.998584 0.942060 0.866695
1.000000 0.985280 0.906458
1.000000 1.000000 0.920000
1.000000 1.000000 0.920000
0.067447 0.063630 0.058539
0.113261 0.106850 0.098302
0.159075 0.150070 0.138065
0.204888 0.193291 0.177828
0.250702 0.236511 0.217590
0.296516 0.279732 0.257353
0.342329 0.322952 0.297116
0.388143 0.366173 0.336879
0.433957 0.409393 0.376642
0.157389 0.148480 0.136602
0.203203 0.191701 0.176365
0.249017 0.234921 0.216128
0.294830 0.278142 0.255890
0.340644 0.321362 0.295653
0.386458 0.364583 0.335416
0.432271 0.407803 0.375179
0.478085 0.451024 0.414942
0.523899 0.494244 0.454705
0.247331 0.233331 0.214665
0.293145 0.276552 0.254428
0.338959 0.319772 0.294190
0.384772 0.362993 0.333953
0.430586 0.406213 0.373716
0.476400 0.449434 0.413479
0.522213 0.492654 0.453242
0.568027 0.535874 0.493004
0.613841 0.579095 0.532767
0.337273 0.318182 0.292728
0.383087 0.361403 0.332490
0.428900 0.404623 0.372253
0.474714 0.447844 0.412016
0.520528 0.491064 0.451779
0.566341 0.534284 0.491542
0.612155 0.577505 0.531304
0.657969 0.620725 0.571067
0.703782 0.663946 0.610830
0.427215 0.403033 0.370790
0.473029 0.446253 0.410553
0.518842 0.489474 0.450316
0.564656 0.532694 0.490079
0.610470 0.575915 0.529842
0.656283 0.619135 0.569604
0.702097 0.662356 0.609367
0.747911 0.705576 0.649130
0.793724 0.748797 0.688893
0.517157 0.487884 0.448853
0.562971 0.531104 0.488616
0.608784 0.574325 0.528379
0.654598 0.617545 0.568142
0.700412 0.660766 0.607904
0.746225 0.703986 0.647667
0.792039 0.747207 0.687430
0.837853 0.790427 0.727193
0.883666 0.833647 0.766956
0.607099 0.572735 0.526916
0.652912 0.615955 0.566679
0.698726 0.659176 0.606442
0.744540 0.702396 0.646204
0.790353 0.745617 0.685967
0.836167 0.788837 0.725730
0.881981 0.832057 0.765493
0.927795 0.875278 0.805256
0.973608 0.918498 0.845018
0.697041 0.657586 0.604979
0.742854 0.700806 0.644742
0.788668 0.744026 0.684504
0.834482 0.787247 0.724267
0.880295 0.830467 0.764030
0.926109 0.873688 0.803793
0.971923 0.916908 0.843556
1.000000 0.960129 0.883318
1.000000 1.000000 0.920000
0.786983 0.742436 0.683041
0.832796 0.785657 0.722804
0.878610 0.828877 0.762567
0.924424 0.872098 0.802330
0.970237 0.915318 0.842093
1.000000 0.958539 0.881856
1.000000 1.000000 0.920000
1.000000 1.000000 0.920000
1.000000 1.000000 0.920000
