backend/app/data/luts/monochrome.cube
TITLE "monochrome"
LUT_3D_SIZE 33
0.021200 0.020000 0.018400
0.021200 0.020000 0.018400
0.021200 0.020000 0.018400
0.021200 0.020000 0.018400
0.021200 0.020000 0.018400
0.021200 0.020000 0.018400
0.021200 0.020000 0.018400
0.021200 0.020000 0.018400
0.021200 0.020000 0.018400
0.030789 0.029046 0.026722
0.042242 0.039851 0.036663
0.053696 0.050656 0.046604
0.065149 0.061461 0.056544
0.076602 0.072266 0.066485
0.088056 0.083072 0.076426
0.099509 0.093877 0.086367
0.110963 0.104682 0.096307
0.122416 0.115487 0.106248
0.133870 0.126292 0.116189
0.145323 0.137097 0.126129
0.156776 0.147902 0.136070
0.168230 0.158707 0.146011
0.179683 0.169512 0.155951
0.191137 0.180318 0.165892
0.202590 0.191123 0.175833
0.214043 0.201928 0.185774
0.225497 0.212733 0.195714
0.236950 0.223538 0.205655
0.248404 0.234343 0.215596
0.259857 0.245148 0.225536
0.271311 0.255953 0.235477
0.282764 0.266758 0.245418
0.294217 0.277564 0.255359
0.021200 0.020000 0.018400
0.021200 0.020000 0.018400
0.021200 0.020000 0.018400
0.021200 0.020000 0.018400
0.021200 0.020000 0.018400
0.021200 0.020000 0.018400
0.021200 0.020000 0.018400
0.030367 0.028649 0.026357
0.041821 0.039454 0.036297
0.053274 0.050259 0.046238
0.064728 0.061064 0.056179
0.076181 0.071869 0.066119
0.087635 0.082674 0.076060
0.099088 0.093479 0.086001
0.110541 0.104284 0.095942
0.121995 0.115089 0.105882
0.133448 0.125895 0.115823
0.144902 0.136700 0.125764
0.156355 0.147505 0.135704
0.167808 0.158310 0.145645
0.179262 0.169115 0.155586
0.190715 0.179920 0.165526
0.202169 0.190725 0.175467
0.213622 0.201530 0.185408
0.225076 0.212335 0.195349
0.236529 0.223141 0.205289
0.247982 0.233946 0.215230
0.259436 0.244751 0.225171
0.270889 0.255556 0.235111
0.282343 0.266361 0.245052
0.293796 0.277166 0.254993
0.305249 0.287971 0.264934
0.316703 0.298776 0.274874
0.021200 0.020000 0.018400
0.021200 0.020000 0.018400
0.021200 0.020000 0.018400
0.021200 0.020000 0.018400
0.021200 0.020000 0.018400
0.029946 0.028251 0.025991
0.041399 0.039056 0.035932
0.052853 0.049861 0.045872
0.064306 0.060666 0.055813
0.075760 0.071471 0.065754
0.087213 0.082277 0.075694
0.098667 0.093082 0.085635
0.110120 0.103887 0.095576
0.121573 0.114692 0.105517
0.133027 0.125497 0.115457
0.144480 0.136302 0.125398
0.155934 0.147107 0.135339
0.167387 0.157912 0.145279
0.178840 0.168717 0.155220
0.190294 0.179523 0.165161
0.201747 0.190328 0.175101
0.213201 0.201133 0.185042
0.224654 0.211938 0.194983
0.236108 0.222743 0.204924
0.247561 0.233548 0.214864
0.259014 0.244353 0.224805
0.270468 0.255158 0.234746
0.281921 0.265963 0.244686
0.293375 0.276769 0.254627
0.304828 0.287574 0.264568
0.316282 0.298379 0.274508
0.327735 0.309184 0.284449
0.339188 0.319989 0.294390
0.021200 0.020000 0.018400
0.021200 0.020000 0.018400
0.021200 0.020000 0.018400
0.029525 0.027853 0.025625
0.040978 0.038659 0.035566
0.052432 0.049464 0.045507
0.063885 0.060269 0.055447
0.075338 0.071074 0.065388
0.086792 0.081879 0.075329
0.098245 0.092684 0.085269
0.109699 0.103489 0.095210
0.121152 0.114294 0.105151
0.132605 0.125099 0.115092
0.144059 0.135905 0.125032
0.155512 0.146710 0.134973
0.166966 0.157515 0.144914
0.178419 0.168320 0.154854
0.189873 0.179125 0.164795
0.201326 0.189930 0.174736
0.212779 0.200735 0.184676
0.224233 0.211540 0.194617
0.235686 0.222345 0.204558
0.247140 0.233151 0.214499
0.258593 0.243956 0.224439
0.270046 0.254761 0.234380
0.281500 0.265566 0.244321
0.292953 0.276371 0.254261
0.304407 0.287176 0.264202
0.315860 0.297981 0.274143
0.327314 0.308786 0.284083
0.338767 0.319592 0.294024
0.350220 0.330397 0.303965
0.361674 0.341202 0.313906
0.021200 0.020000 0.018400
0.029103 0.027456 0.025259
0.040557 0.038261 0.035200
0.052010 0.049066 0.045141
0.063464 0.059871 0.055082
0.074917 0.070676 0.065022
0.086370 0.081482 0.074963
0.097824 0.092287 0.084904
0.109277 0.103092 0.094844
0.120731 0.113897 0.104785
0.132184 0.124702 0.114726
0.143638 0.135507 0.124667
0.155091 0.146312 0.134607
0.166544 0.157117 0.144548
0.177998 0.167922 0.154489
0.189451 0.178728 0.164429
0.200905 0.189533 0.174370
0.212358 0.200338 0.184311
0.223811 0.211143 0.194251
0.235265 0.221948 0.204192
0.246718 0.232753 0.214133
0.258172 0.243558 0.224074
0.269625 0.254363 0.234014
0.281079 0.265168 0.243955
0.292532 0.275974 0.253896
0.303985 0.286779 0.263836
0.315439 0.297584 0.273777
0.326892 0.308389 0.283718
0.338346 0.319194 0.293658
0.349799 0.329999 0.303599
0.361252 0.340804 0.313540
0.372706 0.351609 0.323481
0.384159 0.362414 0.333421
0.040135 0.037864 0.034834
0.051589 0.048669 0.044775
0.063042 0.059474 0.054716
0.074496 0.070279 0.064657
0.085949 0.081084 0.074597
0.097402 0.091889 0.084538
0.108856 0.102694 0.094479
0.120309 0.113499 0.104419
0.131763 0.124304 0.114360
0.143216 0.135110 0.124301
0.154670 0.145915 0.134242
0.166123 0.156720 0.144182
0.177576 0.167525 0.154123
0.189030 0.178330 0.164064
0.200483 0.189135 0.174004
0.211937 0.199940 0.183945
0.223390 0.210745 0.193886
0.234844 0.221550 0.203826
0.246297 0.232356 0.213767
0.257750 0.243161 0.223708
0.269204 0.253966 0.233649
0.280657 0.264771 0.243589
0.292111 0.275576 0.253530
0.303564 0.286381 0.263471
0.315017 0.297186 0.273411
0.326471 0.307991 0.283352
0.337924 0.318796 0.293293
0.349378 0.329602 0.303233
0.360831 0.340407 0.313174
0.372285 0.351212 0.323115
0.383738 0.362017 0.333056
0.395191 0.372822 0.342996
0.406645 0.383627 0.352937
0.062621 0.059076 0.054350
0.074074 0.069881 0.064291
0.085528 0.080687 0.074232
0.096981 0.091492 0.084172
0.108435 0.102297 0.094113
0.119888 0.113102 0.104054
0.131341 0.123907 0.113994
0.142795 0.134712 0.123935
0.154248 0.145517 0.133876
0.165702 0.156322 0.143817
0.177155 0.167127 0.153757
0.188608 0.177933 0.163698
0.200062 0.188738 0.173639
0.211515 0.199543 0.183579
0.222969 0.210348 0.193520
0.234422 0.221153 0.203461
0.245876 0.231958 0.213401
0.257329 0.242763 0.223342
0.268782 0.253568 0.233283
0.280236 0.264373 0.243224
0.291689 0.275179 0.253164
0.303143 0.285984 0.263105
0.314596 0.296789 0.273046
0.326049 0.307594 0.282986
0.337503 0.318399 0.292927
0.348956 0.329204 0.302868
0.360410 0.340009 0.312808
0.371863 0.350814 0.322749
0.383317 0.361619 0.332690
0.394770 0.372425 0.342631
0.406223 0.383230 0.352571
0.417677 0.394035 0.362512
0.429130 0.404840 0.372453
0.085106 0.080289 0.073866
0.096560 0.091094 0.083807
0.108013 0.101899 0.093747
0.119467 0.112704 0.103688
0.130920 0.123509 0.113629
0.142373 0.134315 0.123569
0.153827 0.145120 0.133510
0.165280 0.155925 0.143451
0.176734 0.166730 0.153391
0.188187 0.177535 0.163332
0.199641 0.188340 0.173273
0.211094 0.199145 0.183214
0.222547 0.209950 0.193154
0.234001 0.220755 0.203095
0.245454 0.231561 0.213036
0.256908 0.242366 0.222976
0.268361 0.253171 0.232917
0.279814 0.263976 0.242858
0.291268 0.274781 0.252799
0.302721 0.285586 0.262739
0.314175 0.296391 0.272680
0.325628 0.307196 0.282621
0.337082 0.318001 0.292561
0.348535 0.328807 0.302502
0.359988 0.339612 0.312443
0.371442 0.350417 0.322383
0.382895 0.361222 0.332324
0.394349 0.372027 0.342265
0.405802 0.382832 0.352206
0.417255 0.393637 0.362146
0.428709 0.404442 0.372087
0.440162 0.415247 0.382028
0.451616 0.426053 0.391968
0.107592 0.101502 0.093382
0.119045 0.112307 0.103322
0.130499 0.123112 0.113263
0.141952 0.133917 0.123204
0.153405 0.144722 0.133144
0.164859 0.155527 0.143085
0.176312 0.166332 0.153026
0.187766 0.177137 0.162966
0.199219 0.187943 0.172907
0.210673 0.198748 0.182848
0.222126 0.209553 0.192789
0.233579 0.220358 0.202729
0.245033 0.231163 0.212670
0.256486 0.241968 0.222611
0.267940 0.252773 0.232551
0.279393 0.263578 0.242492
0.290847 0.274384 0.252433
0.302300 0.285189 0.262374
0.313753 0.295994 0.272314
0.325207 0.306799 0.282255
0.336660 0.317604 0.292196
0.348114 0.328409 0.302136
0.359567 0.339214 0.312077
0.371020 0.350019 0.322018
0.382474 0.360824 0.331958
0.393927 0.371630 0.341899
0.405381 0.382435 0.351840
0.416834 0.393240 0.361781
0.428288 0.404045 0.371721
0.439741 0.414850 0.381662
0.451194 0.425655 0.391603
0.462648 0.436460 0.401543
0.474101 0.447265 0.411484
0.130077 0.122714 0.112897
0.141531 0.133520 0.122838
0.152984 0.144325 0.132779
0.164438 0.155130 0.142719
0.175891 0.165935 0.152660
0.187344 0.176740 0.162601
0.198798 0.187545 0.172541
0.210251 0.198350 0.182482
0.221705 0.209155 0.192423
0.233158 0.219960 0.202364
0.244611 0.230766 0.212304
0.256065 0.241571 0.222245
0.267518 0.252376 0.232186
0.278972 0.263181 0.242126
0.290425 0.273986 0.252067
0.301879 0.284791 0.262008
0.313332 0.295596 0.271949
0.324785 0.306401 0.281889
0.336239 0.317206 0.291830
0.347692 0.328012 0.301771
0.359146 0.338817 0.311711
0.370599 0.349622 0.321652
0.382053 0.360427 0.331593
0.393506 0.371232 0.341533
0.404959 0.382037 0.351474
0.416413 0.392842 0.361415
0.427866 0.403647 0.371356
0.439320 0.414452 0.381296
0.450773 0.425258 0.391237
0.462226 0.436063 0.401178
0.473680 0.446868 0.411118
0.485133 0.457673 0.421059
0.496587 0.468478 0.431000
0.152563 0.143927 0.132413
0.164016 0.154732 0.142354
0.175470 0.165537 0.152294
0.186923 0.176342 0.162235
0.198376 0.187148 0.172176
0.209830 0.197953 0.182116
0.221283 0.208758 0.192057
0.232737 0.219563 0.201998
0.244190 0.230368 0.211939
0.255644 0.241173 0.221879
0.267097 0.251978 0.231820
0.278550 0.262783 0.241761
0.290004 0.273588 0.251701
0.301457 0.284394 0.261642
0.312911 0.295199 0.271583
0.324364 0.306004 0.281524
0.335817 0.316809 0.291464
0.347271 0.327614 0.301405
0.358724 0.338419 0.311346
0.370178 0.349224 0.321286
0.381631 0.360029 0.331227
0.393085 0.370834 0.341168
0.404538 0.381640 0.351108
0.415991 0.392445 0.361049
0.427445 0.403250 0.370990
0.438898 0.414055 0.380931
0.450352 0.424860 0.390871
0.461805 0.435665 0.400812
0.473258 0.446470 0.410753
0.484712 0.457275 0.420693
0.496165 0.468080 0.430634
0.507619 0.478886 0.440575
0.519072 0.489691 0.450515
0.175048 0.165140 0.151929
0.186502 0.175945 0.161869
0.197955 0.186750 0.171810
0.209408 0.197555 0.181751
0.220862 0.208360 0.191691
0.232315 0.219165 0.201632
0.243769 0.229971 0.211573
0.255222 0.240776 0.221514
0.266676 0.251581 0.231454
0.278129 0.262386 0.241395
0.289582 0.273191 0.251336
0.301036 0.283996 0.261276
0.312489 0.294801 0.271217
0.323943 0.305606 0.281158
0.335396 0.316411 0.291098
0.346850 0.327217 0.301039
0.358303 0.338022 0.310980
0.369756 0.348827 0.320921
0.381210 0.359632 0.330861
0.392663 0.370437 0.340802
0.404117 0.381242 0.350743
0.415570 0.392047 0.360683
0.427023 0.402852 0.370624
0.438477 0.413657 0.380565
0.449930 0.424463 0.390506
0.461384 0.435268 0.400446
0.472837 0.446073 0.410387
0.484291 0.456878 0.420328
0.495744 0.467683 0.430268
0.507197 0.478488 0.440209
0.518651 0.489293 0.450150
0.530104 0.500098 0.460090
0.541558 0.510903 0.470031
0.197534 0.186353 0.171444
0.208987 0.197158 0.181385
0.220441 0.207963 0.191326
0.231894 0.218768 0.201266
0.243347 0.229573 0.211207
0.254801 0.240378 0.221148
0.266254 0.251183 0.231089
0.277708 0.261988 0.241029
0.289161 0.272793 0.250970
0.300614 0.283599 0.260911
0.312068 0.294404 0.270851
0.323521 0.305209 0.280792
0.334975 0.316014 0.290733
0.346428 0.326819 0.300673
0.357882 0.337624 0.310614
0.369335 0.348429 0.320555
0.380788 0.359234 0.330496
0.392242 0.370039 0.340436
0.403695 0.380845 0.350377
0.415149 0.391650 0.360318
0.426602 0.402455 0.370258
0.438056 0.413260 0.380199
0.449509 0.424065 0.390140
0.460962 0.434870 0.400081
0.472416 0.445675 0.410021
0.483869 0.456480 0.419962
0.495323 0.467285 0.429903
0.506776 0.478091 0.439843
0.518229 0.488896 0.449784
0.529683 0.499701 0.459725
0.541136 0.510506 0.469665
0.552590 0.521311 0.479606
0.564043 0.532116 0.489547
0.220019 0.207565 0.190960
0.231473 0.218370 0.200901
0.242926 0.229175 0.210841
0.254379 0.239981 0.220782
0.265833 0.250786 0.230723
0.277286 0.261591 0.240664
0.288740 0.272396 0.250604
0.300193 0.283201 0.260545
0.311647 0.294006 0.270486
0.323100 0.304811 0.280426
0.334553 0.315616 0.290367
0.346007 0.326421 0.300308
0.357460 0.337227 0.310248
0.368914 0.348032 0.320189
0.380367 0.358837 0.330130
0.391820 0.369642 0.340071
0.403274 0.380447 0.350011
0.414727 0.391252 0.359952
0.426181 0.402057 0.369893
0.437634 0.412862 0.379833
0.449088 0.423668 0.389774
0.460541 0.434473 0.399715
0.471994 0.445278 0.409656
0.483448 0.456083 0.419596
0.494901 0.466888 0.429537
0.506355 0.477693 0.439478
0.517808 0.488498 0.449418
0.529261 0.499303 0.459359
0.540715 0.510108 0.469300
0.552168 0.520914 0.479240
0.563622 0.531719 0.489181
0.575075 0.542524 0.499122
0.586529 0.553329 0.509063
0.242505 0.228778 0.210476
0.253958 0.239583 0.220416
0.265411 0.250388 0.230357
0.276865 0.261193 0.240298
0.288318 0.271998 0.250239
0.299772 0.282804 0.260179
0.311225 0.293609 0.270120
0.322679 0.304414 0.280061
0.334132 0.315219 0.290001
0.345585 0.326024 0.299942
0.357039 0.336829 0.309883
0.368492 0.347634 0.319823
0.379946 0.358439 0.329764
0.391399 0.369244 0.339705
0.402853 0.380050 0.349646
0.414306 0.390855 0.359586
0.425759 0.401660 0.369527
0.437213 0.412465 0.379468
0.448666 0.423270 0.389408
0.460120 0.434075 0.399349
0.471573 0.444880 0.409290
0.483026 0.455685 0.419231
0.494480 0.466490 0.429171
0.505933 0.477296 0.439112
0.517387 0.488101 0.449053
0.528840 0.498906 0.458993
0.540294 0.509711 0.468934
0.551747 0.520516 0.478875
0.563200 0.531321 0.488815
0.574654 0.542126 0.498756
0.586107 0.552931 0.508697
0.597561 0.563736 0.518638
0.609014 0.574542 0.528578
0.264990 0.249991 0.229991
0.276444 0.260796 0.239932
0.287897 0.271601 0.249873
0.299350 0.282406 0.259814
0.310804 0.293211 0.269754
0.322257 0.304016 0.279695
0.333711 0.314821 0.289636
0.345164 0.325626 0.299576
0.356617 0.336432 0.309517
0.368071 0.347237 0.319458
0.379524 0.358042 0.329398
0.390978 0.368847 0.339339
0.402431 0.379652 0.349280
0.413885 0.390457 0.359221
0.425338 0.401262 0.369161
0.436791 0.412067 0.379102
0.448245 0.422872 0.389043
0.459698 0.433678 0.398983
0.471152 0.444483 0.408924
0.482605 0.455288 0.418865
0.494059 0.466093 0.428806
0.505512 0.476898 0.438746
0.516965 0.487703 0.448687
0.528419 0.498508 0.458628
0.539872 0.509313 0.468568
0.551326 0.520119 0.478509
0.562779 0.530924 0.488450
0.574232 0.541729 0.498390
0.585686 0.552534 0.508331
0.597139 0.563339 0.518272
0.608593 0.574144 0.528213
0.620046 0.584949 0.538153
0.631500 0.595754 0.548094
0.287476 0.271203 0.249507
0.298929 0.282009 0.259448
0.310382 0.292814 0.269389
0.321836 0.303619 0.279329
0.333289 0.314424 0.289270
0.344743 0.325229 0.299211
0.356196 0.336034 0.309151
0.367650 0.346839 0.319092
0.379103 0.357644 0.329033
0.390556 0.368449 0.338973
0.402010 0.379255 0.348914
0.413463 0.390060 0.358855
0.424917 0.400865 0.368796
0.436370 0.411670 0.378736
0.447823 0.422475 0.388677
0.459277 0.433280 0.398618
0.470730 0.444085 0.408558
0.482184 0.454890 0.418499
0.493637 0.465695 0.428440
0.505091 0.476501 0.438380
0.516544 0.487306 0.448321
0.527997 0.498111 0.458262
0.539451 0.508916 0.468203
0.550904 0.519721 0.478143
0.562358 0.530526 0.488084
0.573811 0.541331 0.498025
0.585265 0.552136 0.507965
0.596718 0.562941 0.517906
0.608171 0.573747 0.527847
0.619625 0.584552 0.537788
0.631078 0.595357 0.547728
0.642532 0.606162 0.557669
0.653985 0.616967 0.567610
0.309961 0.292416 0.269023
0.321414 0.303221 0.278964
0.332868 0.314026 0.288904
0.344321 0.324831 0.298845
0.355775 0.335637 0.308786
0.367228 0.346442 0.318726
0.378682 0.357247 0.328667
0.390135 0.368052 0.338608
0.401588 0.378857 0.348548
0.413042 0.389662 0.358489
0.424495 0.400467 0.368430
0.435949 0.411272 0.378371
0.447402 0.422077 0.388311
0.458856 0.432883 0.398252
0.470309 0.443688 0.408193
0.481762 0.454493 0.418133
0.493216 0.465298 0.428074
0.504669 0.476103 0.438015
0.516123 0.486908 0.447955
0.527576 0.497713 0.457896
0.539029 0.508518 0.467837
0.550483 0.519323 0.477778
0.561936 0.530129 0.487718
0.573390 0.540934 0.497659
0.584843 0.551739 0.507600
0.596297 0.562544 0.517540
0.607750 0.573349 0.527481
0.619203 0.584154 0.537422
0.630657 0.594959 0.547363
0.642110 0.605764 0.557303
0.653564 0.616569 0.567244
0.665017 0.627375 0.577185
0.676470 0.638180 0.587125
0.332447 0.313629 0.288539
0.343900 0.324434 0.298479
0.355353 0.335239 0.308420
0.366807 0.346044 0.318361
0.378260 0.356849 0.328301
0.389714 0.367654 0.338242
0.401167 0.378459 0.348183
0.412620 0.389265 0.358123
0.424074 0.400070 0.368064
0.435527 0.410875 0.378005
0.446981 0.421680 0.387946
0.458434 0.432485 0.397886
0.469888 0.443290 0.407827
0.481341 0.454095 0.417768
0.492794 0.464900 0.427708
0.504248 0.475706 0.437649
0.515701 0.486511 0.447590
0.527155 0.497316 0.457530
0.538608 0.508121 0.467471
0.550062 0.518926 0.477412
0.561515 0.529731 0.487353
0.572968 0.540536 0.497293
0.584422 0.551341 0.507234
0.595875 0.562146 0.517175
0.607329 0.572952 0.527115
0.618782 0.583757 0.537056
0.630235 0.594562 0.546997
0.641689 0.605367 0.556938
0.653142 0.616172 0.566878
0.664596 0.626977 0.576819
0.676049 0.637782 0.586760
0.687503 0.648587 0.596700
0.698956 0.659392 0.606641
0.354932 0.334842 0.308054
0.366385 0.345647 0.317995
0.377839 0.356452 0.327936
0.389292 0.367257 0.337876
0.400746 0.378062 0.347817
0.412199 0.388867 0.357758
0.423653 0.399672 0.367698
0.435106 0.410477 0.377639
0.446559 0.421282 0.387580
0.458013 0.432088 0.397521
0.469466 0.442893 0.407461
0.480920 0.453698 0.417402
0.492373 0.464503 0.427343
0.503826 0.475308 0.437283
0.515280 0.486113 0.447224
0.526733 0.496918 0.457165
0.538187 0.507723 0.467105
0.549640 0.518528 0.477046
0.561094 0.529334 0.486987
0.572547 0.540139 0.496928
0.584000 0.550944 0.506868
0.595454 0.561749 0.516809
0.606907 0.572554 0.526750
0.618361 0.583359 0.536690
0.629814 0.594164 0.546631
0.641268 0.604969 0.556572
0.652721 0.615774 0.566513
0.664174 0.626580 0.576453
0.675628 0.637385 0.586394
0.687081 0.648190 0.596335
0.698535 0.658995 0.606275
0.709988 0.669800 0.616216
0.721441 0.680605 0.626157
0.377418 0.356054 0.327570
0.388871 0.366859 0.337511
0.400324 0.377664 0.347451
0.411778 0.388470 0.357392
0.423231 0.399275 0.367333
0.434685 0.410080 0.377273
0.446138 0.420885 0.387214
0.457591 0.431690 0.397155
0.469045 0.442495 0.407096
0.480498 0.453300 0.417036
0.491952 0.464105 0.426977
0.503405 0.474910 0.436918
0.514859 0.485716 0.446858
0.526312 0.496521 0.456799
0.537765 0.507326 0.466740
0.549219 0.518131 0.476680
0.560672 0.528936 0.486621
0.572126 0.539741 0.496562
0.583579 0.550546 0.506503
0.595032 0.561351 0.516443
0.606486 0.572156 0.526384
0.617939 0.582962 0.536325
0.629393 0.593767 0.546265
0.640846 0.604572 0.556206
0.652300 0.615377 0.566147
0.663753 0.626182 0.576087
0.675206 0.636987 0.586028
0.686660 0.647792 0.595969
0.698113 0.658597 0.605910
0.709567 0.669403 0.615850
0.721020 0.680208 0.625791
0.732474 0.691013 0.635732
0.743927 0.701818 0.645672
0.399903 0.377267 0.347086
0.411356 0.388072 0.357026
0.422810 0.398877 0.366967
0.434263 0.409682 0.376908
0.445717 0.420487 0.386848
0.457170 0.431293 0.396789
0.468623 0.442098 0.406730
0.480077 0.452903 0.416671
0.491530 0.463708 0.426611
0.502984 0.474513 0.436552
0.514437 0.485318 0.446493
0.525891 0.496123 0.456433
0.537344 0.506928 0.466374
0.548797 0.517733 0.476315
0.560251 0.528539 0.486255
0.571704 0.539344 0.496196
0.583158 0.550149 0.506137
0.594611 0.560954 0.516078
0.606065 0.571759 0.526018
0.617518 0.582564 0.535959
0.628971 0.593369 0.545900
0.640425 0.604174 0.555840
0.651878 0.614979 0.565781
0.663332 0.625785 0.575722
0.674785 0.636590 0.585662
0.686238 0.647395 0.595603
0.697692 0.658200 0.605544
0.709145 0.669005 0.615485
0.720599 0.679810 0.625425
0.732052 0.690615 0.635366
0.743506 0.701420 0.645307
0.754959 0.712225 0.655247
0.766412 0.723031 0.665188
0.422388 0.398480 0.366601
0.433842 0.409285 0.376542
0.445295 0.420090 0.386483
0.456749 0.430895 0.396423
0.468202 0.441700 0.406364
0.479656 0.452505 0.416305
0.491109 0.463310 0.426246
0.502562 0.474115 0.436186
0.514016 0.484921 0.446127
0.525469 0.495726 0.456068
0.536923 0.506531 0.466008
0.548376 0.517336 0.475949
0.559829 0.528141 0.485890
0.571283 0.538946 0.495830
0.582736 0.549751 0.505771
0.594190 0.560556 0.515712
0.605643 0.571361 0.525653
0.617097 0.582167 0.535593
0.628550 0.592972 0.545534
0.640003 0.603777 0.555475
0.651457 0.614582 0.565415
0.662910 0.625387 0.575356
0.674364 0.636192 0.585297
0.685817 0.646997 0.595237
0.697271 0.657802 0.605178
0.708724 0.668607 0.615119
0.720177 0.679413 0.625060
0.731631 0.690218 0.635000
0.743084 0.701023 0.644941
0.754538 0.711828 0.654882
0.765991 0.722633 0.664822
0.777444 0.733438 0.674763
0.788898 0.744243 0.684704
0.444874 0.419692 0.386117
0.456327 0.430498 0.396058
0.467781 0.441303 0.405998
0.479234 0.452108 0.415939
0.490688 0.462913 0.425880
0.502141 0.473718 0.435821
0.513594 0.484523 0.445761
0.525048 0.495328 0.455702
0.536501 0.506133 0.465643
0.547955 0.516938 0.475583
0.559408 0.527744 0.485524
0.570862 0.538549 0.495465
0.582315 0.549354 0.505405
0.593768 0.560159 0.515346
0.605222 0.570964 0.525287
0.616675 0.581769 0.535228
0.628129 0.592574 0.545168
0.639582 0.603379 0.555109
0.651035 0.614184 0.565050
0.662489 0.624990 0.574990
0.673942 0.635795 0.584931
0.685396 0.646600 0.594872
0.696849 0.657405 0.604812
0.708303 0.668210 0.614753
0.719756 0.679015 0.624694
0.731209 0.689820 0.634635
0.742663 0.700625 0.644575
0.754116 0.711430 0.654516
0.765570 0.722236 0.664457
0.777023 0.733041 0.674397
0.788477 0.743846 0.684338
0.799930 0.754651 0.694279
0.811383 0.765456 0.704220
0.467359 0.440905 0.405633
0.478813 0.451710 0.415573
0.490266 0.462515 0.425514
0.501720 0.473320 0.435455
0.513173 0.484126 0.445396
0.524627 0.494931 0.455336
0.536080 0.505736 0.465277
0.547533 0.516541 0.475218
0.558987 0.527346 0.485158
0.570440 0.538151 0.495099
0.581894 0.548956 0.505040
0.593347 0.559761 0.514980
0.604800 0.570566 0.524921
0.616254 0.581372 0.534862
0.627707 0.592177 0.544803
0.639161 0.602982 0.554743
0.650614 0.613787 0.564684
0.662068 0.624592 0.574625
0.673521 0.635397 0.584565
0.684974 0.646202 0.594506
0.696428 0.657007 0.604447
0.707881 0.667812 0.614387
0.719335 0.678618 0.624328
0.730788 0.689423 0.634269
0.742241 0.700228 0.644210
0.753695 0.711033 0.654150
0.765148 0.721838 0.664091
0.776602 0.732643 0.674032
0.788055 0.743448 0.683972
0.799509 0.754253 0.693913
0.810962 0.765058 0.703854
0.822415 0.775864 0.713795
0.833869 0.786669 0.723735
0.489845 0.462118 0.425148
0.501298 0.472923 0.435089
0.512752 0.483728 0.445030
0.524205 0.494533 0.454970
0.535659 0.505338 0.464911
0.547112 0.516143 0.474852
0.558565 0.526948 0.484793
0.570019 0.537754 0.494733
0.581472 0.548559 0.504674
0.592926 0.559364 0.514615
0.604379 0.570169 0.524555
0.615832 0.580974 0.534496
0.627286 0.591779 0.544437
0.638739 0.602584 0.554378
0.650193 0.613389 0.564318
0.661646 0.624194 0.574259
0.673100 0.635000 0.584200
0.684553 0.645805 0.594140
0.696006 0.656610 0.604081
0.707460 0.667415 0.614022
0.718913 0.678220 0.623962
0.730367 0.689025 0.633903
0.741820 0.699830 0.643844
0.753274 0.710635 0.653785
0.764727 0.721441 0.663725
0.776180 0.732246 0.673666
0.787634 0.743051 0.683607
0.799087 0.753856 0.693547
0.810541 0.764661 0.703488
0.821994 0.775466 0.713429
0.833447 0.786271 0.723369
0.844901 0.797076 0.733310
0.856354 0.807881 0.743251
0.512330 0.483331 0.444664
0.523784 0.494136 0.454605
0.535237 0.504941 0.464545
0.546691 0.515746 0.474486
0.558144 0.526551 0.484427
0.569597 0.537356 0.494368
0.581051 0.548161 0.504308
0.592504 0.558966 0.514249
0.603958 0.569771 0.524190
0.615411 0.580577 0.534130
0.626865 0.591382 0.544071
0.638318 0.602187 0.554012
0.649771 0.612992 0.563953
0.661225 0.623797 0.573893
0.672678 0.634602 0.583834
0.684132 0.645407 0.593775
0.695585 0.656212 0.603715
0.707038 0.667017 0.613656
0.718492 0.677823 0.623597
0.729945 0.688628 0.633537
0.741399 0.699433 0.643478
0.752852 0.710238 0.653419
0.764306 0.721043 0.663360
0.775759 0.731848 0.673300
0.787212 0.742653 0.683241
0.798666 0.753458 0.693182
0.810119 0.764263 0.703122
0.821573 0.775069 0.713063
0.833026 0.785874 0.723004
