backend/app/data/luts/monochrome.cube
TITLE "monochrome"
LUT_3D_SIZE 5
0.021200 0.020000 0.018400
0.021200 0.020000 0.018400
0.110963 0.104682 0.096307
0.202590 0.191123 0.175833
0.294217 0.277564 0.255359
0.107592 0.101502 0.093382
0.199219 0.187943 0.172907
0.290847 0.274384 0.252433
0.382474 0.360824 0.331958
0.474101 0.447265 0.411484
0.287476 0.271203 0.249507
0.379103 0.357644 0.329033
0.470730 0.444085 0.408558
0.562358 0.530526 0.488084
0.653985 0.616967 0.567610
0.467359 0.440905 0.405633
0.558987 0.527346 0.485158
0.650614 0.613787 0.564684
0.742241 0.700228 0.644210
0.833869 0.786669 0.723735
0.647243 0.610607 0.561758
0.738871 0.697048 0.641284
0.830498 0.783489 0.720810
0.922125 0.869930 0.800335
1.000000 0.956370 0.879861
0.021200 0.020000 0.018400
0.054270 0.051198 0.047102
0.145898 0.137639 0.126628
0.237525 0.224080 0.206154
0.329152 0.310521 0.285679
0.142527 0.134459 0.123702
0.234154 0.220900 0.203228
0.325781 0.307341 0.282754
0.417409 0.393782 0.362279
0.509036 0.480223 0.441805
0.322410 0.304161 0.279828
0.414038 0.390602 0.359354
0.505665 0.477043 0.438879
0.597293 0.563483 0.518405
0.688920 0.649924 0.597930
0.502294 0.473863 0.435954
0.593922 0.560303 0.515479
0.685549 0.646744 0.595005
0.777176 0.733185 0.674530
0.868804 0.819626 0.754056
0.682178 0.643564 0.592079
0.773805 0.730005 0.671605
0.865433 0.816446 0.751130
0.957060 0.902887 0.830656
1.000000 0.989328 0.910182
0.021200 0.020000 0.018400
0.089205 0.084156 0.077423
0.180832 0.170597 0.156949
0.272460 0.257038 0.236475
0.364087 0.343478 0.316000
0.177461 0.167416 0.154023
0.269089 0.253857 0.233549
0.360716 0.340298 0.313074
0.452344 0.426739 0.392600
0.543971 0.513180 0.472126
0.357345 0.337118 0.310149
0.448973 0.423559 0.389674
0.540600 0.510000 0.469200
0.632227 0.596441 0.548726
0.723855 0.682882 0.628251
0.537229 0.506820 0.466274
0.628856 0.593261 0.545800
0.720484 0.679702 0.625326
0.812111 0.766143 0.704851
0.903739 0.852583 0.784377
0.717113 0.676522 0.622400
0.808740 0.762962 0.701925
0.900368 0.849403 0.781451
0.991995 0.935844 0.860977
1.000000 1.000000 0.920000
0.032513 0.030672 0.028218
0.124140 0.117113 0.107744
0.215767 0.203554 0.187270
0.307395 0.289995 0.266795
0.399022 0.376436 0.346321
0.212396 0.200374 0.184344
0.304024 0.286815 0.263870
0.395651 0.373256 0.343395
0.487278 0.459697 0.422921
0.578906 0.546138 0.502447
0.392280 0.370076 0.340470
0.483907 0.456516 0.419995
0.575535 0.542957 0.499521
0.667162 0.629398 0.579046
0.758790 0.715839 0.658572
0.572164 0.539777 0.496595
0.663791 0.626218 0.576121
0.755419 0.712659 0.655646
0.847046 0.799100 0.735172
0.938673 0.885541 0.814698
0.752048 0.709479 0.652721
0.843675 0.795920 0.732246
0.935302 0.882361 0.811772
1.000000 0.968802 0.891298
1.000000 1.000000 0.920000
0.067447 0.063630 0.058539
0.159075 0.150070 0.138065
0.250702 0.236511 0.217590
0.342329 0.322952 0.297116
0.433957 0.409393 0.376642
0.247331 0.233331 0.214665
0.338959 0.319772 0.294190
0.430586 0.406213 0.373716
0.522213 0.492654 0.453242
0.613841 0.579095 0.532767
0.427215 0.403033 0.370790
0.518842 0.489474 0.450316
0.610470 0.575915 0.529842
0.702097 0.662356 0.609367
0.793724 0.748797 0.688893
0.607099 0.572735 0.526916
0.698726 0.659176 0.606442
0.790353 0.745617 0.685967
0.881981 0.832057 0.765493
0.973608 0.918498 0.845018
0.786983 0.742436 0.683041
0.878610 0.828877 0.762567
0.970237 0.915318 0.842093
1.000000 1.000000 0.920000
1.000000 1.000000 0.920000
