backend/app/data/luts/pop.cube
TITLE "pop"
LUT_3D_SIZE 5
0.030000 0.030000 0.030000
0.312822 0.030000 0.030000
0.687725 0.030000 0.030000
1.000000 0.030000 0.030000
1.000000 0.030000 0.030000
0.030000 0.284958 0.030000
0.256030 0.256030 0.030000
0.630933 0.217683 0.030000
1.000000 0.179336 0.030000
1.000000 0.150408 0.030000
0.030000 0.622925 0.030000
0.180747 0.593997 0.030000
0.555650 0.555650 0.030000
0.930553 0.517303 0.030000
1.000000 0.488375 0.030000
0.030000 0.960892 0.030000
0.105464 0.931964 0.030000
0.480367 0.893617 0.030000
0.855270 0.855270 0.030000
1.000000 0.826342 0.030000
0.030000 1.000000 0.030000
0.048672 1.000000 0.030000
0.423575 1.000000 0.030000
0.798478 1.000000 0.030000
1.000000 1.000000 0.030000
0.030000 0.030000 0.330721
0.301792 0.030000 0.301792
0.676696 0.030000 0.263445
1.000000 0.030000 0.225099
1.000000 0.030000 0.196171
0.030000 0.273928 0.273928
0.245000 0.245000 0.245000
0.619903 0.206653 0.206653
0.994806 0.168307 0.168307
1.000000 0.139378 0.139378
0.030000 0.611896 0.198646
0.169717 0.582967 0.169717
0.544621 0.544621 0.131371
0.919524 0.506274 0.093024
1.000000 0.477345 0.064096
0.030000 0.949863 0.123363
0.094435 0.920934 0.094435
0.469338 0.882588 0.056088
0.844241 0.844241 0.030000
1.000000 0.815313 0.030000
0.030000 1.000000 0.066571
0.037642 1.000000 0.037642
0.412546 1.000000 0.030000
0.787449 1.000000 0.030000
1.000000 1.000000 0.030000
0.030000 0.030000 0.729350
0.287172 0.030000 0.700422
0.662075 0.030000 0.662075
1.000000 0.030000 0.623728
1.000000 0.030000 0.594800
0.030000 0.259308 0.672558
0.230380 0.230380 0.643630
0.605283 0.192033 0.605283
0.980186 0.153686 0.566936
1.000000 0.124758 0.538008
0.030000 0.597275 0.597275
0.155097 0.568347 0.568347
0.530000 0.530000 0.530000
0.904903 0.491653 0.491653
1.000000 0.462725 0.462725
0.030000 0.935242 0.521992
0.079814 0.906314 0.493064
0.454717 0.867967 0.454717
0.829620 0.829620 0.416371
1.000000 0.800692 0.387442
0.030000 1.000000 0.465200
0.030000 1.000000 0.436272
0.397925 1.000000 0.397925
0.772828 1.000000 0.359578
1.000000 1.000000 0.330650
0.030000 0.030000 1.000000
0.272551 0.030000 1.000000
0.647455 0.030000 1.000000
1.000000 0.030000 1.000000
1.000000 0.030000 0.993429
0.030000 0.244687 1.000000
0.215759 0.215759 1.000000
0.590662 0.177412 1.000000
0.965565 0.139066 0.965565
1.000000 0.110137 0.936637
0.030000 0.582655 0.995904
0.140476 0.553726 0.966976
0.515379 0.515379 0.928629
0.890283 0.477033 0.890283
1.000000 0.448105 0.861354
0.030000 0.920622 0.920622
0.065194 0.891693 0.891693
0.440097 0.853347 0.853347
0.815000 0.815000 0.815000
1.000000 0.786072 0.786072
0.030000 1.000000 0.863829
0.030000 1.000000 0.834901
0.383305 1.000000 0.796554
0.758208 1.000000 0.758208
1.000000 1.000000 0.729279
0.030000 0.030000 1.000000
0.261522 0.030000 1.000000
0.636425 0.030000 1.000000
1.000000 0.030000 1.000000
1.000000 0.030000 1.000000
0.030000 0.233658 1.000000
0.204730 0.204730 1.000000
0.579633 0.166383 1.000000
0.954536 0.128036 1.000000
1.000000 0.099108 1.000000
0.030000 0.571625 1.000000
0.129447 0.542697 1.000000
0.504350 0.504350 1.000000
0.879253 0.466003 1.000000
1.000000 0.437075 1.000000
0.030000 0.909592 1.000000
0.054164 0.880664 1.000000
0.429067 0.842317 1.000000
0.803971 0.803971 1.000000
1.000000 0.775042 1.000000
0.030000 1.000000 1.000000
0.030000 1.000000 1.000000
0.372275 1.000000 1.000000
0.747178 1.000000 1.000000
1.000000 1.000000 1.000000
