backend/app/data/luts/pop.cube
TITLE "pop"
LUT_3D_SIZE 9
0.030000 0.030000 0.030000
0.125370 0.030000 0.030000
0.312822 0.030000 0.030000
0.500273 0.030000 0.030000
0.687725 0.030000 0.030000
0.875177 0.030000 0.030000
1.000000 0.030000 0.030000
1.000000 0.030000 0.030000
1.000000 0.030000 0.030000
0.030000 0.115974 0.030000
0.106219 0.106219 0.030000
0.293671 0.087046 0.030000
0.481123 0.067873 0.030000
0.668574 0.048699 0.030000
0.856026 0.030000 0.030000
1.000000 0.030000 0.030000
1.000000 0.030000 0.030000
1.000000 0.030000 0.030000
0.030000 0.284958 0.030000
0.068578 0.275203 0.030000
0.256030 0.256030 0.030000
0.443481 0.236856 0.030000
0.630933 0.217683 0.030000
0.818384 0.198509 0.030000
1.000000 0.179336 0.030000
1.000000 0.160163 0.030000
1.000000 0.150408 0.030000
0.030000 0.453941 0.030000
0.030937 0.444187 0.030000
0.218388 0.425013 0.030000
0.405840 0.405840 0.030000
0.593291 0.386666 0.030000
0.780743 0.367493 0.030000
0.968195 0.348320 0.030000
1.000000 0.329146 0.030000
1.000000 0.319391 0.030000
0.030000 0.622925 0.030000
0.030000 0.613170 0.030000
0.180747 0.593997 0.030000
0.368198 0.574823 0.030000
0.555650 0.555650 0.030000
0.743102 0.536477 0.030000
0.930553 0.517303 0.030000
1.000000 0.498130 0.030000
1.000000 0.488375 0.030000
0.030000 0.791909 0.030000
0.030000 0.782154 0.030000
0.143105 0.762980 0.030000
0.330557 0.743807 0.030000
0.518009 0.724634 0.030000
0.705460 0.705460 0.030000
0.892912 0.686287 0.030000
1.000000 0.667114 0.030000
1.000000 0.657359 0.030000
0.030000 0.960892 0.030000
0.030000 0.951137 0.030000
0.105464 0.931964 0.030000
0.292916 0.912791 0.030000
0.480367 0.893617 0.030000
0.667819 0.874444 0.030000
0.855270 0.855270 0.030000
1.000000 0.836097 0.030000
1.000000 0.826342 0.030000
0.030000 1.000000 0.030000
0.030000 1.000000 0.030000
0.067823 1.000000 0.030000
0.255274 1.000000 0.030000
0.442726 1.000000 0.030000
0.630178 1.000000 0.030000
0.817629 1.000000 0.030000
1.000000 1.000000 0.030000
1.000000 0.995326 0.030000
0.030000 1.000000 0.030000
0.030000 1.000000 0.030000
0.048672 1.000000 0.030000
0.236123 1.000000 0.030000
0.423575 1.000000 0.030000
0.611027 1.000000 0.030000
0.798478 1.000000 0.030000
0.985930 1.000000 0.030000
1.000000 1.000000 0.030000
0.030000 0.030000 0.131406
0.121651 0.030000 0.121651
0.309103 0.030000 0.102478
0.496554 0.030000 0.083304
0.684006 0.030000 0.064131
0.871457 0.030000 0.044957
1.000000 0.030000 0.030000
1.000000 0.030000 0.030000
1.000000 0.030000 0.030000
0.030000 0.112255 0.112255
0.102500 0.102500 0.102500
0.289952 0.083327 0.083327
0.477403 0.064153 0.064153
0.664855 0.044980 0.044980
0.852306 0.030000 0.030000
1.000000 0.030000 0.030000
1.000000 0.030000 0.030000
1.000000 0.030000 0.030000
0.030000 0.281239 0.074614
0.064859 0.271484 0.064859
0.252310 0.252310 0.045685
0.439762 0.233137 0.030000
0.627214 0.213964 0.030000
0.814665 0.194790 0.030000
1.000000 0.175617 0.030000
1.000000 0.156443 0.030000
1.000000 0.146689 0.030000
0.030000 0.450222 0.036972
0.030000 0.440467 0.030000
0.214669 0.421294 0.030000
0.402120 0.402120 0.030000
0.589572 0.382947 0.030000
0.777024 0.363774 0.030000
0.964475 0.344600 0.030000
1.000000 0.325427 0.030000
1.000000 0.315672 0.030000
0.030000 0.619206 0.030000
0.030000 0.609451 0.030000
0.177028 0.590278 0.030000
0.364479 0.571104 0.030000
0.551931 0.551931 0.030000
0.739382 0.532757 0.030000
0.926834 0.513584 0.030000
1.000000 0.494411 0.030000
1.000000 0.484656 0.030000
0.030000 0.788189 0.030000
0.030000 0.778434 0.030000
0.139386 0.759261 0.030000
0.326838 0.740088 0.030000
0.514289 0.720914 0.030000
0.701741 0.701741 0.030000
0.889193 0.682568 0.030000
1.000000 0.663394 0.030000
1.000000 0.653639 0.030000
0.030000 0.957173 0.030000
0.030000 0.947418 0.030000
0.101745 0.928245 0.030000
0.289196 0.909071 0.030000
0.476648 0.889898 0.030000
0.664100 0.870725 0.030000
0.851551 0.851551 0.030000
1.000000 0.832378 0.030000
1.000000 0.822623 0.030000
0.030000 1.000000 0.030000
0.030000 1.000000 0.030000
0.064103 1.000000 0.030000
0.251555 1.000000 0.030000
0.439007 1.000000 0.030000
0.626458 1.000000 0.030000
0.813910 1.000000 0.030000
1.000000 1.000000 0.030000
1.000000 0.991607 0.030000
0.030000 1.000000 0.030000
0.030000 1.000000 0.030000
0.044953 1.000000 0.030000
0.232404 1.000000 0.030000
0.419856 1.000000 0.030000
0.607307 1.000000 0.030000
0.794759 1.000000 0.030000
0.982211 1.000000 0.030000
1.000000 1.000000 0.030000
0.030000 0.030000 0.330721
0.114341 0.030000 0.320966
0.301792 0.030000 0.301792
0.489244 0.030000 0.282619
0.676696 0.030000 0.263445
0.864147 0.030000 0.244272
1.000000 0.030000 0.225099
1.000000 0.030000 0.205925
1.000000 0.030000 0.196171
0.030000 0.104945 0.311570
0.095190 0.095190 0.301815
0.282641 0.076016 0.282641
0.470093 0.056843 0.263468
0.657545 0.037670 0.244295
0.844996 0.030000 0.225121
1.000000 0.030000 0.205948
1.000000 0.030000 0.186775
1.000000 0.030000 0.177020
0.030000 0.273928 0.273928
0.057548 0.264173 0.264173
0.245000 0.245000 0.245000
0.432452 0.225827 0.225827
0.619903 0.206653 0.206653
0.807355 0.187480 0.187480
0.994806 0.168307 0.168307
1.000000 0.149133 0.149133
1.000000 0.139378 0.139378
0.030000 0.442912 0.236287
0.030000 0.433157 0.226532
0.207359 0.413984 0.207359
0.394810 0.394810 0.188185
0.582262 0.375637 0.169012
0.769713 0.356464 0.149839
0.957165 0.337290 0.130665
1.000000 0.318117 0.111492
1.000000 0.308362 0.101737
0.030000 0.611896 0.198646
0.030000 0.602141 0.188891
0.169717 0.582967 0.169717
0.357169 0.563794 0.150544
0.544621 0.544621 0.131371
0.732072 0.525447 0.112197
0.919524 0.506274 0.093024
1.000000 0.487100 0.073850
1.000000 0.477345 0.064096
0.030000 0.780879 0.161004
0.030000 0.771124 0.151249
0.132076 0.751951 0.132076
0.319528 0.732777 0.112903
0.506979 0.713604 0.093729
0.694431 0.694431 0.074556
0.881882 0.675257 0.055382
1.000000 0.656084 0.036209
1.000000 0.646329 0.030000
0.030000 0.949863 0.123363
0.030000 0.940108 0.113608
0.094435 0.920934 0.094435
0.281886 0.901761 0.075261
0.469338 0.882588 0.056088
0.656789 0.863414 0.036914
0.844241 0.844241 0.030000
1.000000 0.825068 0.030000
1.000000 0.815313 0.030000
0.030000 1.000000 0.085721
0.030000 1.000000 0.075967
0.056793 1.000000 0.056793
0.244245 1.000000 0.037620
0.431696 1.000000 0.030000
0.619148 1.000000 0.030000
0.806600 1.000000 0.030000
0.994051 0.994051 0.030000
1.000000 0.984296 0.030000
0.030000 1.000000 0.066571
0.030000 1.000000 0.056816
0.037642 1.000000 0.037642
0.225094 1.000000 0.030000
0.412546 1.000000 0.030000
0.599997 1.000000 0.030000
0.787449 1.000000 0.030000
0.974900 1.000000 0.030000
1.000000 1.000000 0.030000
0.030000 0.030000 0.530035
0.107030 0.030000 0.520280
0.294482 0.030000 0.501107
0.481934 0.030000 0.481934
0.669385 0.030000 0.462760
0.856837 0.030000 0.443587
1.000000 0.030000 0.424414
1.000000 0.030000 0.405240
1.000000 0.030000 0.395485
0.030000 0.097634 0.510884
0.087879 0.087879 0.501130
0.275331 0.068706 0.481956
0.462783 0.049533 0.462783
0.650234 0.030359 0.443609
0.837686 0.030000 0.424436
1.000000 0.030000 0.405263
1.000000 0.030000 0.386089
1.000000 0.030000 0.376334
0.030000 0.266618 0.473243
0.050238 0.256863 0.463488
0.237690 0.237690 0.444315
0.425141 0.218516 0.425141
0.612593 0.199343 0.405968
0.800045 0.180170 0.386795
0.987496 0.160996 0.367621
1.000000 0.141823 0.348448
1.000000 0.132068 0.338693
0.030000 0.435602 0.435602
0.030000 0.425847 0.425847
0.200048 0.406673 0.406673
0.387500 0.387500 0.387500
0.574952 0.368327 0.368327
0.762403 0.349153 0.349153
0.949855 0.329980 0.329980
1.000000 0.310807 0.310807
1.000000 0.301052 0.301052
0.030000 0.604585 0.397960
0.030000 0.594830 0.388205
0.162407 0.575657 0.369032
0.349859 0.556484 0.349859
0.537310 0.537310 0.330685
0.724762 0.518137 0.311512
0.912213 0.498964 0.292339
1.000000 0.479790 0.273165
1.000000 0.470035 0.263410
0.030000 0.773569 0.360319
0.030000 0.763814 0.350564
0.124766 0.744641 0.331391
0.312217 0.725467 0.312217
0.499669 0.706294 0.293044
0.687121 0.687121 0.273871
0.874572 0.667947 0.254697
1.000000 0.648774 0.235524
1.000000 0.639019 0.225769
0.030000 0.942552 0.322678
0.030000 0.932798 0.312923
0.087124 0.913624 0.293749
0.274576 0.894451 0.274576
0.462028 0.875277 0.255403
0.649479 0.856104 0.236229
0.836931 0.836931 0.217056
1.000000 0.817757 0.197882
1.000000 0.808002 0.188128
0.030000 1.000000 0.285036
0.030000 1.000000 0.275281
0.049483 1.000000 0.256108
0.236935 1.000000 0.236935
0.424386 1.000000 0.217761
0.611838 1.000000 0.198588
0.799289 1.000000 0.179414
0.986741 0.986741 0.160241
1.000000 0.976986 0.150486
0.030000 1.000000 0.265885
0.030000 1.000000 0.256130
0.030332 1.000000 0.236957
0.217784 1.000000 0.217784
0.405235 1.000000 0.198610
0.592687 1.000000 0.179437
0.780138 1.000000 0.160264
0.967590 1.000000 0.141090
1.000000 1.000000 0.131335
0.030000 0.030000 0.729350
0.099720 0.030000 0.719595
0.287172 0.030000 0.700422
0.474623 0.030000 0.681248
0.662075 0.030000 0.662075
0.849527 0.030000 0.642902
1.000000 0.030000 0.623728
1.000000 0.030000 0.604555
1.000000 0.030000 0.594800
0.030000 0.090324 0.710199
0.080569 0.080569 0.700444
0.268021 0.061396 0.681271
0.455473 0.042223 0.662098
0.642924 0.030000 0.642924
0.830376 0.030000 0.623751
1.000000 0.030000 0.604577
1.000000 0.030000 0.585404
1.000000 0.030000 0.575649
0.030000 0.259308 0.672558
0.042928 0.249553 0.662803
0.230380 0.230380 0.643630
0.417831 0.211206 0.624456
0.605283 0.192033 0.605283
0.792734 0.172859 0.586109
0.980186 0.153686 0.566936
1.000000 0.134513 0.547763
1.000000 0.124758 0.538008
0.030000 0.428291 0.634916
0.030000 0.418537 0.625162
0.192738 0.399363 0.605988
0.380190 0.380190 0.586815
0.567641 0.361016 0.567641
0.755093 0.341843 0.548468
0.942545 0.322670 0.529295
1.000000 0.303496 0.510121
1.000000 0.293741 0.500366
0.030000 0.597275 0.597275
0.030000 0.587520 0.587520
0.155097 0.568347 0.568347
0.342548 0.549173 0.549173
0.530000 0.530000 0.530000
0.717452 0.510827 0.510827
0.904903 0.491653 0.491653
1.000000 0.472480 0.472480
1.000000 0.462725 0.462725
0.030000 0.766259 0.559634
0.030000 0.756504 0.549879
0.117455 0.737330 0.530705
0.304907 0.718157 0.511532
0.492359 0.698984 0.492359
0.679810 0.679810 0.473185
0.867262 0.660637 0.454012
1.000000 0.641463 0.434839
1.000000 0.631709 0.425084
0.030000 0.935242 0.521992
0.030000 0.925487 0.512237
0.079814 0.906314 0.493064
0.267266 0.887141 0.473891
0.454717 0.867967 0.454717
0.642169 0.848794 0.435544
0.829620 0.829620 0.416371
1.000000 0.810447 0.397197
1.000000 0.800692 0.387442
0.030000 1.000000 0.484351
0.030000 1.000000 0.474596
0.042173 1.000000 0.455423
0.229624 1.000000 0.436249
0.417076 1.000000 0.417076
0.604527 1.000000 0.397903
0.791979 0.998604 0.378729
0.979431 0.979431 0.359556
1.000000 0.969676 0.349801
0.030000 1.000000 0.465200
0.030000 1.000000 0.455445
0.030000 1.000000 0.436272
0.210473 1.000000 0.417098
0.397925 1.000000 0.397925
0.585377 1.000000 0.378752
0.772828 1.000000 0.359578
0.960280 1.000000 0.340405
1.000000 1.000000 0.330650
0.030000 0.030000 0.928665
0.092410 0.030000 0.918910
0.279861 0.030000 0.899736
0.467313 0.030000 0.880563
0.654765 0.030000 0.861390
0.842216 0.030000 0.842216
1.000000 0.030000 0.823043
1.000000 0.030000 0.803870
1.000000 0.030000 0.794115
0.030000 0.083014 0.909514
0.073259 0.073259 0.899759
0.260711 0.054086 0.880586
0.448162 0.034912 0.861412
0.635614 0.030000 0.842239
0.823066 0.030000 0.823066
1.000000 0.030000 0.803892
1.000000 0.030000 0.784719
1.000000 0.030000 0.774964
0.030000 0.251997 0.871872
0.035618 0.242243 0.862118
0.223069 0.223069 0.842944
0.410521 0.203896 0.823771
0.597973 0.184723 0.804597
0.785424 0.165549 0.785424
0.972876 0.146376 0.766251
1.000000 0.127202 0.747077
1.000000 0.117448 0.737322
0.030000 0.420981 0.834231
0.030000 0.411226 0.824476
0.185428 0.392053 0.805303
0.372880 0.372880 0.786129
0.560331 0.353706 0.766956
0.747783 0.334533 0.747783
0.935234 0.315359 0.728609
1.000000 0.296186 0.709436
1.000000 0.286431 0.699681
0.030000 0.589965 0.796590
0.030000 0.580210 0.786835
0.147787 0.561037 0.767661
0.335238 0.541863 0.748488
0.522690 0.522690 0.729315
0.710141 0.503516 0.710141
0.897593 0.484343 0.690968
1.000000 0.465170 0.671795
1.000000 0.455415 0.662040
0.030000 0.758948 0.758948
0.030000 0.749193 0.749193
0.110145 0.730020 0.730020
0.297597 0.710847 0.710847
0.485048 0.691673 0.691673
0.672500 0.672500 0.672500
0.859952 0.653327 0.653327
1.000000 0.634153 0.634153
1.000000 0.624398 0.624398
0.030000 0.927932 0.721307
0.030000 0.918177 0.711552
0.072504 0.899004 0.692379
0.259955 0.879830 0.673205
0.447407 0.860657 0.654032
0.634859 0.841484 0.634859
0.822310 0.822310 0.615685
1.000000 0.803137 0.596512
1.000000 0.793382 0.586757
0.030000 1.000000 0.683666
0.030000 1.000000 0.673911
0.034862 1.000000 0.654737
0.222314 1.000000 0.635564
0.409766 1.000000 0.616391
0.597217 1.000000 0.597217
0.784669 0.991294 0.578044
0.972121 0.972121 0.558871
1.000000 0.962366 0.549116
0.030000 1.000000 0.664515
0.030000 1.000000 0.654760
0.030000 1.000000 0.635586
0.203163 1.000000 0.616413
0.390615 1.000000 0.597240
0.578066 1.000000 0.578066
0.765518 1.000000 0.558893
0.952970 1.000000 0.539720
1.000000 1.000000 0.529965
0.030000 0.030000 1.000000
0.085100 0.030000 1.000000
0.272551 0.030000 1.000000
0.460003 0.030000 1.000000
0.647455 0.030000 1.000000
0.834906 0.030000 1.000000
1.000000 0.030000 1.000000
1.000000 0.030000 1.000000
1.000000 0.030000 0.993429
0.030000 0.075704 1.000000
0.065949 0.065949 1.000000
0.253400 0.046775 1.000000
0.440852 0.030000 1.000000
0.628304 0.030000 1.000000
0.815755 0.030000 1.000000
1.000000 0.030000 1.000000
1.000000 0.030000 0.984033
1.000000 0.030000 0.974279
0.030000 0.244687 1.000000
0.030000 0.234932 1.000000
0.215759 0.215759 1.000000
0.403211 0.196586 1.000000
0.590662 0.177412 1.000000
0.778114 0.158239 0.984739
0.965565 0.139066 0.965565
1.000000 0.119892 0.946392
1.000000 0.110137 0.936637
0.030000 0.413671 1.000000
0.030000 0.403916 1.000000
0.178118 0.384743 1.000000
0.365569 0.365569 0.985444
0.553021 0.346396 0.966271
0.740472 0.327223 0.947097
0.927924 0.308049 0.927924
1.000000 0.288876 0.908751
1.000000 0.279121 0.898996
0.030000 0.582655 0.995904
0.030000 0.572900 0.986150
0.140476 0.553726 0.966976
0.327928 0.534553 0.947803
0.515379 0.515379 0.928629
0.702831 0.496206 0.909456
0.890283 0.477033 0.890283
1.000000 0.457859 0.871109
1.000000 0.448105 0.861354
0.030000 0.751638 0.958263
0.030000 0.741883 0.948508
0.102835 0.722710 0.929335
0.290287 0.703537 0.910161
0.477738 0.684363 0.890988
0.665190 0.665190 0.871815
0.852641 0.646016 0.852641
1.000000 0.626843 0.833468
1.000000 0.617088 0.823713
0.030000 0.920622 0.920622
0.030000 0.910867 0.910867
0.065194 0.891693 0.891693
0.252645 0.872520 0.872520
0.440097 0.853347 0.853347
0.627548 0.834173 0.834173
0.815000 0.815000 0.815000
1.000000 0.795827 0.795827
1.000000 0.786072 0.786072
0.030000 1.000000 0.882980
0.030000 1.000000 0.873225
0.030000 1.000000 0.854052
0.215004 1.000000 0.834879
0.402455 1.000000 0.815705
0.589907 1.000000 0.796532
0.777359 0.983984 0.777359
0.964810 0.964810 0.758185
1.000000 0.955055 0.748430
0.030000 1.000000 0.863829
0.030000 1.000000 0.854075
0.030000 1.000000 0.834901
0.195853 1.000000 0.815728
0.383305 1.000000 0.796554
0.570756 1.000000 0.777381
0.758208 1.000000 0.758208
0.945659 1.000000 0.739034
1.000000 1.000000 0.729279
0.030000 0.030000 1.000000
0.077789 0.030000 1.000000
0.265241 0.030000 1.000000
0.452693 0.030000 1.000000
0.640144 0.030000 1.000000
0.827596 0.030000 1.000000
1.000000 0.030000 1.000000
1.000000 0.030000 1.000000
1.000000 0.030000 1.000000
0.030000 0.068393 1.000000
0.058639 0.058639 1.000000
0.246090 0.039465 1.000000
0.433542 0.030000 1.000000
0.620993 0.030000 1.000000
0.808445 0.030000 1.000000
0.995897 0.030000 1.000000
1.000000 0.030000 1.000000
1.000000 0.030000 1.000000
0.030000 0.237377 1.000000
0.030000 0.227622 1.000000
0.208449 0.208449 1.000000
0.395900 0.189275 1.000000
0.583352 0.170102 1.000000
0.770804 0.150929 1.000000
0.958255 0.131755 1.000000
1.000000 0.112582 1.000000
1.000000 0.102827 1.000000
0.030000 0.406361 1.000000
0.030000 0.396606 1.000000
0.170807 0.377432 1.000000
0.358259 0.358259 1.000000
0.545711 0.339086 1.000000
0.733162 0.319912 1.000000
0.920614 0.300739 1.000000
1.000000 0.281566 1.000000
1.000000 0.271811 1.000000
0.030000 0.575344 1.000000
0.030000 0.565589 1.000000
0.133166 0.546416 1.000000
0.320618 0.527243 1.000000
0.508069 0.508069 1.000000
0.695521 0.488896 1.000000
0.882972 0.469723 1.000000
1.000000 0.450549 1.000000
1.000000 0.440794 1.000000
0.030000 0.744328 1.000000
0.030000 0.734573 1.000000
0.095525 0.715400 1.000000
0.282976 0.696226 1.000000
0.470428 0.677053 1.000000
0.657879 0.657879 1.000000
0.845331 0.638706 1.000000
1.000000 0.619533 1.000000
1.000000 0.609778 1.000000
0.030000 0.913311 1.000000
0.030000 0.903557 1.000000
0.057883 0.884383 1.000000
0.245335 0.865210 1.000000
0.432787 0.846036 1.000000
0.620238 0.826863 1.000000
0.807690 0.807690 1.000000
0.995141 0.788516 0.995141
1.000000 0.778761 0.985387
0.030000 1.000000 1.000000
0.030000 1.000000 1.000000
0.030000 1.000000 1.000000
0.207694 1.000000 1.000000
0.395145 1.000000 1.000000
0.582597 0.995847 0.995847
0.770048 0.976673 0.976673
0.957500 0.957500 0.957500
1.000000 0.947745 0.947745
0.030000 1.000000 1.000000
0.030000 1.000000 1.000000
0.030000 1.000000 1.000000
0.188543 1.000000 1.000000
0.375994 1.000000 0.995869
0.563446 1.000000 0.976696
0.750897 1.000000 0.957523
0.938349 1.000000 0.938349
1.000000 1.000000 0.928594
0.030000 0.030000 1.000000
0.074070 0.030000 1.000000
0.261522 0.030000 1.000000
0.448973 0.030000 1.000000
0.636425 0.030000 1.000000
0.823877 0.030000 1.000000
1.000000 0.030000 1.000000
1.000000 0.030000 1.000000
1.000000 0.030000 1.000000
0.030000 0.064674 1.000000
0.054919 0.054919 1.000000
0.242371 0.035746 1.000000
0.429823 0.030000 1.000000
0.617274 0.030000 1.000000
0.804726 0.030000 1.000000
0.992177 0.030000 1.000000
1.000000 0.030000 1.000000
1.000000 0.030000 1.000000
0.030000 0.233658 1.000000
0.030000 0.223903 1.000000
0.204730 0.204730 1.000000
0.392181 0.185556 1.000000
0.579633 0.166383 1.000000
0.767084 0.147209 1.000000
0.954536 0.128036 1.000000
1.000000 0.108863 1.000000
1.000000 0.099108 1.000000
0.030000 0.402641 1.000000
0.030000 0.392887 1.000000
0.167088 0.373713 1.000000
0.354540 0.354540 1.000000
0.541991 0.335366 1.000000
0.729443 0.316193 1.000000
0.916895 0.297020 1.000000
1.000000 0.277846 1.000000
1.000000 0.268091 1.000000
0.030000 0.571625 1.000000
0.030000 0.561870 1.000000
0.129447 0.542697 1.000000
0.316898 0.523523 1.000000
0.504350 0.504350 1.000000
0.691802 0.485177 1.000000
0.879253 0.466003 1.000000
1.000000 0.446830 1.000000
1.000000 0.437075 1.000000
0.030000 0.740609 1.000000
0.030000 0.730854 1.000000
0.091805 0.711680 1.000000
0.279257 0.692507 1.000000
0.466709 0.673334 1.000000
0.654160 0.654160 1.000000
0.841612 0.634987 1.000000
1.000000 0.615814 1.000000
1.000000 0.606059 1.000000
0.030000 0.909592 1.000000
0.030000 0.899837 1.000000
0.054164 0.880664 1.000000
0.241616 0.861491 1.000000
0.429067 0.842317 1.000000
0.616519 0.823144 1.000000
0.803971 0.803971 1.000000
0.991422 0.784797 1.000000
1.000000 0.775042 1.000000
0.030000 1.000000 1.000000
0.030000 1.000000 1.000000
0.030000 1.000000 1.000000
0.203974 1.000000 1.000000
0.391426 1.000000 1.000000
0.578877 0.992128 1.000000
0.766329 0.972954 1.000000
0.953781 0.953781 1.000000
1.000000 0.944026 1.000000
0.030000 1.000000 1.000000
0.030000 1.000000 1.000000
0.030000 1.000000 1.000000
0.184823 1.000000 1.000000
0.372275 1.000000 1.000000
0.559727 1.000000 1.000000
0.747178 1.000000 1.000000
0.934630 1.000000 1.000000
1.000000 1.000000 1.000000
