backend/app/data/luts/pop.cube
TITLE "pop"
LUT_3D_SIZE 33
0.030000 0.030000 0.030000
0.030000 0.030000 0.030000
0.031644 0.030000 0.030000
0.078507 0.030000 0.030000
0.125370 0.030000 0.030000
0.172233 0.030000 0.030000
0.219096 0.030000 0.030000
0.265959 0.030000 0.030000
0.312822 0.030000 0.030000
0.359685 0.030000 0.030000
0.406548 0.030000 0.030000
0.453410 0.030000 0.030000
0.500273 0.030000 0.030000
0.547136 0.030000 0.030000
0.593999 0.030000 0.030000
0.640862 0.030000 0.030000
0.687725 0.030000 0.030000
0.734588 0.030000 0.030000
0.781451 0.030000 0.030000
0.828314 0.030000 0.030000
0.875177 0.030000 0.030000
0.922040 0.030000 0.030000
0.968902 0.030000 0.030000
1.000000 0.030000 0.030000
1.000000 0.030000 0.030000
1.000000 0.030000 0.030000
1.000000 0.030000 0.030000
1.000000 0.030000 0.030000
1.000000 0.030000 0.030000
1.000000 0.030000 0.030000
1.000000 0.030000 0.030000
1.000000 0.030000 0.030000
1.000000 0.030000 0.030000
0.030000 0.030000 0.030000
0.030000 0.030000 0.030000
0.031644 0.030000 0.030000
0.078507 0.030000 0.030000
0.125370 0.030000 0.030000
0.172233 0.030000 0.030000
0.219096 0.030000 0.030000
0.265959 0.030000 0.030000
0.312822 0.030000 0.030000
0.359685 0.030000 0.030000
0.406548 0.030000 0.030000
0.453410 0.030000 0.030000
0.500273 0.030000 0.030000
0.547136 0.030000 0.030000
0.593999 0.030000 0.030000
0.640862 0.030000 0.030000
0.687725 0.030000 0.030000
0.734588 0.030000 0.030000
0.781451 0.030000 0.030000
0.828314 0.030000 0.030000
0.875177 0.030000 0.030000
0.922040 0.030000 0.030000
0.968902 0.030000 0.030000
1.000000 0.030000 0.030000
1.000000 0.030000 0.030000
1.000000 0.030000 0.030000
1.000000 0.030000 0.030000
1.000000 0.030000 0.030000
1.000000 0.030000 0.030000
1.000000 0.030000 0.030000
1.000000 0.030000 0.030000
1.000000 0.030000 0.030000
1.000000 0.030000 0.030000
0.030000 0.031482 0.030000
0.030000 0.031482 0.030000
0.031314 0.031314 0.030000
0.078177 0.030000 0.030000
0.125040 0.030000 0.030000
0.171903 0.030000 0.030000
0.218766 0.030000 0.030000
0.265629 0.030000 0.030000
0.312492 0.030000 0.030000
0.359354 0.030000 0.030000
0.406217 0.030000 0.030000
0.453080 0.030000 0.030000
0.499943 0.030000 0.030000
0.546806 0.030000 0.030000
0.593669 0.030000 0.030000
0.640532 0.030000 0.030000
0.687395 0.030000 0.030000
0.734258 0.030000 0.030000
0.781121 0.030000 0.030000
0.827984 0.030000 0.030000
0.874846 0.030000 0.030000
0.921709 0.030000 0.030000
0.968572 0.030000 0.030000
1.000000 0.030000 0.030000
1.000000 0.030000 0.030000
1.000000 0.030000 0.030000
1.000000 0.030000 0.030000
1.000000 0.030000 0.030000
1.000000 0.030000 0.030000
1.000000 0.030000 0.030000
1.000000 0.030000 0.030000
1.000000 0.030000 0.030000
1.000000 0.030000 0.030000
0.030000 0.073728 0.030000
0.030000 0.073728 0.030000
0.030000 0.073560 0.030000
0.068767 0.068767 0.030000
0.115630 0.063973 0.030000
0.162493 0.059180 0.030000
0.209355 0.054387 0.030000
0.256218 0.049593 0.030000
0.303081 0.044800 0.030000
0.349944 0.040007 0.030000
0.396807 0.035213 0.030000
0.443670 0.030420 0.030000
0.490533 0.030000 0.030000
0.537396 0.030000 0.030000
0.584259 0.030000 0.030000
0.631122 0.030000 0.030000
0.677984 0.030000 0.030000
0.724847 0.030000 0.030000
0.771710 0.030000 0.030000
0.818573 0.030000 0.030000
0.865436 0.030000 0.030000
0.912299 0.030000 0.030000
0.959162 0.030000 0.030000
1.000000 0.030000 0.030000
1.000000 0.030000 0.030000
1.000000 0.030000 0.030000
1.000000 0.030000 0.030000
1.000000 0.030000 0.030000
1.000000 0.030000 0.030000
1.000000 0.030000 0.030000
1.000000 0.030000 0.030000
1.000000 0.030000 0.030000
1.000000 0.030000 0.030000
0.030000 0.115974 0.030000
0.030000 0.115974 0.030000
0.030000 0.115806 0.030000
0.059356 0.111013 0.030000
0.106219 0.106219 0.030000
0.153082 0.101426 0.030000
0.199945 0.096633 0.030000
0.246808 0.091839 0.030000
0.293671 0.087046 0.030000
0.340534 0.082253 0.030000
0.387397 0.077459 0.030000
0.434260 0.072666 0.030000
0.481123 0.067873 0.030000
0.527985 0.063079 0.030000
0.574848 0.058286 0.030000
0.621711 0.053492 0.030000
0.668574 0.048699 0.030000
0.715437 0.043906 0.030000
0.762300 0.039112 0.030000
0.809163 0.034319 0.030000
0.856026 0.030000 0.030000
0.902889 0.030000 0.030000
0.949752 0.030000 0.030000
0.996614 0.030000 0.030000
1.000000 0.030000 0.030000
1.000000 0.030000 0.030000
1.000000 0.030000 0.030000
1.000000 0.030000 0.030000
1.000000 0.030000 0.030000
1.000000 0.030000 0.030000
1.000000 0.030000 0.030000
1.000000 0.030000 0.030000
1.000000 0.030000 0.030000
0.030000 0.158220 0.030000
0.030000 0.158220 0.030000
0.030000 0.158052 0.030000
0.049946 0.153259 0.030000
0.096809 0.148465 0.030000
0.143672 0.143672 0.030000
0.190535 0.138878 0.030000
0.237398 0.134085 0.030000
0.284261 0.129292 0.030000
0.331123 0.124498 0.030000
0.377986 0.119705 0.030000
0.424849 0.114912 0.030000
0.471712 0.110118 0.030000
0.518575 0.105325 0.030000
0.565438 0.100532 0.030000
0.612301 0.095738 0.030000
0.659164 0.090945 0.030000
0.706027 0.086152 0.030000
0.752890 0.081358 0.030000
0.799753 0.076565 0.030000
0.846615 0.071772 0.030000
0.893478 0.066978 0.030000
0.940341 0.062185 0.030000
0.987204 0.057392 0.030000
1.000000 0.052598 0.030000
1.000000 0.047805 0.030000
1.000000 0.043012 0.030000
1.000000 0.038218 0.030000
1.000000 0.033425 0.030000
1.000000 0.030000 0.030000
1.000000 0.030000 0.030000
1.000000 0.030000 0.030000
1.000000 0.030000 0.030000
0.030000 0.200466 0.030000
0.030000 0.200466 0.030000
0.030000 0.200298 0.030000
0.040536 0.195504 0.030000
0.087399 0.190711 0.030000
0.134261 0.185918 0.030000
0.181124 0.181124 0.030000
0.227987 0.176331 0.030000
0.274850 0.171538 0.030000
0.321713 0.166744 0.030000
0.368576 0.161951 0.030000
0.415439 0.157158 0.030000
0.462302 0.152364 0.030000
0.509165 0.147571 0.030000
0.556028 0.142778 0.030000
0.602891 0.137984 0.030000
0.649753 0.133191 0.030000
0.696616 0.128398 0.030000
0.743479 0.123604 0.030000
0.790342 0.118811 0.030000
0.837205 0.114018 0.030000
0.884068 0.109224 0.030000
0.930931 0.104431 0.030000
0.977794 0.099638 0.030000
1.000000 0.094844 0.030000
1.000000 0.090051 0.030000
1.000000 0.085258 0.030000
1.000000 0.080464 0.030000
1.000000 0.075671 0.030000
1.000000 0.070877 0.030000
1.000000 0.066084 0.030000
1.000000 0.065916 0.030000
1.000000 0.065916 0.030000
0.030000 0.242712 0.030000
0.030000 0.242712 0.030000
0.030000 0.242544 0.030000
0.031125 0.237750 0.030000
0.077988 0.232957 0.030000
0.124851 0.228164 0.030000
0.171714 0.223370 0.030000
0.218577 0.218577 0.030000
0.265440 0.213784 0.030000
0.312303 0.208990 0.030000
0.359166 0.204197 0.030000
0.406029 0.199404 0.030000
0.452891 0.194610 0.030000
0.499754 0.189817 0.030000
0.546617 0.185024 0.030000
0.593480 0.180230 0.030000
0.640343 0.175437 0.030000
0.687206 0.170644 0.030000
0.734069 0.165850 0.030000
0.780932 0.161057 0.030000
0.827795 0.156263 0.030000
0.874658 0.151470 0.030000
0.921521 0.146677 0.030000
0.968383 0.141883 0.030000
1.000000 0.137090 0.030000
1.000000 0.132297 0.030000
1.000000 0.127503 0.030000
1.000000 0.122710 0.030000
1.000000 0.117917 0.030000
1.000000 0.113123 0.030000
1.000000 0.108330 0.030000
1.000000 0.108162 0.030000
1.000000 0.108162 0.030000
0.030000 0.284958 0.030000
0.030000 0.284958 0.030000
0.030000 0.284790 0.030000
0.030000 0.279996 0.030000
0.068578 0.275203 0.030000
0.115441 0.270410 0.030000
0.162304 0.265616 0.030000
0.209167 0.260823 0.030000
0.256030 0.256030 0.030000
0.302892 0.251236 0.030000
0.349755 0.246443 0.030000
0.396618 0.241649 0.030000
0.443481 0.236856 0.030000
0.490344 0.232063 0.030000
0.537207 0.227269 0.030000
0.584070 0.222476 0.030000
0.630933 0.217683 0.030000
0.677796 0.212889 0.030000
0.724659 0.208096 0.030000
0.771521 0.203303 0.030000
0.818384 0.198509 0.030000
0.865247 0.193716 0.030000
0.912110 0.188923 0.030000
0.958973 0.184129 0.030000
1.000000 0.179336 0.030000
1.000000 0.174543 0.030000
1.000000 0.169749 0.030000
1.000000 0.164956 0.030000
1.000000 0.160163 0.030000
1.000000 0.155369 0.030000
1.000000 0.150576 0.030000
1.000000 0.150408 0.030000
1.000000 0.150408 0.030000
0.030000 0.327204 0.030000
0.030000 0.327204 0.030000
0.030000 0.327035 0.030000
0.030000 0.322242 0.030000
0.059168 0.317449 0.030000
0.106030 0.312655 0.030000
0.152893 0.307862 0.030000
0.199756 0.303069 0.030000
0.246619 0.298275 0.030000
0.293482 0.293482 0.030000
0.340345 0.288689 0.030000
0.387208 0.283895 0.030000
0.434071 0.279102 0.030000
0.480934 0.274309 0.030000
0.527797 0.269515 0.030000
0.574659 0.264722 0.030000
0.621522 0.259929 0.030000
0.668385 0.255135 0.030000
0.715248 0.250342 0.030000
0.762111 0.245549 0.030000
0.808974 0.240755 0.030000
0.855837 0.235962 0.030000
0.902700 0.231169 0.030000
0.949563 0.226375 0.030000
0.996426 0.221582 0.030000
1.000000 0.216789 0.030000
1.000000 0.211995 0.030000
1.000000 0.207202 0.030000
1.000000 0.202409 0.030000
1.000000 0.197615 0.030000
1.000000 0.192822 0.030000
1.000000 0.192654 0.030000
1.000000 0.192654 0.030000
0.030000 0.369450 0.030000
0.030000 0.369450 0.030000
0.030000 0.369281 0.030000
0.030000 0.364488 0.030000
0.049757 0.359695 0.030000
0.096620 0.354901 0.030000
0.143483 0.350108 0.030000
0.190346 0.345315 0.030000
0.237209 0.340521 0.030000
0.284072 0.335728 0.030000
0.330935 0.330935 0.030000
0.377798 0.326141 0.030000
0.424660 0.321348 0.030000
0.471523 0.316555 0.030000
0.518386 0.311761 0.030000
0.565249 0.306968 0.030000
0.612112 0.302175 0.030000
0.658975 0.297381 0.030000
0.705838 0.292588 0.030000
0.752701 0.287795 0.030000
0.799564 0.283001 0.030000
0.846427 0.278208 0.030000
0.893290 0.273415 0.030000
0.940152 0.268621 0.030000
0.987015 0.263828 0.030000
1.000000 0.259034 0.030000
1.000000 0.254241 0.030000
1.000000 0.249448 0.030000
1.000000 0.244654 0.030000
1.000000 0.239861 0.030000
1.000000 0.235068 0.030000
1.000000 0.234900 0.030000
1.000000 0.234900 0.030000
0.030000 0.411695 0.030000
0.030000 0.411695 0.030000
0.030000 0.411527 0.030000
0.030000 0.406734 0.030000
0.040347 0.401941 0.030000
0.087210 0.397147 0.030000
0.134073 0.392354 0.030000
0.180936 0.387561 0.030000
0.227798 0.382767 0.030000
0.274661 0.377974 0.030000
0.321524 0.373181 0.030000
0.368387 0.368387 0.030000
0.415250 0.363594 0.030000
0.462113 0.358801 0.030000
0.508976 0.354007 0.030000
0.555839 0.349214 0.030000
0.602702 0.344420 0.030000
0.649565 0.339627 0.030000
0.696428 0.334834 0.030000
0.743290 0.330040 0.030000
0.790153 0.325247 0.030000
0.837016 0.320454 0.030000
0.883879 0.315660 0.030000
0.930742 0.310867 0.030000
0.977605 0.306074 0.030000
1.000000 0.301280 0.030000
1.000000 0.296487 0.030000
1.000000 0.291694 0.030000
1.000000 0.286900 0.030000
1.000000 0.282107 0.030000
1.000000 0.277314 0.030000
1.000000 0.277145 0.030000
1.000000 0.277145 0.030000
0.030000 0.453941 0.030000
0.030000 0.453941 0.030000
0.030000 0.453773 0.030000
0.030000 0.448980 0.030000
0.030937 0.444187 0.030000
0.077799 0.439393 0.030000
0.124662 0.434600 0.030000
0.171525 0.429806 0.030000
0.218388 0.425013 0.030000
0.265251 0.420220 0.030000
0.312114 0.415426 0.030000
0.358977 0.410633 0.030000
0.405840 0.405840 0.030000
0.452703 0.401046 0.030000
0.499566 0.396253 0.030000
0.546428 0.391460 0.030000
0.593291 0.386666 0.030000
0.640154 0.381873 0.030000
0.687017 0.377080 0.030000
0.733880 0.372286 0.030000
0.780743 0.367493 0.030000
0.827606 0.362700 0.030000
0.874469 0.357906 0.030000
0.921332 0.353113 0.030000
0.968195 0.348320 0.030000
1.000000 0.343526 0.030000
1.000000 0.338733 0.030000
1.000000 0.333940 0.030000
1.000000 0.329146 0.030000
1.000000 0.324353 0.030000
1.000000 0.319560 0.030000
1.000000 0.319391 0.030000
1.000000 0.319391 0.030000
0.030000 0.496187 0.030000
0.030000 0.496187 0.030000
0.030000 0.496019 0.030000
0.030000 0.491226 0.030000
0.030000 0.486432 0.030000
0.068389 0.481639 0.030000
0.115252 0.476846 0.030000
0.162115 0.472052 0.030000
0.208978 0.467259 0.030000
0.255841 0.462466 0.030000
0.302704 0.457672 0.030000
0.349567 0.452879 0.030000
0.396429 0.448086 0.030000
0.443292 0.443292 0.030000
0.490155 0.438499 0.030000
0.537018 0.433706 0.030000
0.583881 0.428912 0.030000
0.630744 0.424119 0.030000
0.677607 0.419326 0.030000
0.724470 0.414532 0.030000
0.771333 0.409739 0.030000
0.818196 0.404946 0.030000
0.865058 0.400152 0.030000
0.911921 0.395359 0.030000
0.958784 0.390566 0.030000
1.000000 0.385772 0.030000
1.000000 0.380979 0.030000
1.000000 0.376186 0.030000
1.000000 0.371392 0.030000
1.000000 0.366599 0.030000
1.000000 0.361805 0.030000
1.000000 0.361637 0.030000
1.000000 0.361637 0.030000
0.030000 0.538433 0.030000
0.030000 0.538433 0.030000
0.030000 0.538265 0.030000
0.030000 0.533472 0.030000
0.030000 0.528678 0.030000
0.058979 0.523885 0.030000
0.105842 0.519092 0.030000
0.152705 0.514298 0.030000
0.199567 0.509505 0.030000
0.246430 0.504712 0.030000
0.293293 0.499918 0.030000
0.340156 0.495125 0.030000
0.387019 0.490332 0.030000
0.433882 0.485538 0.030000
0.480745 0.480745 0.030000
0.527608 0.475952 0.030000
0.574471 0.471158 0.030000
0.621334 0.466365 0.030000
0.668197 0.461572 0.030000
0.715059 0.456778 0.030000
0.761922 0.451985 0.030000
0.808785 0.447191 0.030000
0.855648 0.442398 0.030000
0.902511 0.437605 0.030000
0.949374 0.432811 0.030000
0.996237 0.428018 0.030000
1.000000 0.423225 0.030000
1.000000 0.418431 0.030000
1.000000 0.413638 0.030000
1.000000 0.408845 0.030000
1.000000 0.404051 0.030000
1.000000 0.403883 0.030000
1.000000 0.403883 0.030000
0.030000 0.580679 0.030000
0.030000 0.580679 0.030000
0.030000 0.580511 0.030000
0.030000 0.575718 0.030000
0.030000 0.570924 0.030000
0.049568 0.566131 0.030000
0.096431 0.561338 0.030000
0.143294 0.556544 0.030000
0.190157 0.551751 0.030000
0.237020 0.546957 0.030000
0.283883 0.542164 0.030000
0.330746 0.537371 0.030000
0.377609 0.532577 0.030000
0.424472 0.527784 0.030000
0.471335 0.522991 0.030000
0.518197 0.518197 0.030000
0.565060 0.513404 0.030000
0.611923 0.508611 0.030000
0.658786 0.503817 0.030000
0.705649 0.499024 0.030000
0.752512 0.494231 0.030000
0.799375 0.489437 0.030000
0.846238 0.484644 0.030000
0.893101 0.479851 0.030000
0.939964 0.475057 0.030000
0.986826 0.470264 0.030000
1.000000 0.465471 0.030000
1.000000 0.460677 0.030000
1.000000 0.455884 0.030000
1.000000 0.451091 0.030000
1.000000 0.446297 0.030000
1.000000 0.446129 0.030000
1.000000 0.446129 0.030000
0.030000 0.622925 0.030000
0.030000 0.622925 0.030000
0.030000 0.622757 0.030000
0.030000 0.617963 0.030000
0.030000 0.613170 0.030000
0.040158 0.608377 0.030000
0.087021 0.603583 0.030000
0.133884 0.598790 0.030000
0.180747 0.593997 0.030000
0.227610 0.589203 0.030000
0.274473 0.584410 0.030000
0.321335 0.579617 0.030000
0.368198 0.574823 0.030000
0.415061 0.570030 0.030000
0.461924 0.565237 0.030000
0.508787 0.560443 0.030000
0.555650 0.555650 0.030000
0.602513 0.550857 0.030000
0.649376 0.546063 0.030000
0.696239 0.541270 0.030000
0.743102 0.536477 0.030000
0.789965 0.531683 0.030000
0.836827 0.526890 0.030000
0.883690 0.522097 0.030000
0.930553 0.517303 0.030000
0.977416 0.512510 0.030000
1.000000 0.507717 0.030000
1.000000 0.502923 0.030000
1.000000 0.498130 0.030000
1.000000 0.493337 0.030000
1.000000 0.488543 0.030000
1.000000 0.488375 0.030000
1.000000 0.488375 0.030000
0.030000 0.665171 0.030000
0.030000 0.665171 0.030000
0.030000 0.665003 0.030000
0.030000 0.660209 0.030000
0.030000 0.655416 0.030000
0.030748 0.650623 0.030000
0.077611 0.645829 0.030000
0.124473 0.641036 0.030000
0.171336 0.636243 0.030000
0.218199 0.631449 0.030000
0.265062 0.626656 0.030000
0.311925 0.621863 0.030000
0.358788 0.617069 0.030000
0.405651 0.612276 0.030000
0.452514 0.607483 0.030000
0.499377 0.602689 0.030000
0.546240 0.597896 0.030000
0.593103 0.593103 0.030000
0.639965 0.588309 0.030000
0.686828 0.583516 0.030000
0.733691 0.578723 0.030000
0.780554 0.573929 0.030000
0.827417 0.569136 0.030000
0.874280 0.564343 0.030000
0.921143 0.559549 0.030000
0.968006 0.554756 0.030000
1.000000 0.549962 0.030000
1.000000 0.545169 0.030000
1.000000 0.540376 0.030000
1.000000 0.535582 0.030000
1.000000 0.530789 0.030000
1.000000 0.530621 0.030000
1.000000 0.530621 0.030000
0.030000 0.707417 0.030000
0.030000 0.707417 0.030000
0.030000 0.707249 0.030000
0.030000 0.702455 0.030000
0.030000 0.697662 0.030000
0.030000 0.692869 0.030000
0.068200 0.688075 0.030000
0.115063 0.683282 0.030000
0.161926 0.678489 0.030000
0.208789 0.673695 0.030000
0.255652 0.668902 0.030000
0.302515 0.664109 0.030000
0.349378 0.659315 0.030000
0.396241 0.654522 0.030000
0.443103 0.649729 0.030000
0.489966 0.644935 0.030000
0.536829 0.640142 0.030000
0.583692 0.635348 0.030000
0.630555 0.630555 0.030000
0.677418 0.625762 0.030000
0.724281 0.620968 0.030000
0.771144 0.616175 0.030000
0.818007 0.611382 0.030000
0.864870 0.606588 0.030000
0.911733 0.601795 0.030000
0.958595 0.597002 0.030000
1.000000 0.592208 0.030000
1.000000 0.587415 0.030000
1.000000 0.582622 0.030000
1.000000 0.577828 0.030000
1.000000 0.573035 0.030000
1.000000 0.572867 0.030000
1.000000 0.572867 0.030000
0.030000 0.749663 0.030000
0.030000 0.749663 0.030000
0.030000 0.749495 0.030000
0.030000 0.744701 0.030000
0.030000 0.739908 0.030000
0.030000 0.735115 0.030000
0.058790 0.730321 0.030000
0.105653 0.725528 0.030000
0.152516 0.720734 0.030000
0.199379 0.715941 0.030000
0.246242 0.711148 0.030000
0.293104 0.706354 0.030000
0.339967 0.701561 0.030000
0.386830 0.696768 0.030000
0.433693 0.691974 0.030000
0.480556 0.687181 0.030000
0.527419 0.682388 0.030000
0.574282 0.677594 0.030000
0.621145 0.672801 0.030000
0.668008 0.668008 0.030000
0.714871 0.663214 0.030000
0.761733 0.658421 0.030000
0.808596 0.653628 0.030000
0.855459 0.648834 0.030000
0.902322 0.644041 0.030000
0.949185 0.639248 0.030000
0.996048 0.634454 0.030000
1.000000 0.629661 0.030000
1.000000 0.624868 0.030000
1.000000 0.620074 0.030000
1.000000 0.615281 0.030000
1.000000 0.615113 0.030000
1.000000 0.615113 0.030000
0.030000 0.791909 0.030000
0.030000 0.791909 0.030000
0.030000 0.791740 0.030000
0.030000 0.786947 0.030000
0.030000 0.782154 0.030000
0.030000 0.777360 0.030000
0.049380 0.772567 0.030000
0.096242 0.767774 0.030000
0.143105 0.762980 0.030000
0.189968 0.758187 0.030000
0.236831 0.753394 0.030000
0.283694 0.748600 0.030000
0.330557 0.743807 0.030000
0.377420 0.739014 0.030000
0.424283 0.734220 0.030000
0.471146 0.729427 0.030000
0.518009 0.724634 0.030000
0.564872 0.719840 0.030000
0.611734 0.715047 0.030000
0.658597 0.710254 0.030000
0.705460 0.705460 0.030000
0.752323 0.700667 0.030000
0.799186 0.695874 0.030000
0.846049 0.691080 0.030000
0.892912 0.686287 0.030000
0.939775 0.681494 0.030000
0.986638 0.676700 0.030000
1.000000 0.671907 0.030000
1.000000 0.667114 0.030000
1.000000 0.662320 0.030000
1.000000 0.657527 0.030000
1.000000 0.657359 0.030000
1.000000 0.657359 0.030000
0.030000 0.834155 0.030000
0.030000 0.834155 0.030000
0.030000 0.833986 0.030000
0.030000 0.829193 0.030000
0.030000 0.824400 0.030000
0.030000 0.819606 0.030000
0.039969 0.814813 0.030000
0.086832 0.810020 0.030000
0.133695 0.805226 0.030000
0.180558 0.800433 0.030000
0.227421 0.795640 0.030000
0.274284 0.790846 0.030000
0.321147 0.786053 0.030000
0.368010 0.781260 0.030000
0.414872 0.776466 0.030000
0.461735 0.771673 0.030000
0.508598 0.766880 0.030000
0.555461 0.762086 0.030000
0.602324 0.757293 0.030000
0.649187 0.752499 0.030000
0.696050 0.747706 0.030000
0.742913 0.742913 0.030000
0.789776 0.738119 0.030000
0.836639 0.733326 0.030000
0.883502 0.728533 0.030000
0.930364 0.723739 0.030000
0.977227 0.718946 0.030000
1.000000 0.714153 0.030000
1.000000 0.709359 0.030000
1.000000 0.704566 0.030000
1.000000 0.699773 0.030000
1.000000 0.699605 0.030000
1.000000 0.699605 0.030000
0.030000 0.876400 0.030000
0.030000 0.876400 0.030000
0.030000 0.876232 0.030000
0.030000 0.871439 0.030000
0.030000 0.866646 0.030000
0.030000 0.861852 0.030000
0.030559 0.857059 0.030000
0.077422 0.852266 0.030000
0.124285 0.847472 0.030000
0.171148 0.842679 0.030000
0.218011 0.837886 0.030000
0.264873 0.833092 0.030000
0.311736 0.828299 0.030000
0.358599 0.823505 0.030000
0.405462 0.818712 0.030000
0.452325 0.813919 0.030000
0.499188 0.809125 0.030000
0.546051 0.804332 0.030000
0.592914 0.799539 0.030000
0.639777 0.794745 0.030000
0.686640 0.789952 0.030000
0.733502 0.785159 0.030000
0.780365 0.780365 0.030000
0.827228 0.775572 0.030000
0.874091 0.770779 0.030000
0.920954 0.765985 0.030000
0.967817 0.761192 0.030000
1.000000 0.756399 0.030000
1.000000 0.751605 0.030000
1.000000 0.746812 0.030000
1.000000 0.742019 0.030000
1.000000 0.741850 0.030000
1.000000 0.741850 0.030000
0.030000 0.918646 0.030000
0.030000 0.918646 0.030000
0.030000 0.918478 0.030000
0.030000 0.913685 0.030000
0.030000 0.908891 0.030000
0.030000 0.904098 0.030000
0.030000 0.899305 0.030000
0.068011 0.894511 0.030000
0.114874 0.889718 0.030000
0.161737 0.884925 0.030000
0.208600 0.880131 0.030000
0.255463 0.875338 0.030000
0.302326 0.870545 0.030000
0.349189 0.865751 0.030000
0.396052 0.860958 0.030000
0.442915 0.856165 0.030000
0.489778 0.851371 0.030000
0.536641 0.846578 0.030000
0.583503 0.841785 0.030000
0.630366 0.836991 0.030000
0.677229 0.832198 0.030000
0.724092 0.827405 0.030000
0.770955 0.822611 0.030000
0.817818 0.817818 0.030000
0.864681 0.813025 0.030000
0.911544 0.808231 0.030000
0.958407 0.803438 0.030000
1.000000 0.798645 0.030000
1.000000 0.793851 0.030000
1.000000 0.789058 0.030000
1.000000 0.784265 0.030000
1.000000 0.784096 0.030000
1.000000 0.784096 0.030000
0.030000 0.960892 0.030000
0.030000 0.960892 0.030000
0.030000 0.960724 0.030000
0.030000 0.955931 0.030000
0.030000 0.951137 0.030000
0.030000 0.946344 0.030000
0.030000 0.941551 0.030000
0.058601 0.936757 0.030000
0.105464 0.931964 0.030000
0.152327 0.927171 0.030000
0.199190 0.922377 0.030000
0.246053 0.917584 0.030000
0.292916 0.912791 0.030000
0.339779 0.907997 0.030000
0.386641 0.903204 0.030000
0.433504 0.898411 0.030000
0.480367 0.893617 0.030000
0.527230 0.888824 0.030000
0.574093 0.884031 0.030000
0.620956 0.879237 0.030000
0.667819 0.874444 0.030000
0.714682 0.869651 0.030000
0.761545 0.864857 0.030000
0.808408 0.860064 0.030000
0.855270 0.855270 0.030000
0.902133 0.850477 0.030000
0.948996 0.845684 0.030000
0.995859 0.840890 0.030000
1.000000 0.836097 0.030000
1.000000 0.831304 0.030000
1.000000 0.826510 0.030000
1.000000 0.826342 0.030000
1.000000 0.826342 0.030000
0.030000 1.000000 0.030000
0.030000 1.000000 0.030000
0.030000 1.000000 0.030000
0.030000 0.998177 0.030000
0.030000 0.993383 0.030000
0.030000 0.988590 0.030000
0.030000 0.983797 0.030000
0.049191 0.979003 0.030000
0.096054 0.974210 0.030000
0.142917 0.969417 0.030000
0.189779 0.964623 0.030000
0.236642 0.959830 0.030000
0.283505 0.955037 0.030000
0.330368 0.950243 0.030000
0.377231 0.945450 0.030000
0.424094 0.940657 0.030000
0.470957 0.935863 0.030000
0.517820 0.931070 0.030000
0.564683 0.926276 0.030000
0.611546 0.921483 0.030000
0.658409 0.916690 0.030000
0.705271 0.911896 0.030000
0.752134 0.907103 0.030000
0.798997 0.902310 0.030000
0.845860 0.897516 0.030000
0.892723 0.892723 0.030000
0.939586 0.887930 0.030000
0.986449 0.883136 0.030000
1.000000 0.878343 0.030000
1.000000 0.873550 0.030000
1.000000 0.868756 0.030000
1.000000 0.868588 0.030000
1.000000 0.868588 0.030000
0.030000 1.000000 0.030000
0.030000 1.000000 0.030000
0.030000 1.000000 0.030000
0.030000 1.000000 0.030000
0.030000 1.000000 0.030000
0.030000 1.000000 0.030000
0.030000 1.000000 0.030000
0.039780 1.000000 0.030000
0.086643 1.000000 0.030000
0.133506 1.000000 0.030000
0.180369 1.000000 0.030000
0.227232 1.000000 0.030000
0.274095 0.997282 0.030000
0.320958 0.992489 0.030000
0.367821 0.987696 0.030000
0.414684 0.982902 0.030000
0.461547 0.978109 0.030000
0.508409 0.973316 0.030000
0.555272 0.968522 0.030000
0.602135 0.963729 0.030000
0.648998 0.958936 0.030000
0.695861 0.954142 0.030000
0.742724 0.949349 0.030000
0.789587 0.944556 0.030000
0.836450 0.939762 0.030000
0.883313 0.934969 0.030000
0.930176 0.930176 0.030000
0.977039 0.925382 0.030000
1.000000 0.920589 0.030000
